(CutOut)
(Machine)
(  vendor: ProtoMat S42 Mod)
(  description: Generic 3-axis)
(T1  D=3 CR=0 - ZMIN=-9 - flat end mill)
G90 G94
G17
G21
(When using Fusion 360 for Personal Use, the feedrate of)
(rapid moves is reduced to match the feedrate of cutting)
(moves, which can increase machining time. Unrestricted rapid)
(moves are available with a Fusion 360 Subscription.)
G28 G91 Z0
G90

(2D Contour1)
T1 M6
S12000 M3
G54
G0 X-16.065 Y-37.8
Z15
G1 Z5 F400
Z3 F133.3
Z-1.7
G18 G2 X-15.765 Z-2 I0.3 K0 F400
G1 X-15.465
G17 G3 X-15.165 Y-37.5 I0 J0.3
G1 Y37.5
G2 X-13.665 Y39 I1.5 J0
G1 X13.665
G2 X15.165 Y37.5 I0 J-1.5
G1 Y-37.5
G2 X13.665 Y-39 I-1.5 J0
G1 X-13.665
G2 X-15.165 Y-37.5 I0 J1.5
G3 X-15.465 Y-37.2 I-0.3 J0
G1 X-15.765
G18 G3 X-16.065 Z-1.7 I0 K0.3
G1 Z5
Y-37.8
Z1 F133.3
Z-3.7
G2 X-15.765 Z-4 I0.3 K0 F400
G1 X-15.465
G17 G3 X-15.165 Y-37.5 I0 J0.3
G1 Y37.5
G2 X-13.665 Y39 I1.5 J0
G1 X13.665
G2 X15.165 Y37.5 I0 J-1.5
G1 Y-37.5
G2 X13.665 Y-39 I-1.5 J0
G1 X-13.665
G2 X-15.165 Y-37.5 I0 J1.5
G3 X-15.465 Y-37.2 I-0.3 J0
G1 X-15.765
G18 G3 X-16.065 Z-3.7 I0 K0.3
G1 Z5
Y-37.8
Z-1 F133.3
Z-5.7
G2 X-15.765 Z-6 I0.3 K0 F400
G1 X-15.465
G17 G3 X-15.165 Y-37.5 I0 J0.3
G1 Y37.5
G2 X-13.665 Y39 I1.5 J0
G1 X13.665
G2 X15.165 Y37.5 I0 J-1.5
G1 Y-37.5
G2 X13.665 Y-39 I-1.5 J0
G1 X-13.665
G2 X-15.165 Y-37.5 I0 J1.5
G3 X-15.465 Y-37.2 I-0.3 J0
G1 X-15.765
G18 G3 X-16.065 Z-5.7 I0 K0.3
G1 Z5
Y-37.8
Z-3 F133.3
Z-7.7
G2 X-15.765 Z-8 I0.3 K0 F400
G1 X-15.465
G17 G3 X-15.165 Y-37.5 I0 J0.3
G1 Y37.5
G2 X-13.665 Y39 I1.5 J0
G1 X13.665
G2 X15.165 Y37.5 I0 J-1.5
G1 Y-37.5
G2 X13.665 Y-39 I-1.5 J0
G1 X-13.665
G2 X-15.165 Y-37.5 I0 J1.5
G3 X-15.465 Y-37.2 I-0.3 J0
G1 X-15.765
G18 G3 X-16.065 Z-7.7 I0 K0.3
G1 Z5
Y-37.8
Z-5 F133.3
Z-8.7
G2 X-15.765 Z-9 I0.3 K0 F400
G1 X-15.465
G17 G3 X-15.165 Y-37.5 I0 J0.3
G1 Y37.5
G2 X-13.665 Y39 I1.5 J0
G1 X13.665
G2 X15.165 Y37.5 I0 J-1.5
G1 Y-37.5
G2 X13.665 Y-39 I-1.5 J0
G1 X-13.665
G2 X-15.165 Y-37.5 I0 J1.5
G3 X-15.465 Y-37.2 I-0.3 J0
G1 X-15.765
G18 G3 X-16.065 Z-8.7 I0 K0.3
G1 Z15
G17
G28 G91 Z0
G90
G28 G91 X0 Y0
G90
M5
M30
