(Facing)
(Machine)
(  vendor: ProtoMat S42 Mod)
(  description: Generic 3-axis)
(T1  D=3 CR=0 - ZMIN=-4.5 - flat end mill)
G90 G94
G17
G21
(When using Fusion 360 for Personal Use, the feedrate of)
(rapid moves is reduced to match the feedrate of cutting)
(moves, which can increase machining time. Unrestricted rapid)
(moves are available with a Fusion 360 Subscription.)
G28 G91 Z0
G90

(Face1)
T1 M6
S12000 M3
G54
G0 X15.475 Y-38.529
Z15
G1 Z5 F400
Z-0.7 F133.3
G18 G3 X15.175 Z-1 I-0.3 K0 F400
G1 X-15.175
G17 G2 X-15.175 Y-38.063 I0 J0.233
G1 X15.175
G3 X15.175 Y-37.597 I0 J0.233
G1 X-15.175
G2 X-15.175 Y-37.13 I0 J0.233
G1 X15.175
G3 X15.175 Y-36.664 I0 J0.233
G1 X-15.175
G2 X-15.175 Y-36.198 I0 J0.233
G1 X15.175
G3 X15.175 Y-35.732 I0 J0.233
G1 X-15.175
G2 X-15.175 Y-35.265 I0 J0.233
G1 X15.175
G3 X15.175 Y-34.799 I0 J0.233
G1 X-15.175
G2 X-15.175 Y-34.333 I0 J0.233
G1 X15.175
G3 X15.175 Y-33.867 I0 J0.233
G1 X-15.175
G2 X-15.175 Y-33.4 I0 J0.233
G1 X15.175
G3 X15.175 Y-32.934 I0 J0.233
G1 X-15.175
G2 X-15.175 Y-32.468 I0 J0.233
G1 X15.175
G3 X15.175 Y-32.002 I0 J0.233
G1 X-15.175
G2 X-15.175 Y-31.535 I0 J0.233
G1 X15.175
G3 X15.175 Y-31.069 I0 J0.233
G1 X-15.175
G2 X-15.175 Y-30.603 I0 J0.233
G1 X15.175
G3 X15.175 Y-30.137 I0 J0.233
G1 X-15.175
G2 X-15.175 Y-29.67 I0 J0.233
G1 X15.175
G3 X15.175 Y-29.204 I0 J0.233
G1 X-15.175
G2 X-15.175 Y-28.738 I0 J0.233
G1 X15.175
G3 X15.175 Y-28.272 I0 J0.233
G1 X-15.175
G2 X-15.175 Y-27.805 I0 J0.233
G1 X15.175
G3 X15.175 Y-27.339 I0 J0.233
G1 X-15.175
G2 X-15.175 Y-26.873 I0 J0.233
G1 X15.175
G3 X15.175 Y-26.407 I0 J0.233
G1 X-15.175
G2 X-15.175 Y-25.94 I0 J0.233
G1 X15.175
G3 X15.175 Y-25.474 I0 J0.233
G1 X-15.175
G2 X-15.175 Y-25.008 I0 J0.233
G1 X15.175
G3 X15.175 Y-24.542 I0 J0.233
G1 X-15.175
G2 X-15.175 Y-24.075 I0 J0.233
G1 X15.175
G3 X15.175 Y-23.609 I0 J0.233
G1 X-15.175
G2 X-15.175 Y-23.143 I0 J0.233
G1 X15.175
G3 X15.175 Y-22.677 I0 J0.233
G1 X-15.175
G2 X-15.175 Y-22.21 I0 J0.233
G1 X15.175
G3 X15.175 Y-21.744 I0 J0.233
G1 X-15.175
G2 X-15.175 Y-21.278 I0 J0.233
G1 X15.175
G3 X15.175 Y-20.812 I0 J0.233
G1 X-15.175
G2 X-15.175 Y-20.345 I0 J0.233
G1 X15.175
G3 X15.175 Y-19.879 I0 J0.233
G1 X-15.175
G2 X-15.175 Y-19.413 I0 J0.233
G1 X15.175
G3 X15.175 Y-18.947 I0 J0.233
G1 X-15.175
G2 X-15.175 Y-18.48 I0 J0.233
G1 X15.175
G3 X15.175 Y-18.014 I0 J0.233
G1 X-15.175
G2 X-15.175 Y-17.548 I0 J0.233
G1 X15.175
G3 X15.175 Y-17.082 I0 J0.233
G1 X-15.175
G2 X-15.175 Y-16.616 I0 J0.233
G1 X15.175
G3 X15.175 Y-16.149 I0 J0.233
G1 X-15.175
G2 X-15.175 Y-15.683 I0 J0.233
G1 X15.175
G3 X15.175 Y-15.217 I0 J0.233
G1 X-15.175
G2 X-15.175 Y-14.751 I0 J0.233
G1 X15.175
G3 X15.175 Y-14.284 I0 J0.233
G1 X-15.175
G2 X-15.175 Y-13.818 I0 J0.233
G1 X15.175
G3 X15.175 Y-13.352 I0 J0.233
G1 X-15.175
G2 X-15.175 Y-12.886 I0 J0.233
G1 X15.175
G3 X15.175 Y-12.419 I0 J0.233
G1 X-15.175
G2 X-15.175 Y-11.953 I0 J0.233
G1 X15.175
G3 X15.175 Y-11.487 I0 J0.233
G1 X-15.175
G2 X-15.175 Y-11.021 I0 J0.233
G1 X15.175
G3 X15.175 Y-10.554 I0 J0.233
G1 X-15.175
G2 X-15.175 Y-10.088 I0 J0.233
G1 X15.175
G3 X15.175 Y-9.622 I0 J0.233
G1 X-15.175
G2 X-15.175 Y-9.156 I0 J0.233
G1 X15.175
G3 X15.175 Y-8.689 I0 J0.233
G1 X-15.175
G2 X-15.175 Y-8.223 I0 J0.233
G1 X15.175
G3 X15.175 Y-7.757 I0 J0.233
G1 X-15.175
G2 X-15.175 Y-7.291 I0 J0.233
G1 X15.175
G3 X15.175 Y-6.824 I0 J0.233
G1 X-15.175
G2 X-15.175 Y-6.358 I0 J0.233
G1 X15.175
G3 X15.175 Y-5.892 I0 J0.233
G1 X-15.175
G2 X-15.175 Y-5.426 I0 J0.233
G1 X15.175
G3 X15.175 Y-4.959 I0 J0.233
G1 X-15.175
G2 X-15.175 Y-4.493 I0 J0.233
G1 X15.175
G3 X15.175 Y-4.027 I0 J0.233
G1 X-15.175
G2 X-15.175 Y-3.561 I0 J0.233
G1 X15.175
G3 X15.175 Y-3.094 I0 J0.233
G1 X-15.175
G2 X-15.175 Y-2.628 I0 J0.233
G1 X15.175
G3 X15.175 Y-2.162 I0 J0.233
G1 X-15.175
G2 X-15.175 Y-1.696 I0 J0.233
G1 X15.175
G3 X15.175 Y-1.229 I0 J0.233
G1 X-15.175
G2 X-15.175 Y-0.763 I0 J0.233
G1 X15.175
G3 X15.175 Y-0.297 I0 J0.233
G1 X-15.175
G2 X-15.175 Y0.169 I0 J0.233
G1 X15.175
G3 X15.175 Y0.636 I0 J0.233
G1 X-15.175
G2 X-15.175 Y1.102 I0 J0.233
G1 X15.175
G3 X15.175 Y1.568 I0 J0.233
G1 X-15.175
G2 X-15.175 Y2.034 I0 J0.233
G1 X15.175
G3 X15.175 Y2.501 I0 J0.233
G1 X-15.175
G2 X-15.175 Y2.967 I0 J0.233
G1 X15.175
G3 X15.175 Y3.433 I0 J0.233
G1 X-15.175
G2 X-15.175 Y3.899 I0 J0.233
G1 X15.175
G3 X15.175 Y4.366 I0 J0.233
G1 X-15.175
G2 X-15.175 Y4.832 I0 J0.233
G1 X15.175
G3 X15.175 Y5.298 I0 J0.233
G1 X-15.175
G2 X-15.175 Y5.764 I0 J0.233
G1 X15.175
G3 X15.175 Y6.231 I0 J0.233
G1 X-15.175
G2 X-15.175 Y6.697 I0 J0.233
G1 X15.175
G3 X15.175 Y7.163 I0 J0.233
G1 X-15.175
G2 X-15.175 Y7.629 I0 J0.233
G1 X15.175
G3 X15.175 Y8.096 I0 J0.233
G1 X-15.175
G2 X-15.175 Y8.562 I0 J0.233
G1 X15.175
G3 X15.175 Y9.028 I0 J0.233
G1 X-15.175
G2 X-15.175 Y9.494 I0 J0.233
G1 X15.175
G3 X15.175 Y9.961 I0 J0.233
G1 X-15.175
G2 X-15.175 Y10.427 I0 J0.233
G1 X15.175
G3 X15.175 Y10.893 I0 J0.233
G1 X-15.175
G2 X-15.175 Y11.359 I0 J0.233
G1 X15.175
G3 X15.175 Y11.826 I0 J0.233
G1 X-15.175
G2 X-15.175 Y12.292 I0 J0.233
G1 X15.175
G3 X15.175 Y12.758 I0 J0.233
G1 X-15.175
G2 X-15.175 Y13.224 I0 J0.233
G1 X15.175
G3 X15.175 Y13.691 I0 J0.233
G1 X-15.175
G2 X-15.175 Y14.157 I0 J0.233
G1 X15.175
G3 X15.175 Y14.623 I0 J0.233
G1 X-15.175
G2 X-15.175 Y15.089 I0 J0.233
G1 X15.175
G3 X15.175 Y15.555 I0 J0.233
G1 X-15.175
G2 X-15.175 Y16.022 I0 J0.233
G1 X15.175
G3 X15.175 Y16.488 I0 J0.233
G1 X-15.175
G2 X-15.175 Y16.954 I0 J0.233
G1 X15.175
G3 X15.175 Y17.42 I0 J0.233
G1 X-15.175
G2 X-15.175 Y17.887 I0 J0.233
G1 X15.175
G3 X15.175 Y18.353 I0 J0.233
G1 X-15.175
G2 X-15.175 Y18.819 I0 J0.233
G1 X15.175
G3 X15.175 Y19.285 I0 J0.233
G1 X-15.175
G2 X-15.175 Y19.752 I0 J0.233
G1 X15.175
G3 X15.175 Y20.218 I0 J0.233
G1 X-15.175
G2 X-15.175 Y20.684 I0 J0.233
G1 X15.175
G3 X15.175 Y21.15 I0 J0.233
G1 X-15.175
G2 X-15.175 Y21.617 I0 J0.233
G1 X15.175
G3 X15.175 Y22.083 I0 J0.233
G1 X-15.175
G2 X-15.175 Y22.549 I0 J0.233
G1 X15.175
G3 X15.175 Y23.015 I0 J0.233
G1 X-15.175
G2 X-15.175 Y23.482 I0 J0.233
G1 X15.175
G3 X15.175 Y23.948 I0 J0.233
G1 X-15.175
G2 X-15.175 Y24.414 I0 J0.233
G1 X15.175
G3 X15.175 Y24.88 I0 J0.233
G1 X-15.175
G2 X-15.175 Y25.347 I0 J0.233
G1 X15.175
G3 X15.175 Y25.813 I0 J0.233
G1 X-15.175
G2 X-15.175 Y26.279 I0 J0.233
G1 X15.175
G3 X15.175 Y26.745 I0 J0.233
G1 X-15.175
G2 X-15.175 Y27.212 I0 J0.233
G1 X15.175
G3 X15.175 Y27.678 I0 J0.233
G1 X-15.175
G2 X-15.175 Y28.144 I0 J0.233
G1 X15.175
G3 X15.175 Y28.61 I0 J0.233
G1 X-15.175
G2 X-15.175 Y29.077 I0 J0.233
G1 X15.175
G3 X15.175 Y29.543 I0 J0.233
G1 X-15.175
G2 X-15.175 Y30.009 I0 J0.233
G1 X15.175
G3 X15.175 Y30.475 I0 J0.233
G1 X-15.175
G2 X-15.175 Y30.942 I0 J0.233
G1 X15.175
G3 X15.175 Y31.408 I0 J0.233
G1 X-15.175
G2 X-15.175 Y31.874 I0 J0.233
G1 X15.175
G3 X15.175 Y32.34 I0 J0.233
G1 X-15.175
G2 X-15.175 Y32.807 I0 J0.233
G1 X15.175
G3 X15.175 Y33.273 I0 J0.233
G1 X-15.175
G2 X-15.175 Y33.739 I0 J0.233
G1 X15.175
G3 X15.175 Y34.205 I0 J0.233
G1 X-15.175
G2 X-15.175 Y34.672 I0 J0.233
G1 X15.175
G3 X15.175 Y35.138 I0 J0.233
G1 X-15.175
G2 X-15.175 Y35.604 I0 J0.233
G1 X15.175
G3 X15.175 Y36.07 I0 J0.233
G1 X-15.175
G18 G3 X-15.475 Z-0.7 I0 K0.3
G1 Z15
G17
(When using Fusion 360 for Personal Use, the feedrate of)
(rapid moves is reduced to match the feedrate of cutting)
(moves, which can increase machining time. Unrestricted rapid)
(moves are available with a Fusion 360 Subscription.)

(2D Adaptive1)
G0 X-7.805 Y2.984
G1 Z15 F400
Z5
Z2.55
G3 X-8.683 Y0.649 Z2.446 I0.305 J-1.448 F1206
X-6.198 Y0.838 Z2.343 I1.182 J0.887
X-7.418 Y3.008 Z2.239 I-1.301 J0.696
X-8.868 Y0.989 Z2.135 I-0.082 J-1.472
X-6.429 Y0.527 Z2.032 I1.367 J0.547
X-7.039 Y2.931 Z1.928 I-1.071 J1.007
X-8.958 Y1.364 Z1.824 I-0.46 J-1.395
X-6.731 Y0.288 Z1.721 I1.457 J0.171
X-6.695 Y2.758 Z1.617 I-0.77 J1.247
X-8.947 Y1.749 Z1.513 I-0.804 J-1.222
X-7.084 Y0.136 Z1.41 I1.446 J-0.213
X-6.409 Y2.503 Z1.306 I-0.417 J1.399
X-8.837 Y2.116 Z1.202 I-1.091 J-0.967
X-7.462 Y0.081 Z1.099 I1.336 J-0.58
X-6.199 Y2.183 Z0.995 I-0.038 J1.454
X-8.635 Y2.44 Z0.891 I-1.3 J-0.648
X-7.841 Y0.126 Z0.788 I1.135 J-0.904
X-6.081 Y1.821 Z0.684 I0.34 J1.408
X-8.358 Y2.7 Z0.58 I-1.418 J-0.286
X-8.193 Y0.268 Z0.476 I0.857 J-1.164
X-6.061 Y1.442 Z0.373 I0.692 J1.267
X-8.023 Y2.878 Z0.269 I-1.439 J0.093
X-8.496 Y0.496 Z0.165 I0.523 J-1.341
X-6.14 Y1.073 Z0.062 I0.994 J1.039
X-7.655 Y2.962 Z-0.042 I-1.36 J0.462
X-8.727 Y0.794 Z-0.146 I0.155 J-1.426
X-6.312 Y0.738 Z-0.249 I1.226 J0.742
X-7.279 Y2.948 Z-0.353 I-1.188 J0.797
X-8.873 Y1.14 Z-0.457 I-0.22 J-1.412
X-6.564 Y0.46 Z-0.56 I1.371 J0.396
X-6.921 Y2.837 Z-0.664 I-0.936 J1.075
X-8.923 Y1.511 Z-0.768 I-0.578 J-1.301
X-6.878 Y0.258 Z-0.871 I1.421 J0.025
X-6.606 Y2.637 Z-0.975 I-0.622 J1.276
X-8.875 Y1.881 Z-1.079 I-0.893 J-1.101
X-7.233 Y0.146 Z-1.182 I1.374 J-0.344
X-6.355 Y2.363 Z-1.286 I-0.267 J1.389
X-8.733 Y2.224 Z-1.39 I-1.145 J-0.828
X-7.604 Y0.129 Z-1.493 I1.232 J-0.687
X-6.184 Y2.035 Z-1.597 I0.103 J1.405
X-8.507 Y2.517 Z-1.701 I-1.316 J-0.499
X-7.964 Y0.21 Z-1.804 I1.007 J-0.981
X-6.105 Y1.674 Z-1.908 I0.463 J1.325
X-8.215 Y2.741 Z-2.012 I-1.395 J-0.139
X-8.29 Y0.381 Z-2.115 I0.714 J-1.204
X-6.122 Y1.307 Z-2.219 I0.789 J1.154
X-7.875 Y2.88 Z-2.323 I-1.378 J0.228
X-8.559 Y0.63 Z-2.426 I0.375 J-1.343
X-6.234 Y0.959 Z-2.53 I1.058 J0.906
X-7.512 Y2.925 Z-2.634 I-1.266 J0.576
X-8.754 Y0.939 Z-2.737 I0.012 J-1.389
X-6.432 Y0.652 Z-2.841 I1.252 J0.597
X-7.151 Y2.875 Z-2.945 I-1.068 J0.882
X-8.861 Y1.287 Z-3.049 I-0.348 J-1.339
X-6.702 Y0.409 Z-3.152 I1.359 J0.249
X-6.817 Y2.734 Z-3.256 I-0.799 J1.125
X-8.873 Y1.649 Z-3.36 I-0.682 J-1.198
X-7.024 Y0.245 Z-3.463 I1.372 J-0.113
X-6.533 Y2.511 Z-3.567 I-0.476 J1.289
X-8.791 Y2 Z-3.671 I-0.966 J-0.975
X-7.377 Y0.171 Z-3.774 I1.29 J-0.464
X-6.317 Y2.223 Z-3.878 I-0.124 J1.364
X-8.621 Y2.317 Z-3.982 I-1.182 J-0.687
X-7.735 Y0.191 Z-4.085 I1.121 J-0.781
X-6.184 Y1.89 Z-4.189 I0.234 J1.343
X-8.376 Y2.578 Z-4.293 I-1.315 J-0.354
X-8.075 Y0.304 Z-4.396 I0.875 J-1.041
X-6.143 Y1.535 Z-4.5 I0.573 J1.231
X-8.86 Y1.535 I-1.358 J0
X-6.143 Y1.535 I1.358 J0
G1 X-6.139 Y1.613 F400
X-5.947 Y1.951
X-5.912 Y2.049
X-5.913 Y2.152
X-5.948 Y2.25
X-6.148 Y2.596
X-6.171 Y2.631
X-6.202 Y2.667
X-6.225 Y2.686
X-6.594 Y2.996
X-6.65 Y3.034
X-6.797 Y3.09
X-7.138 Y3.214
X-7.169 Y3.225
X-7.201 Y3.232
X-7.217 Y3.234
X-7.358 Y3.237
X-7.642
X-7.783 Y3.234
X-7.799 Y3.232
X-7.831 Y3.225
X-7.862 Y3.214
X-8.208 Y3.088
X-8.35 Y3.034
X-8.406 Y2.996
X-8.775 Y2.686
X-8.798 Y2.667
X-8.829 Y2.631
X-8.852 Y2.596
X-9.098 Y2.17
X-9.114 Y2.136
X-9.126 Y2.102
X-9.152 Y1.96
X-9.22 Y1.572
X-9.222 Y1.536
X-9.22 Y1.501
X-9.152 Y1.113
X-9.126 Y0.971
X-9.114 Y0.937
X-9.098 Y0.903
X-8.852 Y0.477
X-8.829 Y0.442
X-8.798 Y0.406
X-8.775 Y0.387
X-8.406 Y0.077
X-8.35 Y0.039
X-8.203 Y-0.017
X-7.862 Y-0.141
X-7.831 Y-0.152
X-7.799 Y-0.159
X-7.783 Y-0.161
X-7.642 Y-0.164
X-7.358
X-7.217 Y-0.161
X-7.201 Y-0.159
X-7.169 Y-0.152
X-7.138 Y-0.141
X-6.792 Y-0.015
X-6.65 Y0.039
X-6.594 Y0.077
X-6.225 Y0.387
X-6.202 Y0.406
X-6.171 Y0.442
X-6.148 Y0.477
X-5.902 Y0.903
X-5.886 Y0.937
X-5.874 Y0.971
X-5.848 Y1.113
X-5.78 Y1.501
X-5.778 Y1.536
X-5.78 Y1.572
X-5.848 Y1.96
X-5.874 Y2.102
X-5.886 Y2.136
X-5.902 Y2.17
X-5.948 Y2.25
G3 X-6.502 Y2.08 I-0.254 J-0.159
G1 X-6.5 Y2.013 Z-4.492
X-6.498 Y1.95 Z-4.47
X-6.496 Y1.893 Z-4.435
X-6.494 Y1.846 Z-4.387
X-6.493 Y1.81 Z-4.33
X-6.492 Y1.788 Z-4.267
Y1.78 Z-4.2
Z15
X7.195 Y2.984
Z5
Z2.55
G3 X6.317 Y0.649 Z2.446 I0.305 J-1.448 F1206
X8.802 Y0.838 Z2.343 I1.182 J0.887
X7.582 Y3.008 Z2.239 I-1.301 J0.696
X6.132 Y0.989 Z2.135 I-0.082 J-1.472
X8.571 Y0.527 Z2.032 I1.367 J0.547
X7.961 Y2.931 Z1.928 I-1.071 J1.007
X6.042 Y1.364 Z1.824 I-0.46 J-1.395
X8.269 Y0.288 Z1.721 I1.457 J0.171
X8.305 Y2.758 Z1.617 I-0.77 J1.247
X6.053 Y1.749 Z1.513 I-0.804 J-1.222
X7.916 Y0.136 Z1.41 I1.446 J-0.213
X8.591 Y2.503 Z1.306 I-0.417 J1.399
X6.163 Y2.116 Z1.202 I-1.091 J-0.967
X7.538 Y0.081 Z1.099 I1.336 J-0.58
X8.801 Y2.183 Z0.995 I-0.038 J1.454
X6.365 Y2.44 Z0.891 I-1.3 J-0.648
X7.159 Y0.126 Z0.788 I1.135 J-0.904
X8.919 Y1.821 Z0.684 I0.34 J1.408
X6.642 Y2.7 Z0.58 I-1.418 J-0.286
X6.807 Y0.268 Z0.476 I0.857 J-1.164
X8.939 Y1.442 Z0.373 I0.692 J1.267
X6.977 Y2.878 Z0.269 I-1.439 J0.093
X6.504 Y0.496 Z0.165 I0.523 J-1.341
X8.86 Y1.073 Z0.062 I0.994 J1.039
X7.345 Y2.962 Z-0.042 I-1.36 J0.462
X6.273 Y0.794 Z-0.146 I0.155 J-1.426
X8.688 Y0.738 Z-0.249 I1.226 J0.742
X7.721 Y2.948 Z-0.353 I-1.188 J0.797
X6.127 Y1.14 Z-0.457 I-0.22 J-1.412
X8.436 Y0.46 Z-0.56 I1.371 J0.396
X8.079 Y2.837 Z-0.664 I-0.936 J1.075
X6.077 Y1.511 Z-0.768 I-0.578 J-1.301
X8.122 Y0.258 Z-0.871 I1.421 J0.025
X8.394 Y2.637 Z-0.975 I-0.622 J1.276
X6.125 Y1.881 Z-1.079 I-0.893 J-1.101
X7.767 Y0.146 Z-1.182 I1.374 J-0.344
X8.645 Y2.363 Z-1.286 I-0.267 J1.389
X6.267 Y2.224 Z-1.39 I-1.145 J-0.828
X7.396 Y0.129 Z-1.493 I1.232 J-0.687
X8.816 Y2.035 Z-1.597 I0.103 J1.405
X6.493 Y2.517 Z-1.701 I-1.316 J-0.499
X7.036 Y0.21 Z-1.804 I1.007 J-0.981
X8.895 Y1.674 Z-1.908 I0.463 J1.325
X6.785 Y2.741 Z-2.012 I-1.395 J-0.139
X6.71 Y0.381 Z-2.115 I0.714 J-1.204
X8.878 Y1.307 Z-2.219 I0.789 J1.154
X7.125 Y2.88 Z-2.323 I-1.378 J0.228
X6.441 Y0.63 Z-2.426 I0.375 J-1.343
X8.766 Y0.959 Z-2.53 I1.058 J0.906
X7.488 Y2.925 Z-2.634 I-1.266 J0.576
X6.246 Y0.939 Z-2.737 I0.012 J-1.389
X8.568 Y0.652 Z-2.841 I1.252 J0.597
X7.849 Y2.875 Z-2.945 I-1.068 J0.882
X6.139 Y1.287 Z-3.049 I-0.348 J-1.339
X8.298 Y0.409 Z-3.152 I1.359 J0.249
X8.183 Y2.734 Z-3.256 I-0.799 J1.125
X6.127 Y1.649 Z-3.36 I-0.682 J-1.198
X7.976 Y0.245 Z-3.463 I1.372 J-0.113
X8.467 Y2.511 Z-3.567 I-0.476 J1.289
X6.209 Y2 Z-3.671 I-0.966 J-0.975
X7.623 Y0.171 Z-3.774 I1.29 J-0.464
X8.683 Y2.223 Z-3.878 I-0.124 J1.364
X6.379 Y2.317 Z-3.982 I-1.182 J-0.687
X7.265 Y0.191 Z-4.085 I1.121 J-0.781
X8.816 Y1.89 Z-4.189 I0.234 J1.343
X6.624 Y2.578 Z-4.293 I-1.315 J-0.354
X6.925 Y0.304 Z-4.396 I0.875 J-1.041
X8.857 Y1.535 Z-4.5 I0.573 J1.231
X6.14 Y1.535 I-1.358 J0
X8.857 Y1.535 I1.358 J0
G1 X8.861 Y1.613 F400
X9.053 Y1.951
X9.088 Y2.049
X9.087 Y2.152
X9.052 Y2.25
X8.852 Y2.596
X8.829 Y2.631
X8.798 Y2.667
X8.775 Y2.686
X8.406 Y2.996
X8.35 Y3.034
X8.203 Y3.09
X7.862 Y3.214
X7.831 Y3.225
X7.799 Y3.232
X7.783 Y3.234
X7.642 Y3.237
X7.358
X7.217 Y3.234
X7.201 Y3.232
X7.169 Y3.225
X7.138 Y3.214
X6.792 Y3.088
X6.65 Y3.034
X6.594 Y2.996
X6.225 Y2.686
X6.202 Y2.667
X6.171 Y2.631
X6.148 Y2.596
X5.902 Y2.17
X5.886 Y2.136
X5.874 Y2.102
X5.848 Y1.96
X5.78 Y1.572
X5.778 Y1.536
X5.78 Y1.501
X5.848 Y1.113
X5.874 Y0.971
X5.886 Y0.937
X5.902 Y0.903
X6.148 Y0.477
X6.171 Y0.442
X6.202 Y0.406
X6.225 Y0.387
X6.594 Y0.077
X6.65 Y0.039
X6.797 Y-0.017
X7.138 Y-0.141
X7.169 Y-0.152
X7.201 Y-0.159
X7.217 Y-0.161
X7.358 Y-0.164
X7.642
X7.783 Y-0.161
X7.799 Y-0.159
X7.831 Y-0.152
X7.862 Y-0.141
X8.208 Y-0.015
X8.35 Y0.039
X8.406 Y0.077
X8.775 Y0.387
X8.798 Y0.406
X8.829 Y0.442
X8.852 Y0.477
X9.098 Y0.903
X9.114 Y0.937
X9.126 Y0.971
X9.152 Y1.113
X9.22 Y1.501
X9.222 Y1.536
X9.22 Y1.572
X9.152 Y1.96
X9.126 Y2.102
X9.114 Y2.136
X9.098 Y2.17
X9.052 Y2.25
G3 X8.498 Y2.08 I-0.254 J-0.159
G1 X8.5 Y2.013 Z-4.492
X8.502 Y1.95 Z-4.47
X8.504 Y1.893 Z-4.435
X8.506 Y1.846 Z-4.387
X8.507 Y1.81 Z-4.33
X8.508 Y1.788 Z-4.267
Y1.78 Z-4.2
Z15
X-7.803 Y33.212
Z5
Z2.55
G3 X-8.685 Y30.878 Z2.446 I0.303 J-1.448 F1206
X-6.2 Y31.063 Z2.343 I1.184 J0.885
X-7.416 Y33.235 Z2.239 I-1.3 J0.699
X-8.869 Y31.218 Z2.135 I-0.084 J-1.472
X-6.43 Y30.752 Z2.032 I1.368 J0.544
X-7.037 Y33.157 Z1.928 I-1.07 J1.009
X-8.958 Y31.594 Z1.824 I-0.462 J-1.394
X-6.733 Y30.513 Z1.721 I1.457 J0.169
X-6.693 Y32.984 Z1.617 I-0.767 J1.248
X-8.947 Y31.978 Z1.513 I-0.806 J-1.221
X-7.086 Y30.362 Z1.41 I1.446 J-0.215
X-6.407 Y32.728 Z1.306 I-0.415 J1.399
X-8.836 Y32.345 Z1.202 I-1.092 J-0.966
X-7.465 Y30.308 Z1.099 I1.335 J-0.582
X-6.198 Y32.408 Z0.995 I-0.036 J1.454
X-8.634 Y32.669 Z0.891 I-1.301 J-0.646
X-7.843 Y30.354 Z0.788 I1.133 J-0.905
X-6.081 Y32.046 Z0.684 I0.342 J1.408
X-8.356 Y32.928 Z0.58 I-1.419 J-0.284
X-8.195 Y30.496 Z0.476 I0.856 J-1.165
X-6.061 Y31.667 Z0.373 I0.694 J1.266
X-8.021 Y33.106 Z0.269 I-1.438 J0.094
X-8.497 Y30.724 Z0.165 I0.521 J-1.342
X-6.14 Y31.298 Z0.062 I0.995 J1.038
X-7.653 Y33.189 Z-0.042 I-1.359 J0.464
X-8.728 Y31.022 Z-0.146 I0.153 J-1.426
X-6.313 Y30.963 Z-0.249 I1.226 J0.74
X-7.278 Y33.175 Z-0.353 I-1.187 J0.798
X-8.873 Y31.369 Z-0.457 I-0.222 J-1.412
X-6.565 Y30.686 Z-0.56 I1.372 J0.394
X-6.92 Y33.063 Z-0.664 I-0.935 J1.076
X-8.923 Y31.739 Z-0.768 I-0.579 J-1.3
X-6.88 Y30.484 Z-0.871 I1.421 J0.024
X-6.605 Y32.863 Z-0.975 I-0.621 J1.277
X-8.874 Y32.109 Z-1.079 I-0.894 J-1.1
X-7.235 Y30.372 Z-1.182 I1.373 J-0.346
X-6.354 Y32.589 Z-1.286 I-0.266 J1.389
X-8.732 Y32.452 Z-1.39 I-1.145 J-0.827
X-7.605 Y30.356 Z-1.493 I1.231 J-0.688
X-6.183 Y32.261 Z-1.597 I0.104 J1.405
X-8.507 Y32.745 Z-1.701 I-1.316 J-0.498
X-7.965 Y30.437 Z-1.804 I1.006 J-0.981
X-6.105 Y31.9 Z-1.908 I0.464 J1.325
X-8.214 Y32.968 Z-2.012 I-1.395 J-0.138
X-8.291 Y30.608 Z-2.115 I0.713 J-1.205
X-6.122 Y31.533 Z-2.219 I0.79 J1.154
X-7.874 Y33.107 Z-2.323 I-1.377 J0.228
X-8.56 Y30.857 Z-2.426 I0.374 J-1.343
X-6.234 Y31.185 Z-2.53 I1.059 J0.905
X-7.511 Y33.152 Z-2.634 I-1.266 J0.577
X-8.754 Y31.166 Z-2.737 I0.012 J-1.389
X-6.432 Y30.879 Z-2.841 I1.253 J0.596
X-7.151 Y33.102 Z-2.945 I-1.068 J0.883
X-8.861 Y31.514 Z-3.049 I-0.349 J-1.339
X-6.702 Y30.636 Z-3.152 I1.359 J0.249
X-6.817 Y32.96 Z-3.256 I-0.798 J1.126
X-8.873 Y31.876 Z-3.36 I-0.682 J-1.197
X-7.024 Y30.472 Z-3.463 I1.372 J-0.113
X-6.533 Y32.737 Z-3.567 I-0.476 J1.289
X-8.791 Y32.227 Z-3.671 I-0.967 J-0.975
X-7.377 Y30.398 Z-3.774 I1.29 J-0.464
X-6.317 Y32.449 Z-3.878 I-0.124 J1.364
X-8.621 Y32.544 Z-3.982 I-1.182 J-0.687
X-7.735 Y30.418 Z-4.085 I1.12 J-0.781
X-6.184 Y32.116 Z-4.189 I0.234 J1.343
X-8.376 Y32.805 Z-4.293 I-1.315 J-0.354
X-8.075 Y30.531 Z-4.396 I0.875 J-1.041
X-6.143 Y31.762 Z-4.5 I0.573 J1.231
X-8.86 Y31.762 I-1.358 J0
X-6.143 Y31.762 I1.358 J0
G1 X-6.14 Y31.84 F400
X-5.947 Y32.178
X-5.912 Y32.276
X-5.913 Y32.379
X-5.948 Y32.477
X-6.148 Y32.823
X-6.171 Y32.858
X-6.202 Y32.894
X-6.225 Y32.913
X-6.594 Y33.223
X-6.65 Y33.26
X-6.797 Y33.317
X-7.138 Y33.441
X-7.169 Y33.452
X-7.201 Y33.459
X-7.217 Y33.461
X-7.358 Y33.464
X-7.642
X-7.783 Y33.461
X-7.799 Y33.459
X-7.831 Y33.452
X-7.862 Y33.441
X-8.208 Y33.315
X-8.35 Y33.26
X-8.406 Y33.223
X-8.775 Y32.913
X-8.798 Y32.894
X-8.829 Y32.858
X-8.852 Y32.823
X-9.098 Y32.397
X-9.114 Y32.363
X-9.126 Y32.328
X-9.152 Y32.187
X-9.202 Y31.905
X-9.222 Y31.763
X-9.2 Y31.613
X-9.152 Y31.34
X-9.126 Y31.198
X-9.114 Y31.164
X-9.098 Y31.13
X-8.852 Y30.704
X-8.829 Y30.669
X-8.798 Y30.633
X-8.775 Y30.614
X-8.406 Y30.304
X-8.35 Y30.266
X-8.203 Y30.209
X-7.862 Y30.085
X-7.831 Y30.075
X-7.799 Y30.068
X-7.783 Y30.066
X-7.642 Y30.063
X-7.358
X-7.217 Y30.066
X-7.201 Y30.068
X-7.169 Y30.075
X-7.138 Y30.085
X-6.792 Y30.212
X-6.65 Y30.266
X-6.594 Y30.304
X-6.225 Y30.614
X-6.202 Y30.633
X-6.171 Y30.669
X-6.148 Y30.704
X-5.902 Y31.13
X-5.886 Y31.164
X-5.874 Y31.198
X-5.848 Y31.34
X-5.798 Y31.622
X-5.778 Y31.763
X-5.8 Y31.914
X-5.848 Y32.187
X-5.874 Y32.328
X-5.886 Y32.363
X-5.902 Y32.397
X-5.948 Y32.477
G3 X-6.502 Y32.307 I-0.254 J-0.159
G1 X-6.5 Y32.24 Z-4.492
X-6.498 Y32.177 Z-4.47
X-6.496 Y32.12 Z-4.435
X-6.494 Y32.073 Z-4.387
X-6.493 Y32.037 Z-4.33
X-6.492 Y32.015 Z-4.267
Y32.007 Z-4.2
Z15
X7.197 Y33.212
Z5
Z2.55
G3 X6.315 Y30.878 Z2.446 I0.303 J-1.448 F1206
X8.8 Y31.063 Z2.343 I1.184 J0.885
X7.584 Y33.235 Z2.239 I-1.3 J0.699
X6.131 Y31.218 Z2.135 I-0.084 J-1.472
X8.57 Y30.752 Z2.032 I1.368 J0.544
X7.963 Y33.157 Z1.928 I-1.07 J1.009
X6.042 Y31.594 Z1.824 I-0.462 J-1.394
X8.267 Y30.513 Z1.721 I1.457 J0.169
X8.307 Y32.984 Z1.617 I-0.767 J1.248
X6.053 Y31.978 Z1.513 I-0.806 J-1.221
X7.914 Y30.362 Z1.41 I1.446 J-0.215
X8.593 Y32.728 Z1.306 I-0.415 J1.399
X6.164 Y32.345 Z1.202 I-1.092 J-0.966
X7.535 Y30.308 Z1.099 I1.335 J-0.582
X8.802 Y32.408 Z0.995 I-0.036 J1.454
X6.366 Y32.669 Z0.891 I-1.301 J-0.646
X7.157 Y30.354 Z0.788 I1.133 J-0.905
X8.919 Y32.046 Z0.684 I0.342 J1.408
X6.644 Y32.928 Z0.58 I-1.419 J-0.284
X6.805 Y30.496 Z0.476 I0.856 J-1.165
X8.939 Y31.667 Z0.373 I0.694 J1.266
X6.979 Y33.106 Z0.269 I-1.438 J0.094
X6.503 Y30.724 Z0.165 I0.521 J-1.342
X8.86 Y31.298 Z0.062 I0.995 J1.038
X7.347 Y33.189 Z-0.042 I-1.359 J0.464
X6.272 Y31.022 Z-0.146 I0.153 J-1.426
X8.687 Y30.963 Z-0.249 I1.226 J0.74
X7.722 Y33.175 Z-0.353 I-1.187 J0.798
X6.127 Y31.369 Z-0.457 I-0.222 J-1.412
X8.435 Y30.686 Z-0.56 I1.372 J0.394
X8.08 Y33.063 Z-0.664 I-0.935 J1.076
X6.077 Y31.739 Z-0.768 I-0.579 J-1.3
X8.12 Y30.484 Z-0.871 I1.421 J0.024
X8.395 Y32.863 Z-0.975 I-0.621 J1.277
X6.126 Y32.109 Z-1.079 I-0.894 J-1.1
X7.765 Y30.372 Z-1.182 I1.373 J-0.346
X8.646 Y32.589 Z-1.286 I-0.266 J1.389
X6.268 Y32.452 Z-1.39 I-1.145 J-0.827
X7.395 Y30.356 Z-1.493 I1.231 J-0.688
X8.817 Y32.261 Z-1.597 I0.104 J1.405
X6.493 Y32.745 Z-1.701 I-1.316 J-0.498
X7.035 Y30.437 Z-1.804 I1.006 J-0.981
X8.895 Y31.9 Z-1.908 I0.464 J1.325
X6.786 Y32.968 Z-2.012 I-1.395 J-0.138
X6.709 Y30.608 Z-2.115 I0.713 J-1.205
X8.878 Y31.533 Z-2.219 I0.79 J1.154
X7.126 Y33.107 Z-2.323 I-1.377 J0.228
X6.44 Y30.857 Z-2.426 I0.374 J-1.343
X8.766 Y31.185 Z-2.53 I1.059 J0.905
X7.489 Y33.152 Z-2.634 I-1.266 J0.577
X6.246 Y31.166 Z-2.737 I0.012 J-1.389
X8.568 Y30.879 Z-2.841 I1.253 J0.596
X7.849 Y33.102 Z-2.945 I-1.068 J0.883
X6.139 Y31.514 Z-3.049 I-0.349 J-1.339
X8.298 Y30.636 Z-3.152 I1.359 J0.249
X8.183 Y32.96 Z-3.256 I-0.798 J1.126
X6.127 Y31.876 Z-3.36 I-0.682 J-1.197
X7.976 Y30.472 Z-3.463 I1.372 J-0.113
X8.467 Y32.737 Z-3.567 I-0.476 J1.289
X6.209 Y32.227 Z-3.671 I-0.967 J-0.975
X7.623 Y30.398 Z-3.774 I1.29 J-0.464
X8.683 Y32.449 Z-3.878 I-0.124 J1.364
X6.379 Y32.544 Z-3.982 I-1.182 J-0.687
X7.265 Y30.418 Z-4.085 I1.12 J-0.781
X8.816 Y32.116 Z-4.189 I0.234 J1.343
X6.624 Y32.805 Z-4.293 I-1.315 J-0.354
X6.925 Y30.531 Z-4.396 I0.875 J-1.041
X8.857 Y31.762 Z-4.5 I0.573 J1.231
X6.14 Y31.762 I-1.358 J0
X8.857 Y31.762 I1.358 J0
G1 X8.86 Y31.84 F400
X9.053 Y32.178
X9.088 Y32.276
X9.087 Y32.379
X9.052 Y32.477
X8.852 Y32.823
X8.829 Y32.858
X8.798 Y32.894
X8.775 Y32.913
X8.406 Y33.223
X8.35 Y33.26
X8.203 Y33.317
X7.862 Y33.441
X7.831 Y33.452
X7.799 Y33.459
X7.783 Y33.461
X7.642 Y33.464
X7.358
X7.217 Y33.461
X7.201 Y33.459
X7.169 Y33.452
X7.138 Y33.441
X6.792 Y33.315
X6.65 Y33.26
X6.594 Y33.223
X6.225 Y32.913
X6.202 Y32.894
X6.171 Y32.858
X6.148 Y32.823
X5.902 Y32.397
X5.886 Y32.363
X5.874 Y32.328
X5.848 Y32.187
X5.798 Y31.905
X5.778 Y31.763
X5.8 Y31.613
X5.848 Y31.34
X5.874 Y31.198
X5.886 Y31.164
X5.902 Y31.13
X6.148 Y30.704
X6.171 Y30.669
X6.202 Y30.633
X6.225 Y30.614
X6.594 Y30.304
X6.65 Y30.266
X6.797 Y30.209
X7.138 Y30.085
X7.169 Y30.075
X7.201 Y30.068
X7.217 Y30.066
X7.358 Y30.063
X7.642
X7.783 Y30.066
X7.799 Y30.068
X7.831 Y30.075
X7.862 Y30.085
X8.208 Y30.212
X8.35 Y30.266
X8.406 Y30.304
X8.775 Y30.614
X8.798 Y30.633
X8.829 Y30.669
X8.852 Y30.704
X9.098 Y31.13
X9.114 Y31.164
X9.126 Y31.198
X9.152 Y31.34
X9.202 Y31.622
X9.222 Y31.763
X9.2 Y31.914
X9.152 Y32.187
X9.126 Y32.328
X9.114 Y32.363
X9.098 Y32.397
X9.052 Y32.477
G3 X8.498 Y32.307 I-0.254 J-0.159
G1 X8.5 Y32.24 Z-4.492
X8.502 Y32.177 Z-4.47
X8.504 Y32.12 Z-4.435
X8.506 Y32.073 Z-4.387
X8.507 Y32.037 Z-4.33
X8.508 Y32.015 Z-4.267
Y32.007 Z-4.2
Z15
G28 G91 Z0
G90
G28 G91 X0 Y0
G90
M5
M30
