(1001)
(Machine)
(  vendor: ProtoMat S42 Mod)
(  description: Generic 3-axis)
(T1  D=3 CR=0 - ZMIN=-4 - flat end mill)
G90 G94
G17
G21
G28 G91 Z0
G90

(2D Adaptive1)
T1
S14000 M3
G54
G0 X2.541 Y2.359
Z10
Z5
Z2.5
G3 X4.869 Y2.82 Z2.404 I0.995 J1.083 F800
X3.727 Y4.897 Z2.307 I-1.331 J0.621
X2.094 Y3.183 Z2.211 I-0.189 J-1.455
X4.219 Y2.146 Z2.114 I1.442 J0.259
X4.565 Y4.482 Z2.018 I-0.682 J1.295
X2.236 Y4.107 Z1.921 I-1.027 J-1.04
X3.297 Y2.002 Z1.825 I1.301 J-0.664
X4.98 Y3.648 Z1.729 I0.239 J1.439
X2.905 Y4.754 Z1.632 I-1.442 J-0.206
X2.479 Y2.444 Z1.536 I0.632 J-1.311
X4.807 Y2.735 Z1.439 I1.057 J0.998
X3.827 Y4.864 Z1.343 I-1.269 J0.706
X2.096 Y3.288 Z1.246 I-0.289 J-1.421
X4.119 Y2.116 Z1.15 I1.44 J0.154
X4.624 Y4.396 Z1.054 I-0.582 J1.325
X2.301 Y4.189 Z0.957 I-1.086 J-0.954
X3.199 Y2.039 Z0.861 I1.236 J-0.746
X4.975 Y3.543 Z0.764 I0.337 J1.402
X3.006 Y4.78 Z0.668 I-1.437 J-0.102
X2.424 Y2.532 Z0.571 I0.531 J-1.337
X4.739 Y2.656 Z0.475 I1.113 J0.909
X3.922 Y4.823 Z0.379 I-1.202 J0.785
X2.105 Y3.391 Z0.282 I-0.384 J-1.381
X4.017 Y2.094 Z0.186 I1.431 J0.051
X4.676 Y4.306 Z0.089 I-0.48 J1.347
X2.371 Y4.265 Z-0.007 I-1.137 J-0.864
X3.106 Y2.083 Z-0.104 I1.166 J-0.822
X4.961 Y3.441 Z-0.2 I0.431 J1.358
X2.111 Y3.441 I-1.425 J0
X4.961 Y3.441 I1.425 J0
G1 X4.969 Y3.597
X5.163 Y4.112
X5.202 Y4.257
X5.215 Y4.406
X5.205 Y4.556
X5.175 Y4.703
X5.128 Y4.845
X5.064 Y4.981
X4.987 Y5.11
X4.892 Y5.237
X4.78 Y5.361
X4.65 Y5.477
X4.503 Y5.585
X4.435 Y5.625
X4.355 Y5.664
X4.269 Y5.687
X4.18 Y5.695
X3.071
X2.906 Y5.687
X2.724 Y5.659
X2.538 Y5.612
X2.351 Y5.544
X2.167 Y5.456
X1.987 Y5.346
X1.814 Y5.216
X1.652 Y5.067
X1.502 Y4.898
X1.367 Y4.713
X1.25 Y4.511
X1.232 Y4.473
X1.207 Y4.406
X1.192 Y4.336
X1.187 Y4.265
G3 X1.497 Y3.976 Z0 I0.3 J0.01
G1 X1.555 Y3.983
X1.61 Y4.002
X1.661 Y4.031
X1.741 Y4.088
X3.234 Y5.151
G3 X3.36 Y5.385 I-0.174 J0.244
X3.071 Y5.695 Z-0.2 I-0.3 J0.01
G1 X1.654
X1.615
X1.582
X1.433 Y5.687
X1.306 Y5.622
X1.218 Y5.51
X1.187 Y5.37
G3 X1.289 Y5.101 Z-0.076 I0.449 J0.016
G1 X1.33 Y5.058 Z-0.05
X1.378 Y5.023 Z-0.025
X1.43 Y4.996 Z0
G3 X1.923 Y5.418 I0.139 J0.336
X1.582 Y5.695 Z-0.2 I-0.353 J-0.086
G1 X1.202
X1.187 Y5.678
Y3.063
X1.195 Y2.907
X1.225 Y2.708
X1.276 Y2.507
X1.349 Y2.306
X1.443 Y2.109
X1.559 Y1.919
X1.696 Y1.737
X1.852 Y1.567
X2.028 Y1.411
X2.22 Y1.272
X2.427 Y1.151
X2.639 Y1.054
X2.782 Y1.013
X2.93 Y1.016
X3.071 Y1.062
X3.267 Y1.135
X3.463 Y1.178
X3.543 Y1.188
X4.016 Y1.195
X4.173 Y1.203
X4.355 Y1.23
X4.539 Y1.277
X4.725 Y1.344
X4.909 Y1.432
X5.088 Y1.541
X5.26 Y1.671
X5.422 Y1.82
X5.571 Y1.988
X5.833 Y2.349
X6.073 Y2.76
X6.226 Y3.095
X6.331 Y3.403
X6.4 Y3.697
X6.438 Y3.983
X6.447 Y4.264
X6.428 Y4.541
X6.382 Y4.815
X6.309 Y5.084
X6.208 Y5.346
X6.172 Y5.419
X6.061 Y5.565
X5.905 Y5.661
X5.725 Y5.695
X4.18
X4.113 Y5.685 Z-0.171
X4.05 Y5.66 Z-0.142
X3.994 Y5.622 Z-0.114
X3.792 Y5.447 Z0
X3.586 Y5.268
X1.667 Y3.605
X1.46 Y3.426
X1.29 Y3.279 Z-0.095
X1.248 Y3.234 Z-0.121
X1.216 Y3.182 Z-0.148
X1.196 Y3.124 Z-0.174
X1.187 Y3.063 Z-0.2
Y1.649
X1.195 Y1.488
X1.217 Y1.339
X1.257 Y1.194
X1.313 Y1.046
X1.39 Y0.892
X1.483 Y0.745
X1.59 Y0.608
X1.7 Y0.492
X1.728 Y0.468
X1.872 Y0.382
X2.037 Y0.348
X2.203 Y0.37
X2.353 Y0.447
X2.469 Y0.569
G3 X2.449 Y0.914 Z-0.043 I-0.255 J0.158
G1 X2.385 Y0.994 Z0
X2.214 Y1.208
X1.731 Y1.814
X1.721 Y1.826
G3 X1.497 Y1.939 I-0.235 J-0.187
X1.187 Y1.649 Z-0.2 I-0.01 J-0.3
G1 Y0.51
X1.195 Y0.36
X1.233 Y0.215
X1.297 Y0.079
X1.383 Y-0.044
X1.421 Y-0.082
X1.561 Y-0.181
X1.727 Y-0.228
X1.898 Y-0.215
X2.056 Y-0.145
X2.18 Y-0.026
X2.256 Y0.128
G3 X2.264 Y0.595 Z0 I-0.968 J0.249
G1 X2.256 Y0.626
G3 X1.393 Y0.917 I-0.526 J-0.135
X1.187 Y0.51 Z-0.2 I0.337 J-0.426
G1 Y-0.14
X1.195 Y-0.29
X1.238 Y-0.433
X1.317 Y-0.561
X1.333 Y-0.578
X1.468 Y-0.677
X1.628 Y-0.727
X1.796 Y-0.72
X1.951 Y-0.658
X2.078 Y-0.547
X2.16 Y-0.401
X2.189 Y-0.236
X2.218 Y0
X2.256 Y0.128
G3 X2.102 Y0.441 Z-0.039 I-0.259 J0.067
G1 X2.016 Y0.471 Z0
G3 X1.364 Y0.286 I-0.172 J-0.634
X1.187 Y-0.14 Z-0.2 I0.48 J-0.449
G1 Y-0.664
X1.195 Y-0.814
X1.245 Y-0.955
X1.331 Y-1.078
X1.356 Y-1.101
X1.52 Y-1.197
X1.707 Y-1.226
X1.892 Y-1.182
X2.048 Y-1.072
X2.151 Y-0.913
X2.187 Y-0.726
X2.189 Y-0.236
G3 X1.975 Y0.001 Z-0.053 I-0.247 J-0.008
G1 X1.913 Y0.007 Z-0.026
X1.851 Z0
G3 X1.356 Y-0.234 I0.031 J-0.695
X1.187 Y-0.664 Z-0.2 I0.527 J-0.454
G1 Y-1.178
X1.195 Y-1.328
X1.249 Y-1.468
X1.34 Y-1.587
X1.362 Y-1.606
X1.526 Y-1.699
X1.713 Y-1.725
X1.896 Y-1.68
X2.05 Y-1.57
X2.151 Y-1.411
X2.187 Y-1.226
Y-0.726
G3 X1.961 Y-0.489 Z-0.048 I-0.246 J-0.009
G1 X1.905 Y-0.487 Z-0.024
X1.848 Y-0.489 Z0
G3 X1.352 Y-0.746 I0.055 J-0.714
X1.187 Y-1.178 Z-0.2 I0.551 J-0.457
G1 Y-1.692
X1.195 Y-1.842
X1.253 Y-1.98
X1.347 Y-2.098
X1.369 Y-2.116
X1.534 Y-2.206
X1.719 Y-2.229
X1.901 Y-2.182
X2.052 Y-2.072
X2.152 Y-1.914
X2.187 Y-1.73
Y-1.226
G3 X1.953 Y-0.989 Z-0.045 I-0.246 J-0.009
G1 X1.848 Y-0.991 Z0
G3 X1.349 Y-1.259 I0.069 J-0.727
X1.187 Y-1.692 Z-0.2 I0.568 J-0.459
G1 Y-2.199
X1.195 Y-2.349
X1.254 Y-2.487
X1.348 Y-2.604
X1.37 Y-2.622
X1.535 Y-2.712
X1.72 Y-2.734
X1.901 Y-2.687
X2.052 Y-2.577
X2.152 Y-2.419
X2.187 Y-2.235
Y-1.73
G3 X1.952 Y-1.493 Z-0.044 I-0.246 J-0.009
G1 X1.848 Y-1.496 Z0
G3 X1.349 Y-1.765 I0.071 J-0.729
X1.187 Y-2.199 Z-0.2 I0.57 J-0.459
G1 Y-2.706
X1.195 Y-2.856
X1.254 Y-2.994
X1.348 Y-3.11
X1.371 Y-3.129
X1.536 Y-3.218
X1.721 Y-3.24
X1.902 Y-3.193
X2.052 Y-3.083
X2.152 Y-2.925
X2.187 Y-2.741
Y-2.235
G3 X1.951 Y-1.998 Z-0.044 I-0.246 J-0.009
G1 X1.848 Y-2.001 Z0
G3 X1.348 Y-2.272 I0.073 J-0.731
X1.187 Y-2.706 Z-0.2 I0.573 J-0.46
G1 Y-3.206
X1.195 Y-3.355
X1.252 Y-3.494
X1.346 Y-3.611
X1.368 Y-3.63
X1.532 Y-3.72
X1.718 Y-3.744
X1.9 Y-3.697
X2.052 Y-3.587
X2.152 Y-3.429
X2.187 Y-3.245
Y-2.741
G3 X1.955 Y-2.504 Z-0.045 I-0.246 J-0.009
G1 X1.848 Y-2.506 Z0
G3 X1.349 Y-2.772 I0.066 J-0.725
X1.187 Y-3.206 Z-0.2 I0.565 J-0.459
G1 Y-3.707
X1.195 Y-3.857
X1.252 Y-3.995
X1.345 Y-4.113
X1.367 Y-4.132
X1.531 Y-4.223
X1.717 Y-4.247
X1.899 Y-4.201
X2.051 Y-4.09
X2.152 Y-3.932
X2.187 Y-3.748
Y-3.245
G3 X1.956 Y-3.008 Z-0.046 I-0.246 J-0.009
G1 X1.848 Y-3.009 Z0
G3 X1.35 Y-3.274 I0.064 J-0.723
X1.187 Y-3.707 Z-0.2 I0.562 J-0.459
G1 Y-4.203
X1.195 Y-4.353
X1.25 Y-4.492
X1.341 Y-4.611
X1.364 Y-4.63
X1.528 Y-4.722
X1.714 Y-4.748
X1.897 Y-4.702
X2.05 Y-4.592
X2.152 Y-4.433
X2.187 Y-4.248
Y-3.748
G3 X1.96 Y-3.511 Z-0.047 I-0.246 J-0.009
G1 X1.904 Y-3.509 Z-0.024
X1.848 Y-3.511 Z0
G3 X1.351 Y-3.77 I0.057 J-0.717
X1.187 Y-4.203 Z-0.2 I0.554 J-0.458
G1 Y-4.72
X1.195 Y-4.869
X1.254 Y-5.007
X1.349 Y-5.124
X1.372 Y-5.142
X1.536 Y-5.231
X1.721 Y-5.253
X1.902 Y-5.206
X2.052 Y-5.096
X2.152 Y-4.938
X2.187 Y-4.754
Y-4.248
G3 X1.951 Y-4.011 Z-0.044 I-0.246 J-0.009
G1 X1.848 Y-4.014 Z0
G3 X1.348 Y-4.286 I0.073 J-0.731
X1.187 Y-4.72 Z-0.2 I0.573 J-0.46
G1 Y-5.207
X1.195 Y-5.357
X1.249 Y-5.497
X1.34 Y-5.616
X1.363 Y-5.635
X1.527 Y-5.728
X1.713 Y-5.754
X1.897 Y-5.708
X2.05 Y-5.598
X2.151 Y-5.44
X2.187 Y-5.254
Y-4.754
G3 X1.961 Y-4.518 Z-0.048 I-0.246 J-0.009
G1 X1.904 Y-4.515 Z-0.024
X1.848 Y-4.517 Z0
G3 X1.351 Y-4.775 I0.055 J-0.715
X1.187 Y-5.207 Z-0.2 I0.552 J-0.457
G1 Y-5.714
X1.195 Y-5.863
X1.251 Y-6.002
X1.343 Y-6.121
X1.366 Y-6.139
X1.53 Y-6.231
X1.716 Y-6.256
X1.898 Y-6.21
X2.051 Y-6.1
X2.152 Y-5.941
X2.187 Y-5.756
Y-5.254
G3 X1.957 Y-5.017 Z-0.046 I-0.246 J-0.009
G1 X1.903 Y-5.016 Z-0.023
X1.848 Y-5.018 Z0
G3 X1.35 Y-5.281 I0.062 J-0.72
X1.187 Y-5.714 Z-0.2 I0.559 J-0.458
G1 Y-6.214
X1.195 Y-6.364
X1.251 Y-6.503
X1.342 Y-6.621
X1.365 Y-6.64
X1.529 Y-6.732
X1.715 Y-6.757
X1.898 Y-6.711
X2.05 Y-6.601
X2.152 Y-6.443
X2.187 Y-6.258
Y-5.756
G3 X1.958 Y-5.519 Z-0.047 I-0.246 J-0.009
G1 X1.903 Y-5.518 Z-0.023
X1.848 Y-5.52 Z0
G3 X1.351 Y-5.781 I0.06 J-0.719
X1.187 Y-6.214 Z-0.2 I0.557 J-0.458
G1 Y-6.73
X1.195 Y-6.88
X1.254 Y-7.017
X1.349 Y-7.134
X1.372 Y-7.152
X1.536 Y-7.241
X1.722 Y-7.263
X1.902 Y-7.216
X2.053 Y-7.105
X2.152 Y-6.947
X2.187 Y-6.764
Y-6.258
G3 X1.951 Y-6.021 Z-0.044 I-0.246 J-0.009
G1 X1.848 Y-6.024 Z0
G3 X1.348 Y-6.296 I0.074 J-0.732
X1.187 Y-6.73 Z-0.2 I0.574 J-0.46
G1 Y-7.209
X1.195 Y-7.359
X1.247 Y-7.499
X1.337 Y-7.619
X1.359 Y-7.639
X1.522 Y-7.734
X1.71 Y-7.761
X1.894 Y-7.717
X2.049 Y-7.607
X2.151 Y-7.448
X2.187 Y-7.262
Y-6.764
G3 X1.965 Y-6.528 Z-0.05 I-0.246 J-0.009
G1 X1.907 Y-6.524 Z-0.025
X1.848 Y-6.526 Z0
G3 X1.353 Y-6.777 I0.048 J-0.708
X1.187 Y-7.209 Z-0.2 I0.543 J-0.456
G1 Y-7.709
X1.195 Y-7.859
X1.248 Y-7.999
X1.338 Y-8.119
X1.36 Y-8.138
X1.524 Y-8.232
X1.711 Y-8.259
X1.895 Y-8.215
X2.049 Y-8.105
X2.151 Y-7.946
X2.187 Y-7.76
Y-7.262
G3 X1.964 Y-7.025 Z-0.049 I-0.246 J-0.009
G1 X1.906 Y-7.022 Z-0.024
X1.848 Y-7.024 Z0
G3 X1.352 Y-7.277 I0.05 J-0.71
X1.187 Y-7.709 Z-0.2 I0.546 J-0.457
G1 Y-8.204
X1.195 Y-8.353
X1.247 Y-8.494
X1.336 Y-8.614
X1.358 Y-8.633
X1.522 Y-8.729
X1.709 Y-8.756
X1.894 Y-8.712
X2.048 Y-8.603
X2.151 Y-8.443
X2.187 Y-8.257
Y-7.76
G3 X1.965 Y-7.523 Z-0.05 I-0.246 J-0.009
G1 X1.907 Y-7.52 Z-0.025
X1.848 Y-7.521 Z0
G3 X1.353 Y-7.772 I0.047 J-0.707
X1.187 Y-8.204 Z-0.2 I0.542 J-0.456
G1 Y-8.718
X1.195 Y-8.868
X1.251 Y-9.006
X1.344 Y-9.124
X1.366 Y-9.143
X1.531 Y-9.234
X1.717 Y-9.259
X1.899 Y-9.213
X2.051 Y-9.102
X2.152 Y-8.944
X2.187 Y-8.76
Y-8.257
G3 X1.956 Y-8.02 Z-0.046 I-0.246 J-0.009
G1 X1.902 Y-8.019 Z-0.023
X1.848 Y-8.021 Z0
G3 X1.35 Y-8.285 I0.063 J-0.722
X1.187 Y-8.718 Z-0.2 I0.561 J-0.458
G1 Y-9.232
X1.195 Y-9.382
X1.255 Y-9.519
X1.349 Y-9.636
X1.372 Y-9.655
X1.537 Y-9.743
X1.722 Y-9.765
X1.902 Y-9.717
X2.053 Y-9.607
X2.152 Y-9.449
X2.187 Y-9.266
Y-8.76
G3 X1.95 Y-8.522 Z-0.043 I-0.246 J-0.009
G1 X1.848 Y-8.526 Z0
G3 X1.348 Y-8.798 I0.075 J-0.732
X1.187 Y-9.232 Z-0.2 I0.575 J-0.46
G1 Y-9.703
X1.195 Y-9.853
X1.245 Y-9.994
X1.333 Y-10.116
X1.355 Y-10.135
X1.519 Y-10.232
X1.707 Y-10.261
X1.892 Y-10.218
X2.048 Y-10.108
X2.151 Y-9.948
X2.187 Y-9.762
Y-9.266
G3 X1.969 Y-9.03 Z-0.051 I-0.246 J-0.009
G1 X1.909 Y-9.026 Z-0.026
X1.848 Y-9.027 Z0
G3 X1.354 Y-9.273 I0.041 J-0.701
X1.187 Y-9.703 Z-0.2 I0.535 J-0.455
G1 Y-10.21
X1.195 Y-10.36
X1.248 Y-10.5
X1.338 Y-10.62
X1.361 Y-10.639
X1.525 Y-10.734
X1.713 Y-10.76
X1.897 Y-10.715
X2.051 Y-10.604
X2.153 Y-10.444
X2.188 Y-10.258
X2.187 Y-9.836
Y-9.762
G3 X1.963 Y-9.525 Z-0.049 I-0.246 J-0.009
G1 X1.906 Y-9.522 Z-0.024
X1.848 Y-9.524 Z0
G3 X1.352 Y-9.778 I0.051 J-0.711
X1.187 Y-10.21 Z-0.2 I0.547 J-0.457
G1 Y-10.717
X1.195 Y-10.867
X1.25 Y-11.006
X1.342 Y-11.125
X1.457 Y-11.222
X1.589 Y-11.292
X1.607 Y-11.298
X1.784 Y-11.321
X1.959 Y-11.281
X2.108 Y-11.181
X2.212 Y-11.035
X2.258 Y-10.862
X2.24 Y-10.683
X2.195 Y-10.569 Z-0.148
X2.136 Y-10.461 Z-0.095
X2.091 Y-10.401 Z-0.064
X2.038 Y-10.347 Z-0.032
X1.979 Y-10.303 Z0
G3 X1.402 Y-10.317 I-0.278 J-0.433
X1.187 Y-10.717 Z-0.2 I0.299 J-0.418
G1 Y-11.271
X1.195 Y-11.421
X1.249 Y-11.561
X1.335 Y-11.683
X1.445 Y-11.785
X1.573 Y-11.864
X1.713 Y-11.918
X1.86 Y-11.95
X2.009 Y-11.956
X2.159 Y-11.94
X2.173 Y-11.937
X2.345 Y-11.856
X2.475 Y-11.716
X2.543 Y-11.539
X2.54 Y-11.348
X2.466 Y-11.173
X2.423 Y-11.126
X2.371 Y-11.088
X2.313 Y-11.063
X2.25 Y-11.05
X1.81 Y-11.01
X1.514 Y-10.983
G3 X1.187 Y-11.271 I-0.027 J-0.299
G1 Y-11.869
X1.195 Y-12.018
X1.243 Y-12.16
X1.319 Y-12.29
X1.415 Y-12.404
X1.529 Y-12.503
X1.656 Y-12.583
X1.793 Y-12.644
X1.937 Y-12.686
X2.085 Y-12.707
X2.235 Y-12.709
X2.384 Y-12.693
X2.53 Y-12.657
X2.67 Y-12.603
X2.803 Y-12.533
X2.926 Y-12.448
X2.993 Y-12.387
X3.107 Y-12.237
X3.157 Y-12.055
X3.137 Y-11.867
X3.048 Y-11.701
X2.903 Y-11.579
X2.857 Y-11.56 Z-0.179
X2.808 Y-11.549 Z-0.157
X2.758 Y-11.546 Z-0.136
X2.438 Y-11.554 Z0
X2.164 Y-11.561
X1.771 Y-11.572
X1.497 Y-11.579
X1.479 Z-0.008
G3 X1.187 Y-11.869 Z-0.2 I0.008 J-0.3
G1 Y-12.566
X1.195 Y-12.716
X1.238 Y-12.86
X1.305 Y-12.993
X1.393 Y-13.115
X1.497 Y-13.223
X1.614 Y-13.317
X1.741 Y-13.397
X1.876 Y-13.462
X2.017 Y-13.513
X2.171 Y-13.551
X2.334 Y-13.575
X2.499 Y-13.582
X2.665 Y-13.573
X2.827 Y-13.548
X2.998 Y-13.504
X3.15 Y-13.449
X3.285 Y-13.383
X3.425 Y-13.297
X3.554 Y-13.199
X3.663 Y-13.097
X3.763 Y-12.985
X3.857 Y-12.853
X3.932 Y-12.722
X3.993 Y-12.585
X4.04 Y-12.442
X4.048 Y-12.406
X4.055 Y-12.23
X4 Y-12.062
X3.891 Y-11.924
X3.74 Y-11.832
X3.567 Y-11.799
X3.506 Y-11.806 Z-0.174
X3.107 Y-11.898 Z0
X2.84 Y-11.959
X1.762 Y-12.206
X1.496 Y-12.267
X1.42 Y-12.284 Z-0.033
G3 X1.187 Y-12.566 Z-0.2 I0.067 J-0.292
G1 Y-13.335
X1.195 Y-13.485
X1.231 Y-13.63
X1.29 Y-13.768
X1.367 Y-13.896
X1.46 Y-14.014
X1.565 Y-14.121
X1.684 Y-14.218
X1.822 Y-14.31
X1.973 Y-14.391
X2.142 Y-14.46
X2.329 Y-14.515
X2.527 Y-14.554
X2.733 Y-14.573
X2.948 Y-14.571
X3.17 Y-14.547
X3.394 Y-14.5
X3.618 Y-14.429
X3.838 Y-14.335
X4.052 Y-14.217
X4.255 Y-14.077
X4.444 Y-13.917
X4.608 Y-13.747
X4.743 Y-13.577
X4.864 Y-13.388
X4.952 Y-13.215
X5.021 Y-13.037
X5.074 Y-12.85
X5.104 Y-12.677
X5.116 Y-12.507
X5.112 Y-12.326
X5.101 Y-12.243
X5.047 Y-12.071
X4.936 Y-11.93
X4.782 Y-11.837
X4.605 Y-11.805
X4.016
X3.567 Y-11.799
X3.515 Y-11.804 Z-0.178
X3.466 Y-11.818 Z-0.156
X3.419 Y-11.841 Z-0.134
X3.148 Y-12.003 Z0
X2.913 Y-12.143
X1.715 Y-12.859
X1.48 Y-13
X1.333 Y-13.088 Z-0.073
G3 X1.187 Y-13.335 Z-0.2 I0.154 J-0.258
G1 Y-14.225
X1.195 Y-14.375
X1.229 Y-14.521
X1.284 Y-14.66
X1.356 Y-14.792
X1.441 Y-14.915
X1.547 Y-15.037
X1.668 Y-15.152
X1.816 Y-15.267
X1.982 Y-15.371
X2.169 Y-15.464
X2.383 Y-15.545
X2.614 Y-15.607
X2.86 Y-15.648
X3.128 Y-15.665
X3.413 Y-15.655
X3.706 Y-15.616
X4.003 Y-15.545
X4.3 Y-15.442
X4.595 Y-15.307
X4.877 Y-15.141
X5.145 Y-14.945
X5.391 Y-14.726
X5.611 Y-14.486
X5.805 Y-14.226
X5.969 Y-13.954
X6.103 Y-13.672
X6.205 Y-13.39
X6.269 Y-13.135
X6.307 Y-12.876
X6.317 Y-12.658
X6.306 Y-12.442
X6.274 Y-12.236
X6.26 Y-12.181
X6.194 Y-12.031
X6.082 Y-11.91
X5.938 Y-11.832
X5.776 Y-11.805
X4.605
X4.55 Y-11.812 Z-0.176
X4.496 Y-11.83 Z-0.152
X4.447 Y-11.857 Z-0.128
X4.197 Y-12.027 Z0
X3.971 Y-12.181
X1.701 Y-13.727
X1.475 Y-13.881
X1.318 Y-13.987 Z-0.08
G3 X1.187 Y-14.225 Z-0.2 I0.169 J-0.248
G1 Y-15.22
X1.195 Y-15.37
X1.23 Y-15.515
X1.283 Y-15.655
X1.352 Y-15.789
X1.441 Y-15.923
X1.551 Y-16.059
X1.682 Y-16.192
X1.844 Y-16.327
X2.024 Y-16.448
X2.24 Y-16.564
X2.482 Y-16.665
X2.745 Y-16.744
X3.043 Y-16.804
X3.368 Y-16.835
X3.398
X3.547 Y-16.812
X3.682 Y-16.745
X3.792 Y-16.641
X4.016 Y-16.352
X4.105 Y-16.258
X4.488 Y-15.951
X4.961 Y-15.588
X5.318 Y-15.315
X5.433 Y-15.241
X5.906 Y-15.031
X6.154 Y-14.928
X6.289 Y-14.864
X6.455 Y-14.759
X6.614 Y-14.635
X6.778 Y-14.478
X6.936 Y-14.294
X7.08 Y-14.088
X7.21 Y-13.856
X7.321 Y-13.6
X7.41 Y-13.327
X7.465 Y-13.071
X7.494 Y-12.82
X7.497 Y-12.594
X7.479 Y-12.389
X7.44 Y-12.18
X7.436 Y-12.165
X7.367 Y-12.021
X7.256 Y-11.905
X7.114 Y-11.831
X6.956 Y-11.805
X5.776
G3 X5.487 Y-12.115 Z0 I0.01 J-0.3
G1 X5.488 Y-12.136
X5.514 Y-12.387
X5.73 Y-14.482
X5.75 Y-14.678
X5.757 Y-14.716
X5.768 Y-14.752
G3 X6.154 Y-14.928 Z-0.2 I0.281 J0.105
G1 X6.851 Y-14.64
X7.087 Y-14.57
X7.217 Y-14.55
X7.364 Y-14.521
X7.504 Y-14.468
X7.638 Y-14.4
X7.77 Y-14.313
X7.9 Y-14.208
X8.035 Y-14.074
X8.159 Y-13.923
X8.279 Y-13.745
X8.387 Y-13.544
X8.478 Y-13.325
X8.546 Y-13.098
X8.588 Y-12.888
X8.609 Y-12.67
X8.608 Y-12.478
X8.588 Y-12.284
X8.571 Y-12.205
X8.509 Y-12.046
X8.398 Y-11.918
X8.249 Y-11.834
X8.082 Y-11.805
X6.956
G3 X6.667 Y-12.115 Z0 I0.01 J-0.3
G1 X6.668 Y-12.135
X6.693 Y-12.388
X6.857 Y-14.014
X6.884 Y-14.282
X6.885 Y-14.287
G3 X7.217 Y-14.55 Z-0.2 I0.298 J0.034
G1 X7.323 Y-14.534
X8.268 Y-14.41
X8.416 Y-14.384
X8.559 Y-14.339
X8.695 Y-14.277
X8.825 Y-14.201
X8.959 Y-14.103
X9.086 Y-13.988
X9.214 Y-13.847
X9.335 Y-13.684
X9.442 Y-13.505
X9.537 Y-13.305
X9.607 Y-13.108
X9.658 Y-12.901
X9.686 Y-12.703
X9.694 Y-12.523
X9.683 Y-12.332
X9.667 Y-12.228
X9.609 Y-12.061
X9.498 Y-11.925
X9.346 Y-11.836
X9.173 Y-11.805
X8.082
G3 X7.792 Y-12.115 Z0 I0.01 J-0.3
G1 X7.793 Y-12.127
X7.812 Y-12.388
X7.922 Y-13.865
X7.942 Y-14.133
Y-14.138
G3 X8.268 Y-14.41 Z-0.2 I0.299 J0.027
G1 X8.566 Y-14.373
X8.74 Y-14.369
X8.808 Y-14.373
X9.086 Y-14.408
X9.235 Y-14.419
X9.384 Y-14.405
X9.53 Y-14.37
X9.671 Y-14.317
X9.805 Y-14.25
X9.942 Y-14.162
X10.076 Y-14.056
X10.212 Y-13.925
X10.34 Y-13.775
X10.456 Y-13.607
X10.562 Y-13.417
X10.647 Y-13.219
X10.71 Y-13.02
X10.753 Y-12.817
X10.773 Y-12.634
X10.775 Y-12.448
X10.758 Y-12.262
X10.749 Y-12.211
X10.688 Y-12.051
X10.576 Y-11.92
X10.427 Y-11.835
X10.258 Y-11.805
X9.173
G3 X8.883 Y-12.098 Z-0.007 I0.01 J-0.3
G1 Y-12.115 Z0
X8.876 Y-12.389
X8.842 Y-13.79
X8.835 Y-14.064
X8.834 Y-14.104 Z-0.017
G3 X9.086 Y-14.408 Z-0.2 I0.3 J-0.007
G1 X9.685 Y-14.486
X10.062 Y-14.536
X10.211 Y-14.548
X10.361 Y-14.537
X10.508 Y-14.506
X10.65 Y-14.458
X10.791 Y-14.394
X10.939 Y-14.308
X11.082 Y-14.204
X11.227 Y-14.075
X11.367 Y-13.924
X11.495 Y-13.755
X11.61 Y-13.564
X11.712 Y-13.353
X11.787 Y-13.148
X11.84 Y-12.938
X11.871 Y-12.734
X11.88 Y-12.55
X11.871 Y-12.356
X11.852 Y-12.232
X11.796 Y-12.064
X11.684 Y-11.926
X11.532 Y-11.836
X11.358 Y-11.805
X10.258
G3 X9.969 Y-12.083 Z-0.014 I0.01 J-0.3
G1 X9.966 Y-12.115 Z0
X9.946 Y-12.388
X9.834 Y-13.918
X9.814 Y-14.191
X9.812 Y-14.218 Z-0.012
G3 X10.062 Y-14.536 Z-0.2 I0.299 J-0.022
G1 X10.158 Y-14.548
X10.394 Y-14.596
X10.63 Y-14.683
X10.747 Y-14.732
X10.889 Y-14.782
X11.036 Y-14.81
X11.186 Y-14.815
X11.335 Y-14.801
X11.482 Y-14.77
X11.628 Y-14.723
X11.789 Y-14.653
X11.947 Y-14.565
X12.11 Y-14.452
X12.273 Y-14.313
X12.426 Y-14.153
X12.57 Y-13.97
X12.701 Y-13.764
X12.816 Y-13.536
X12.906 Y-13.3
X12.969 Y-13.074
X13.008 Y-12.842
X13.022 Y-12.64
X13.016 Y-12.438
X12.991 Y-12.241
X12.979 Y-12.192
X12.915 Y-12.038
X12.803 Y-11.914
X12.657 Y-11.833
X12.492 Y-11.805
X11.358
G3 X11.075 Y-12.043 Z-0.031 I0.01 J-0.3
G1 X11.06 Y-12.114 Z0
X11.003 Y-12.382
X10.648 Y-14.065
X10.592 Y-14.333
X10.578 Y-14.397 Z-0.028
G3 X10.747 Y-14.732 Z-0.2 I0.294 J-0.062
G1 X11.646 Y-15.105
X11.788 Y-15.156
X11.935 Y-15.184
X12.085 Y-15.193
X12.234 Y-15.185
X12.39 Y-15.159
X12.553 Y-15.115
X12.725 Y-15.05
X12.908 Y-14.96
X13.086 Y-14.848
X13.271 Y-14.704
X13.452 Y-14.533
X13.62 Y-14.339
X13.776 Y-14.117
X13.914 Y-13.873
X14.03 Y-13.61
X14.121 Y-13.331
X14.177 Y-13.077
X14.207 Y-12.823
X14.211 Y-12.6
X14.194 Y-12.393
X14.156 Y-12.185
X14.148 Y-12.159
X14.077 Y-12.009
X13.96 Y-11.891
X13.811 Y-11.817
X13.646 Y-11.797
X13.465 Y-11.805
X12.492
G3 X12.213 Y-12.027 Z-0.038 I0.01 J-0.3
G1 X12.19 Y-12.113 Z0
X12.119 Y-12.377
X11.566 Y-14.441
X11.495 Y-14.706
X11.482 Y-14.755 Z-0.022
G3 X11.646 Y-15.105 Z-0.2 I0.29 J-0.078
G1 X11.811 Y-15.174
X11.929 Y-15.234
X12.056 Y-15.315
X12.288 Y-15.492
X12.412 Y-15.577
X12.549 Y-15.638
X12.693 Y-15.678
X12.842 Y-15.7
X12.994 Y-15.706
X13.156 Y-15.696
X13.337 Y-15.667
X13.52 Y-15.618
X13.723 Y-15.542
X13.926 Y-15.442
X14.135 Y-15.312
X14.351 Y-15.145
X14.555 Y-14.952
X14.753 Y-14.725
X14.936 Y-14.466
X15.099 Y-14.18
X15.234 Y-13.875
X15.338 Y-13.559
X15.411 Y-13.233
X15.444 Y-12.956
X15.45 Y-12.683
X15.432 Y-12.454
X15.392 Y-12.236
X15.334 Y-12.032
X15.265 Y-11.857
X15.214 Y-11.757
X15.116 Y-11.625
X14.981 Y-11.533
X14.823 Y-11.489
X14.66 Y-11.498
X14.508 Y-11.559
X14.459 Y-11.599 Z-0.173
X14.42 Y-11.648 Z-0.147
X14.235 Y-11.94 Z0
X14.088 Y-12.171
X12.392 Y-14.838
X12.245 Y-15.069
X12.225 Y-15.1 Z-0.015
G3 X12.288 Y-15.492 Z-0.2 I0.253 J-0.161
G1 X12.992 Y-16.032
X13.038 Y-16.07
X13.159 Y-16.159
X13.293 Y-16.226
X13.435 Y-16.275
X13.581 Y-16.308
X13.74 Y-16.327
X13.914 Y-16.33
X14.107 Y-16.314
X14.309 Y-16.278
X14.533 Y-16.213
X14.757 Y-16.124
X14.999 Y-15.999
X15.246 Y-15.838
X15.485 Y-15.646
X15.726 Y-15.409
X15.959 Y-15.13
X16.101 Y-14.921
X16.148 Y-14.834
X16.177 Y-14.739
X16.187 Y-14.641
Y-12.016
X16.18 Y-11.866
X16.157 Y-11.718
X16.12 Y-11.573
X16.068 Y-11.432
X16.001 Y-11.298
X15.92 Y-11.172
X15.826 Y-11.054
X15.772 Y-10.999
X15.623 Y-10.894
X15.447 Y-10.848
X15.266 Y-10.865
X15.102 Y-10.943
X14.975 Y-11.074
X14.947 Y-11.116
G3 X14.983 Y-11.48 Z-0.033 I0.254 J-0.159
G1 X15.035 Y-11.536 Z0
X15.223 Y-11.736
X15.642 Y-12.183
X15.668 Y-12.211
X15.713 Y-12.25
X15.763 Y-12.279
X15.819 Y-12.298
X15.877 Y-12.306
G3 X16.187 Y-12.016 Z-0.2 I0.01 J0.3
G1 Y-10.996
X16.18 Y-10.846
X16.143 Y-10.7
X16.078 Y-10.565
X15.987 Y-10.445
X15.969 Y-10.428
X15.828 Y-10.333
X15.663 Y-10.291
X15.494 Y-10.307
X15.339 Y-10.378
X15.218 Y-10.497
X15.143 Y-10.65
G3 X15.129 Y-11.071 Z-0.02 I0.97 J-0.244
G1 X15.139 Y-11.117 Z0
G3 X15.978 Y-11.401 I0.515 J0.14
X16.187 Y-10.996 Z-0.2 I-0.324 J0.424
G1 Y-10.344
X16.18 Y-10.194
X16.126 Y-10.054
X16.041 Y-9.931
X16.025 Y-9.917
X15.862 Y-9.816
X15.674 Y-9.784
X15.487 Y-9.825
X15.329 Y-9.934
X15.224 Y-10.094
X15.186 Y-10.281
X15.197 Y-10.4 Z-0.149
G3 X15.363 Y-10.702 Z0 I0.492 J0.074
X15.967 Y-10.74 I0.327 J0.376
X16.187 Y-10.344 Z-0.2 I-0.277 J0.414
G1 Y-9.837
X16.18 Y-9.687
X16.127 Y-9.547
X16.037 Y-9.427
X16.015 Y-9.408
X15.851 Y-9.313
X15.664 Y-9.286
X15.48 Y-9.331
X15.325 Y-9.44
X15.223 Y-9.6
X15.187 Y-9.786
X15.186 Y-10.251
Y-10.281
G3 X15.409 Y-10.519 Z-0.049 I0.246 J0.007
G1 X15.466 Y-10.522 Z-0.024
X15.524 Y-10.521 Z0
G3 X16.021 Y-10.269 I-0.046 J0.709
X16.187 Y-9.837 Z-0.2 I-0.544 J0.456
G1 Y-9.337
X16.18 Y-9.187
X16.126 Y-9.047
X16.036 Y-8.927
X16.014 Y-8.909
X15.85 Y-8.814
X15.663 Y-8.788
X15.479 Y-8.832
X15.325 Y-8.942
X15.223 Y-9.101
X15.187 Y-9.287
Y-9.786
G3 X15.411 Y-10.022 Z-0.049 I0.246 J0.009
G1 X15.469 Y-10.025 Z-0.024
X15.526 Y-10.023 Z0
G3 X16.022 Y-9.769 I-0.051 J0.711
X16.187 Y-9.337 Z-0.2 I-0.547 J0.457
G1 Y-8.821
X16.18 Y-8.671
X16.121 Y-8.533
X16.028 Y-8.416
X16.005 Y-8.397
X15.841 Y-8.307
X15.655 Y-8.284
X15.474 Y-8.33
X15.322 Y-8.441
X15.222 Y-8.599
X15.187 Y-8.783
Y-9.287
G3 X15.42 Y-9.524 Z-0.045 I0.246 J0.009
G1 X15.526 Y-9.522 Z0
G3 X16.025 Y-9.255 I-0.068 J0.726
X16.187 Y-8.821 Z-0.2 I-0.567 J0.459
G1 Y-8.342
X16.18 Y-8.192
X16.128 Y-8.051
X16.039 Y-7.93
X16.018 Y-7.911
X15.854 Y-7.815
X15.666 Y-7.787
X15.481 Y-7.831
X15.326 Y-7.94
X15.223 Y-8.1
X15.187 Y-8.286
Y-8.783
G3 X15.407 Y-9.019 Z-0.05 I0.246 J0.009
G1 X15.466 Y-9.023 Z-0.025
X15.526 Y-9.022 Z0
G3 X16.021 Y-8.773 I-0.044 J0.704
X16.187 Y-8.342 Z-0.2 I-0.539 J0.456
G1 Y-7.818
X16.18 Y-7.668
X16.121 Y-7.531
X16.027 Y-7.413
X16.004 Y-7.395
X15.84 Y-7.305
X15.654 Y-7.282
X15.473 Y-7.329
X15.322 Y-7.44
X15.222 Y-7.598
X15.187 Y-7.781
Y-8.286
G3 X15.421 Y-8.524 Z-0.044 I0.246 J0.009
G1 X15.526 Y-8.521 Z0
G3 X16.025 Y-8.252 I-0.07 J0.728
X16.187 Y-7.818 Z-0.2 I-0.57 J0.459
G1 Y-7.304
X16.18 Y-7.154
X16.118 Y-7.017
X16.023 Y-6.902
X16 Y-6.883
X15.835 Y-6.796
X15.65 Y-6.775
X15.471 Y-6.823
X15.321 Y-6.933
X15.222 Y-7.09
X15.187 Y-7.273
Y-7.781
G3 X15.426 Y-8.019 Z-0.043 I0.246 J0.009
G1 X15.526 Y-8.015 Z0
G3 X16.027 Y-7.739 I-0.079 J0.736
X16.187 Y-7.304 Z-0.2 I-0.58 J0.46
G1 Y-6.833
X16.18 Y-6.683
X16.128 Y-6.542
X16.04 Y-6.421
X16.018 Y-6.402
X15.854 Y-6.306
X15.666 Y-6.277
X15.481 Y-6.321
X15.326 Y-6.431
X15.223 Y-6.59
X15.187 Y-6.777
Y-7.273
G3 X15.407 Y-7.51 Z-0.051 I0.246 J0.009
G1 X15.466 Y-7.513 Z-0.025
X15.526 Y-7.512 Z0
G3 X16.02 Y-7.264 I-0.044 J0.704
X16.187 Y-6.833 Z-0.2 I-0.538 J0.456
G1 Y-6.319
X16.18 Y-6.169
X16.123 Y-6.03
X16.031 Y-5.911
X16.009 Y-5.893
X15.845 Y-5.801
X15.658 Y-5.776
X15.476 Y-5.822
X15.324 Y-5.932
X15.222 Y-6.09
X15.187 Y-6.275
Y-6.777
G3 X15.416 Y-7.014 Z-0.047 I0.246 J0.009
G1 X15.471 Y-7.016 Z-0.023
X15.526 Y-7.013 Z0
G3 X16.024 Y-6.751 I-0.061 J0.72
X16.187 Y-6.319 Z-0.2 I-0.558 J0.458
G1 Y-5.812
X16.18 Y-5.662
X16.122 Y-5.524
X16.029 Y-5.406
X16.007 Y-5.387
X15.842 Y-5.297
X15.656 Y-5.273
X15.475 Y-5.319
X15.323 Y-5.429
X15.222 Y-5.588
X15.187 Y-5.772
Y-6.275
G3 X15.419 Y-6.512 Z-0.046 I0.246 J0.009
G1 X15.526 Y-6.511 Z0
G3 X16.025 Y-6.245 I-0.065 J0.724
X16.187 Y-5.812 Z-0.2 I-0.564 J0.459
G1 Y-5.305
X16.18 Y-5.155
X16.121 Y-5.017
X16.027 Y-4.9
X16.005 Y-4.881
X15.84 Y-4.791
X15.655 Y-4.768
X15.474 Y-4.815
X15.322 Y-4.925
X15.222 Y-5.083
X15.187 Y-5.267
Y-5.772
G3 X15.421 Y-6.009 Z-0.045 I0.246 J0.009
G1 X15.526 Y-6.007 Z0
G3 X16.025 Y-5.739 I-0.069 J0.727
X16.187 Y-5.305 Z-0.2 I-0.568 J0.459
G1 Y-4.805
X16.18 Y-4.656
X16.122 Y-4.517
X16.03 Y-4.399
X16.007 Y-4.38
X15.843 Y-4.289
X15.657 Y-4.265
X15.475 Y-4.312
X15.323 Y-4.422
X15.222 Y-4.58
X15.187 Y-4.764
Y-5.267
G3 X15.418 Y-5.504 Z-0.046 I0.246 J0.009
G1 X15.472 Y-5.506 Z-0.023
X15.526 Y-5.503 Z0
G3 X16.024 Y-5.239 I-0.064 J0.723
X16.187 Y-4.805 Z-0.2 I-0.562 J0.459
G1 Y-4.304
X16.18 Y-4.154
X16.123 Y-4.015
X16.03 Y-3.897
X16.008 Y-3.879
X15.844 Y-3.787
X15.658 Y-3.763
X15.475 Y-3.809
X15.323 Y-3.919
X15.222 Y-4.078
X15.187 Y-4.262
Y-4.764
G3 X15.417 Y-5.001 Z-0.046 I0.246 J0.009
G1 X15.472 Y-5.003 Z-0.023
X15.526 Y-5 Z0
G3 X16.024 Y-4.737 I-0.063 J0.721
X16.187 Y-4.304 Z-0.2 I-0.561 J0.458
G1 Y-3.808
X16.18 Y-3.658
X16.125 Y-3.519
X16.033 Y-3.4
X16.011 Y-3.381
X15.847 Y-3.288
X15.66 Y-3.263
X15.477 Y-3.308
X15.324 Y-3.418
X15.223 Y-3.577
X15.187 Y-3.762
Y-4.262
G3 X15.414 Y-4.499 Z-0.048 I0.246 J0.009
G1 X15.47 Y-4.501 Z-0.024
X15.526 Y-4.499 Z0
G3 X16.023 Y-4.241 I-0.056 J0.716
X16.187 Y-3.808 Z-0.2 I-0.553 J0.458
G1 Y-3.291
X16.18 Y-3.142
X16.12 Y-3.004
X16.026 Y-2.887
X16.003 Y-2.869
X15.839 Y-2.78
X15.653 Y-2.757
X15.473 Y-2.804
X15.322 Y-2.915
X15.222 Y-3.073
X15.187 Y-3.256
Y-3.762
G3 X15.423 Y-3.999 Z-0.044 I0.246 J0.009
G1 X15.526 Y-3.996 Z0
G3 X16.026 Y-3.725 I-0.072 J0.73
X16.187 Y-3.291 Z-0.2 I-0.572 J0.46
G1 Y-2.804
X16.18 Y-2.654
X16.125 Y-2.514
X16.034 Y-2.395
X16.012 Y-2.376
X15.848 Y-2.283
X15.661 Y-2.257
X15.478 Y-2.302
X15.324 Y-2.412
X15.223 Y-2.571
X15.187 Y-2.756
Y-3.256
G3 X15.413 Y-3.493 Z-0.048 I0.246 J0.009
G1 X15.47 Y-3.495 Z-0.024
X15.526 Y-3.493 Z0
G3 X16.023 Y-3.236 I-0.055 J0.714
X16.187 Y-2.804 Z-0.2 I-0.551 J0.457
G1 Y-2.297
X16.18 Y-2.148
X16.123 Y-2.009
X16.031 Y-1.89
X16.009 Y-1.872
X15.845 Y-1.78
X15.658 Y-1.755
X15.476 Y-1.801
X15.323 Y-1.911
X15.222 Y-2.07
X15.187 Y-2.254
Y-2.756
G3 X15.417 Y-2.993 Z-0.046 I0.246 J0.009
G1 X15.471 Y-2.995 Z-0.023
X15.526 Y-2.992 Z0
G3 X16.024 Y-2.73 I-0.061 J0.72
X16.187 Y-2.297 Z-0.2 I-0.559 J0.458
G1 Y-1.797
X16.18 Y-1.647
X16.124 Y-1.508
X16.032 Y-1.39
X16.01 Y-1.371
X15.845 Y-1.279
X15.659 Y-1.254
X15.476 Y-1.3
X15.324 Y-1.41
X15.223 Y-1.568
X15.187 Y-1.753
Y-2.254
G3 X15.416 Y-2.491 Z-0.047 I0.246 J0.009
G1 X15.471 Y-2.493 Z-0.023
X15.526 Y-2.491 Z0
G3 X16.023 Y-2.23 I-0.059 J0.719
X16.187 Y-1.797 Z-0.2 I-0.557 J0.458
G1 Y-1.281
X16.18 Y-1.131
X16.12 Y-0.994
X16.025 Y-0.877
X16.002 Y-0.859
X15.838 Y-0.77
X15.653 Y-0.748
X15.472 Y-0.795
X15.322 Y-0.906
X15.222 Y-1.063
X15.187 Y-1.247
Y-1.753
G3 X15.423 Y-1.99 Z-0.044 I0.246 J0.009
G1 X15.526 Y-1.987 Z0
G3 X16.026 Y-1.715 I-0.074 J0.732
X16.187 Y-1.281 Z-0.2 I-0.574 J0.46
G1 Y-0.802
X16.18 Y-0.652
X16.127 Y-0.512
X16.038 Y-0.392
X16.016 Y-0.372
X15.852 Y-0.277
X15.664 Y-0.25
X15.48 Y-0.294
X15.326 Y-0.404
X15.223 Y-0.563
X15.187 Y-0.749
Y-1.247
G3 X15.409 Y-1.483 Z-0.05 I0.246 J0.009
G1 X15.467 Y-1.487 Z-0.025
X15.526 Y-1.485 Z0
G3 X16.021 Y-1.234 I-0.048 J0.708
X16.187 Y-0.802 Z-0.2 I-0.543 J0.456
G1 Y-0.302
X16.18 Y-0.152
X16.126 Y-0.012
X16.036 Y0.108
X16.013 Y0.128
X15.849 Y0.223
X15.661 Y0.25
X15.477 Y0.205
X15.323 Y0.094
X15.221 Y-0.065
X15.186 Y-0.252
X15.187 Y-0.749
G3 X15.411 Y-0.986 Z-0.049 I0.246 J0.009
G1 X15.468 Y-0.989 Z-0.025
X15.526 Y-0.987 Z0
G3 X16.022 Y-0.734 I-0.05 J0.71
X16.187 Y-0.302 Z-0.2 I-0.546 J0.457
G1 Y0.193
X16.18 Y0.342
X16.128 Y0.483
X16.039 Y0.604
X15.926 Y0.703
X15.795 Y0.776
X15.743 Y0.793
X15.564 Y0.819
X15.387 Y0.78
X15.236 Y0.68
X15.131 Y0.533
X15.084 Y0.358
X15.103 Y0.178
G3 X15.246 Y-0.098 Z-0.067 I0.949 J0.316
G1 X15.298 Y-0.158 Z-0.034
X15.358 Y-0.21 Z0
G3 X15.974 Y-0.21 I0.308 J0.42
X16.187 Y0.193 Z-0.2 I-0.308 J0.42
G1 Y0.75
X16.18 Y0.9
X16.13 Y1.041
X16.048 Y1.167
X15.942 Y1.273
X15.817 Y1.357
X15.68 Y1.416
X15.534 Y1.454
X15.385 Y1.467
X15.235 Y1.457
X15.088 Y1.427
X15.07 Y1.421
X14.907 Y1.322
X14.792 Y1.17
X14.743 Y0.987
X14.766 Y0.798
X14.858 Y0.631
X14.899 Y0.593 Z-0.176
X14.947 Y0.563 Z-0.152
X15 Y0.542 Z-0.128
X15.055 Y0.532 Z-0.104
X15.299 Y0.511 Z0
X15.572 Y0.487
X15.604 Y0.484
X15.861 Y0.462
X15.877 Y0.461
G3 X16.187 Y0.75 Z-0.2 I0.01 J0.3
G1 Y1.375
X16.18 Y1.525
X16.131 Y1.667
X16.056 Y1.797
X15.96 Y1.912
X15.848 Y2.012
X15.724 Y2.095
X15.589 Y2.161
X15.446 Y2.207
X15.299 Y2.236
X15.149 Y2.246
X14.999 Y2.237
X14.852 Y2.21
X14.708 Y2.166
X14.572 Y2.104
X14.443 Y2.027
X14.323 Y1.937
X14.216 Y1.832
X14.188 Y1.798
X14.1 Y1.637
X14.077 Y1.456
X14.119 Y1.279
X14.223 Y1.128
X14.374 Y1.025
X14.437 Y1.008 Z-0.172
X14.503 Y1.004 Z-0.144
X14.841 Y1.024 Z0
X15.115 Y1.04
X15.604 Y1.069
X15.877 Y1.085
X15.905 Y1.086 Z-0.012
G3 X16.187 Y1.375 Z-0.2 I-0.018 J0.299
G1 Y2.078
X16.18 Y2.227
X16.139 Y2.372
X16.074 Y2.507
X15.989 Y2.631
X15.888 Y2.741
X15.774 Y2.839
X15.649 Y2.922
X15.516 Y2.992
X15.376 Y3.048
X15.225 Y3.091
X15.059 Y3.121
X14.887 Y3.135
X14.711 Y3.132
X14.525 Y3.11
X14.35 Y3.072
X14.188 Y3.019
X14.019 Y2.944
X13.871 Y2.861
X13.742 Y2.77
X13.613 Y2.659
X13.499 Y2.539
X13.406 Y2.418
X13.324 Y2.288
X13.251 Y2.141
X13.197 Y1.999
X13.158 Y1.854
X13.145 Y1.768
X13.147 Y1.599
X13.204 Y1.441
X13.311 Y1.311
X13.455 Y1.224
X13.62 Y1.189
X13.708 Y1.186
X13.709
X13.749 Y1.188 Z-0.182
X13.789 Y1.197 Z-0.165
X14.164 Y1.3 Z0
X14.427 Y1.373
X15.616 Y1.702
X15.879 Y1.775
X15.967 Y1.799 Z-0.039
G3 X16.187 Y2.078 Z-0.2 I-0.08 J0.289
G1 Y2.851
X16.18 Y3.001
X16.148 Y3.147
X16.093 Y3.287
X16.019 Y3.418
X15.93 Y3.538
X15.827 Y3.648
X15.711 Y3.749
X15.573 Y3.846
X15.422 Y3.933
X15.251 Y4.009
X15.062 Y4.071
X14.859 Y4.116
X14.645 Y4.142
X14.421 Y4.147
X14.191 Y4.129
X13.954 Y4.087
X13.718 Y4.019
X13.486 Y3.928
X13.262 Y3.813
X13.047 Y3.674
X12.846 Y3.513
X12.66 Y3.331
X12.497 Y3.137
X12.365 Y2.945
X12.252 Y2.737
X12.172 Y2.549
X12.112 Y2.356
X12.072 Y2.161
X12.054 Y1.985
X12.053 Y1.8
X12.07 Y1.622
X12.075 Y1.598
X12.136 Y1.438
X12.248 Y1.309
X12.397 Y1.224
X12.565 Y1.195
X13.465
X13.62 Y1.189
X13.675 Y1.194 Z-0.177
X13.727 Y1.209 Z-0.153
X13.776 Y1.232 Z-0.13
X14.038 Y1.391 Z0
X14.272 Y1.533
X15.66 Y2.373
X15.894 Y2.515
X16.043 Y2.605 Z-0.074
G3 X16.187 Y2.851 Z-0.2 I-0.155 J0.257
G1 Y3.793
X16.18 Y3.943
X16.143 Y4.089
X16.087 Y4.228
X16.014 Y4.359
X15.928 Y4.482
X15.819 Y4.608
X15.694 Y4.727
X15.544 Y4.843
X15.369 Y4.953
X15.178 Y5.048
X14.958 Y5.131
X14.715 Y5.196
X14.459 Y5.238
X14.184 Y5.256
X13.89 Y5.245
X13.583 Y5.204
X13.272 Y5.13
X12.962 Y5.022
X12.656 Y4.881
X12.358 Y4.705
X12.076 Y4.499
X11.814 Y4.265
X11.58 Y4.009
X11.375 Y3.735
X11.201 Y3.447
X11.06 Y3.151
X10.952 Y2.847
X10.883 Y2.571
X10.844 Y2.308
X10.833 Y2.069
X10.844 Y1.859
X10.877 Y1.641
X10.896 Y1.57
X10.962 Y1.42
X11.073 Y1.3
X11.218 Y1.222
X11.38 Y1.195
X12.565
X12.622 Y1.202 Z-0.176
X12.676 Y1.22 Z-0.152
X12.726 Y1.248 Z-0.127
X12.972 Y1.419 Z0
X13.197 Y1.575
X15.675 Y3.292
X15.9 Y3.448
X16.058 Y3.557 Z-0.082
G3 X16.187 Y3.793 Z-0.2 I-0.171 J0.247
G1 Y4.736
X16.18 Y4.886
X16.152 Y5.033
X16.106 Y5.176
X16.043 Y5.312
X15.961 Y5.449
X15.929 Y5.493
X15.818 Y5.601
X15.68 Y5.671
X15.527 Y5.695
G3 X15.238 Y5.385 Z0 I0.01 J-0.3
G1 X15.248 Y5.317
X15.273 Y5.253
X15.338 Y5.133
X15.623 Y4.604
G3 X15.877 Y4.447 I0.264 J0.142
X16.187 Y4.736 Z-0.2 I0.01 J0.3
G1 Y5.626
Y5.678
X16.176 Y5.695
X12.52
X12.37 Y5.687
X12.15 Y5.652
X11.919 Y5.591
X11.673 Y5.499
X11.408 Y5.369
X11.15 Y5.209
X10.886 Y5.006
X10.624 Y4.76
X10.376 Y4.475
X10.154 Y4.163
X9.962 Y3.826
X9.805 Y3.473
X9.687 Y3.117
X9.606 Y2.758
X9.567 Y2.44
X9.561 Y2.143
X9.58 Y1.898
X9.621 Y1.666
X9.651 Y1.559
X9.72 Y1.413
X9.831 Y1.296
X9.973 Y1.221
X10.133 Y1.195
X11.38
G3 X11.657 Y1.411 Z-0.041 I-0.01 J0.3
G1 X11.684 Y1.502 Z0
X11.761 Y1.765
X12.742 Y5.12
X12.797 Y5.311
X12.806 Y5.348
X12.809 Y5.385
G3 X12.52 Y5.695 Z-0.2 I-0.3 J0.01
G1 X10.843
X10.693 Y5.687
X10.543 Y5.675
X10.396 Y5.647
X10.251 Y5.607
X10.11 Y5.556
X9.973 Y5.495
X9.841 Y5.424
X9.713 Y5.346
X9.59 Y5.26
X9.472 Y5.167
X9.359 Y5.069
X9.251 Y4.965
X9.149 Y4.855
X9.051 Y4.741
X8.958 Y4.624
X8.871 Y4.502
X8.788 Y4.376
X8.711 Y4.248
X8.638 Y4.116
X8.571 Y3.982
X8.509 Y3.846
X8.452 Y3.707
X8.4 Y3.566
X8.353 Y3.424
X8.312 Y3.28
X8.276 Y3.134
X8.245 Y2.987
X8.22 Y2.839
X8.2 Y2.691
X8.186 Y2.541
X8.178 Y2.392
Y2.242
X8.184 Y2.092
X8.197 Y1.942
X8.218 Y1.794
X8.248 Y1.647
X8.27 Y1.565
X8.338 Y1.417
X8.449 Y1.298
X8.593 Y1.221
X8.753 Y1.195
X10.133
G3 X10.417 Y1.441 Z-0.027 I-0.01 J0.3
G1 X10.429 Y1.504 Z0
X10.478 Y1.773
X11.086 Y5.115
X11.127 Y5.341
X11.132 Y5.385
G3 X10.843 Y5.695 Z-0.2 I-0.3 J0.01
G1 X5.725
G3 X5.461 Y5.515 Z-0.057 I0.01 J-0.3
G1 X5.407 Y5.393 Z0
X5.297 Y5.142
X3.816 Y1.762
X3.752 Y1.615
X3.734 Y1.561
X3.726 Y1.505
G3 X4.016 Y1.195 Z-0.2 I0.3 J-0.01
G1 X8.753
G0 Z5
X12.491 Y-15.14
Z0.4
G1 Z0.1 F800
X12.493 Y-15.148 Z0.033
X12.501 Y-15.168 Z-0.03
X12.513 Y-15.202 Z-0.087
X12.53 Y-15.247 Z-0.135
X12.549 Y-15.3 Z-0.17
X12.571 Y-15.36 Z-0.192
X12.594 Y-15.422 Z-0.2
G3 X13.038 Y-16.07 I1.486 J0.544
G1 X13.269 Y-16.258
X13.465 Y-16.487
X13.567 Y-16.62
X13.664 Y-16.734
X13.779 Y-16.83
X13.907 Y-16.909
X14.043 Y-16.972
X14.187 Y-17.02
X14.351 Y-17.057
X14.534 Y-17.079
X14.734 Y-17.084
X14.958 Y-17.067
X15.189 Y-17.026
X15.45 Y-16.953
X15.71 Y-16.851
X15.915 Y-16.747
X16.059 Y-16.636
X16.154 Y-16.481
X16.187 Y-16.302
Y-14.641
G3 X15.877 Y-14.351 Z0 I-0.3 J-0.01
G1 X15.81 Y-14.361
X15.747 Y-14.386
X15.691 Y-14.424
X15.638 Y-14.47
X13.843 Y-16.022
X13.636 Y-16.201
X13.615 Y-16.219 Z-0.012
G3 X13.567 Y-16.62 Z-0.2 I0.196 J-0.227
G1 X14.012 Y-17.2
X14.144 Y-17.386
X14.237 Y-17.504
X14.347 Y-17.606
X14.469 Y-17.693
X14.6 Y-17.766
X14.746 Y-17.828
X14.919 Y-17.883
X15.106 Y-17.922
X15.137 Y-17.925
X15.324 Y-17.91
X15.492 Y-17.827
X15.617 Y-17.688
X15.683 Y-17.512
X15.696 Y-17.436
X15.777 Y-17.2
X15.827 Y-17.098
X15.944 Y-16.913
X16.105 Y-16.729
X16.169 Y-16.67
X16.187 Y-16.655
Y-16.302
G3 X15.877 Y-16.012 Z0 I-0.3 J-0.01
G1 X15.826 Y-16.018
X15.777 Y-16.033
X15.731 Y-16.056
X15.629 Y-16.118
X14.463 Y-16.829
X14.239 Y-16.966
X14.23 Y-16.971
G3 X14.144 Y-17.386 Z-0.2 I0.165 J-0.251
G1 X14.346 Y-17.671
X14.41 Y-17.81
X14.52 Y-18.075
X14.584 Y-18.211
X14.675 Y-18.33
X14.786 Y-18.43
X14.914 Y-18.509
X15.053 Y-18.568
X15.248 Y-18.577
X15.431 Y-18.511
X15.576 Y-18.38
X15.659 Y-18.204
X15.669 Y-18.009
G3 X15.479 Y-17.583 Z0 I-0.983 J-0.181
G1 X15.431 Y-17.525
G3 X14.555 Y-17.62 I-0.404 J-0.361
X14.52 Y-18.075 Z-0.2 I0.472 J-0.265
G1 X14.785 Y-18.716
X14.849 Y-18.851
X14.952 Y-18.961
X15.076 Y-19.045
X15.103 Y-19.056
X15.281 Y-19.09
X15.46 Y-19.059
X15.615 Y-18.965
X15.728 Y-18.823
X15.782 Y-18.649
X15.77 Y-18.468
X15.688 Y-18.143
X15.669 Y-18.009
G3 X15.384 Y-17.788 Z-0.033 I-0.266 J-0.049
G1 X15.308 Y-17.797 Z0
G3 X14.778 Y-18.254 I0.122 J-0.677
X14.785 Y-18.716 Z-0.2 I0.652 J-0.221
G1 X14.882 Y-18.95
X14.935 Y-19.085
X14.953 Y-19.156
X14.998 Y-19.3
X15.089 Y-19.418
X15.098 Y-19.425
X15.255 Y-19.502
X15.428 Y-19.521
X15.597 Y-19.479
X15.741 Y-19.381
X15.843 Y-19.241
X15.891 Y-19.073
X15.878 Y-18.9
X15.77 Y-18.468
G3 X15.488 Y-18.304 I-0.227 J-0.066
X14.953 Y-19.156 I0.167 J-0.699
G1 X14.995 Y-19.321
X15.027 Y-19.556
X15.054 Y-19.704
X15.137 Y-19.829
X15.25 Y-19.928
X15.282 Y-19.945
X15.464 Y-20
X15.654 Y-19.983
X15.823 Y-19.896
X15.948 Y-19.751
X16.01 Y-19.571
X15.999 Y-19.381
X15.878 Y-18.9
G3 X15.602 Y-18.741 I-0.22 J-0.064
X15.027 Y-19.556 I0.187 J-0.742
G1 X15.089 Y-20.027
X15.116 Y-20.175
X15.193 Y-20.304
X15.3 Y-20.409
X15.428 Y-20.487
X15.439 Y-20.491
X15.599 Y-20.521
X15.761 Y-20.498
X15.906 Y-20.425
X16.02 Y-20.308
X16.091 Y-20.161
X16.11 Y-19.999
X16.101 Y-19.792
X16.099 Y-19.777
X15.999 Y-19.381
G3 X15.728 Y-19.207 I-0.234 J-0.068
X15.089 Y-20.027 I0.114 J-0.748
G1 X15.156 Y-20.538
X15.183 Y-20.686
X15.257 Y-20.816
X15.27 Y-20.83
X15.408 Y-20.932
X15.573 Y-20.981
X15.745 Y-20.971
X15.904 Y-20.903
X16.03 Y-20.786
X16.108 Y-20.633
X16.131 Y-20.462
X16.11 Y-19.999
G3 X15.863 Y-19.769 Z-0.043 I-0.249 J-0.02
G1 X15.763 Y-19.776 Z0
G3 X15.268 Y-20.089 I0.096 J-0.698
X15.156 Y-20.538 Z-0.2 I0.591 J-0.385
G1 X15.181 Y-20.734
X15.184 Y-20.97
X15.185 Y-21.12
X15.251 Y-21.255
X15.349 Y-21.368
X15.358 Y-21.375
X15.526 Y-21.455
X15.712 Y-21.467
X15.889 Y-21.411
X16.034 Y-21.294
X16.126 Y-21.133
X16.152 Y-20.949
X16.131 Y-20.462
G3 X15.877 Y-20.266 I-0.216 J-0.017
X15.184 Y-20.97 I0.148 J-0.84
G1 X15.135 Y-21.354
X15.124 Y-21.504
X15.162 Y-21.649
X15.235 Y-21.78
X15.339 Y-21.888
X15.344 Y-21.891
X15.496 Y-21.963
X15.663 Y-21.981
X15.826 Y-21.942
X15.967 Y-21.852
X16.071 Y-21.72
X16.125 Y-21.561
X16.167 Y-21.294
X16.152 Y-20.949
G3 X15.935 Y-20.73 I-0.237 J-0.019
X15.135 Y-21.354 I-0.064 J-0.743
G1 X15.068 Y-21.869
X15.056 Y-22.019
X15.095 Y-22.164
X15.169 Y-22.295
X15.185 Y-22.312
X15.333 Y-22.423
X15.512 Y-22.472
X15.697 Y-22.452
X15.862 Y-22.367
X15.984 Y-22.227
X16.047 Y-22.052
X16.125 Y-21.561
G3 X15.933 Y-21.288 Z-0.045 I-0.246 J0.03
G1 X15.828 Y-21.273 Z0
G3 X15.288 Y-21.462 I-0.053 J-0.715
X15.068 Y-21.869 Z-0.2 I0.488 J-0.526
G1 X15 Y-22.384
X14.981 Y-22.532
X15.024 Y-22.676
X15.103 Y-22.803
X15.114 Y-22.814
X15.263 Y-22.921
X15.441 Y-22.967
X15.624 Y-22.945
X15.786 Y-22.858
X15.906 Y-22.719
X15.968 Y-22.546
X16.047 Y-22.052
G3 X15.834 Y-21.791 I-0.232 J0.029
X15 Y-22.384 I-0.065 J-0.791
G1 X14.956 Y-22.584
X14.897 Y-22.745
X14.852 Y-22.888
X14.861 Y-23.037
X14.908 Y-23.18
X14.92 Y-23.199
X15.045 Y-23.333
X15.21 Y-23.412
X15.393 Y-23.427
X15.569 Y-23.375
X15.714 Y-23.263
X15.809 Y-23.106
X15.931 Y-22.781
X15.968 Y-22.546
G3 X15.794 Y-22.291 I-0.231 J0.029
X14.897 Y-22.745 I-0.188 J-0.742
G1 X14.882 Y-22.785
X14.719 Y-23.178
X14.669 Y-23.319
X14.671 Y-23.469
X14.714 Y-23.613
X14.728 Y-23.639
X14.848 Y-23.784
X15.014 Y-23.874
X15.202 Y-23.896
X15.384 Y-23.847
X15.535 Y-23.734
X15.634 Y-23.573
X15.809 Y-23.106
G3 X15.675 Y-22.807 I-0.228 J0.077
X14.719 Y-23.178 I-0.288 J-0.676
G1 X14.536 Y-23.621
X14.486 Y-23.762
X14.481 Y-23.912
X14.519 Y-24.057
X14.586 Y-24.191
X14.592 Y-24.198
X14.724 Y-24.313
X14.886 Y-24.376
X15.061 Y-24.379
X15.226 Y-24.322
X15.361 Y-24.212
X15.45 Y-24.061
X15.634 Y-23.573
G3 X15.51 Y-23.275 Z-0.051 I-0.233 J0.078
G1 X15.456 Y-23.251 Z-0.025
X15.4 Y-23.231 Z0
G3 X14.853 Y-23.284 I-0.21 J-0.687
X14.536 Y-23.621 Z-0.2 I0.337 J-0.635
G1 X14.41 Y-23.926
X14.328 Y-24.097
X14.263 Y-24.233
X14.26 Y-24.383
X14.264 Y-24.397
X14.343 Y-24.575
X14.484 Y-24.71
X14.667 Y-24.78
X14.862 Y-24.775
X15.04 Y-24.695
X15.175 Y-24.554
X15.4 Y-24.194
X15.45 Y-24.061
G3 X15.303 Y-23.77 I-0.217 J0.073
X14.328 Y-24.097 I-0.266 J-0.824
G1 X14.217 Y-24.269
X14.114 Y-24.402
X14.029 Y-24.525
X13.996 Y-24.672
X14.006 Y-24.821
X14.012 Y-24.841
X14.099 Y-25.01
X14.243 Y-25.134
X14.423 Y-25.196
X14.613 Y-25.186
X14.785 Y-25.105
X14.915 Y-24.967
X15.175 Y-24.554
G3 X15.098 Y-24.243 I-0.199 J0.116
X14.114 Y-24.402 I-0.402 J-0.639
G1 X13.825 Y-24.779
X13.74 Y-24.902
X13.703 Y-25.048
X13.707 Y-25.198
X13.743 Y-25.343
X13.758 Y-25.373
X13.872 Y-25.527
X14.036 Y-25.626
X14.226 Y-25.656
X14.413 Y-25.613
X14.569 Y-25.502
X14.588 Y-25.483
X14.599 Y-25.469
X14.915 Y-24.967
G3 X14.849 Y-24.65 I-0.209 J0.121
X13.825 Y-24.779 I-0.443 J-0.608
G1 X13.521 Y-25.175
X13.436 Y-25.298
X13.389 Y-25.441
X13.388 Y-25.466
X13.409 Y-25.637
X13.487 Y-25.792
X13.613 Y-25.91
X13.771 Y-25.978
X13.944 Y-25.989
X14.109 Y-25.94
X14.248 Y-25.838
X14.569 Y-25.502
G3 X14.574 Y-25.169 Z-0.046 I-0.19 J0.169
G1 X14.538 Y-25.129 Z-0.023
X14.499 Y-25.092 Z0
G3 X13.918 Y-24.938 I-0.448 J-0.519
X13.521 Y-25.175 Z-0.2 I0.132 J-0.673
G1 X13.465 Y-25.248
X13.242 Y-25.503
X13.205 Y-25.533
X13.149 Y-25.583
X13.087 Y-25.719
X13.063 Y-25.868
X13.064 Y-25.875
X13.116 Y-26.058
X13.232 Y-26.208
X13.396 Y-26.304
X13.584 Y-26.332
X13.768 Y-26.287
X13.923 Y-26.178
X14.248 Y-25.838
G3 X14.208 Y-25.51 I-0.164 J0.146
X13.205 Y-25.533 I-0.485 J-0.715
G1 X13.02 Y-25.682
X12.921 Y-25.758
X12.807 Y-25.855
X12.734 Y-25.987
X12.699 Y-26.132
Y-26.282
X12.704 Y-26.307
X12.763 Y-26.46
X12.868 Y-26.585
X13.008 Y-26.67
X13.168 Y-26.705
X13.33 Y-26.687
X13.478 Y-26.617
X13.54 Y-26.574
X13.555 Y-26.562
X13.923 Y-26.178
G3 X13.921 Y-25.865 I-0.174 J0.156
X12.921 Y-25.758 I-0.56 J-0.511
G1 X12.52 Y-26.066
X12.406 Y-26.163
X12.329 Y-26.292
X12.285 Y-26.435
X12.284 Y-26.461
X12.308 Y-26.644
X12.396 Y-26.807
X12.538 Y-26.926
X12.714 Y-26.985
X12.899 Y-26.977
X13.068 Y-26.901
X13.478 Y-26.617
G3 X13.546 Y-26.29 Z-0.045 I-0.15 J0.201
G1 X13.486 Y-26.202 Z0
G3 X12.963 Y-25.935 I-0.555 J-0.44
X12.52 Y-26.066 Z-0.2 I-0.032 J-0.708
G1 X12.12 Y-26.371
X12.005 Y-26.468
X11.928 Y-26.597
X11.921 Y-26.623
X11.906 Y-26.795
X11.95 Y-26.963
X12.049 Y-27.105
X12.191 Y-27.205
X12.358 Y-27.251
X12.531 Y-27.236
X12.689 Y-27.164
X13.068 Y-26.901
G3 X13.13 Y-26.575 Z-0.045 I-0.146 J0.197
G1 X13.1 Y-26.531 Z-0.023
X13.067 Y-26.489 Z0
G3 X12.564 Y-26.242 I-0.538 J-0.459
X12.12 Y-26.371 Z-0.2 I-0.035 J-0.706
G1 X12.047 Y-26.427
X11.855 Y-26.541
X11.823 Y-26.555
X11.688 Y-26.622
X11.584 Y-26.729
X11.515 Y-26.862
X11.48 Y-27.008
Y-27.012
X11.504 Y-27.176
X11.58 Y-27.323
X11.7 Y-27.437
X11.851 Y-27.506
X12.016 Y-27.522
X12.177 Y-27.483
X12.298 Y-27.431
X12.313 Y-27.424
X12.689 Y-27.164
G3 X12.747 Y-26.867 I-0.134 J0.18
X11.823 Y-26.555 I-0.647 J-0.392
G1 X11.662 Y-26.625
X11.377 Y-26.743
X11.242 Y-26.807
X11.134 Y-26.911
X11.057 Y-27.04
X11.048 Y-27.069
X11.027 Y-27.257
X11.077 Y-27.438
X11.19 Y-27.589
X11.351 Y-27.686
X11.537 Y-27.717
X11.722 Y-27.677
X12.177 Y-27.483
G3 X12.304 Y-27.185 Z-0.049 I-0.104 J0.221
G1 X12.284 Y-27.131 Z-0.025
X12.259 Y-27.078 Z0
G3 X11.84 Y-26.73 I-0.631 J-0.333
X11.377 Y-26.743 Z-0.2 I-0.212 J-0.682
G1 X10.905 Y-26.938
X10.769 Y-27.003
X10.664 Y-27.11
X10.592 Y-27.241
X10.583 Y-27.271
X10.563 Y-27.458
X10.614 Y-27.639
X10.728 Y-27.788
X10.889 Y-27.885
X11.074 Y-27.916
X11.258 Y-27.876
X11.722 Y-27.677
G3 X11.847 Y-27.371 Z-0.046 I-0.104 J0.222
G1 X11.803 Y-27.273 Z0
G3 X11.367 Y-26.922 I-0.642 J-0.35
X10.905 Y-26.938 Z-0.2 I-0.206 J-0.702
G1 X10.523 Y-27.096
X10.468 Y-27.113
X10.327 Y-27.166
X10.216 Y-27.266
X10.135 Y-27.392
X10.13 Y-27.404
X10.1 Y-27.577
X10.132 Y-27.75
X10.222 Y-27.901
X10.358 Y-28.012
X10.525 Y-28.069
X10.701 Y-28.064
X10.913 Y-28.021
X10.93 Y-28.015
X11.258 Y-27.876
G3 X11.379 Y-27.576 I-0.101 J0.216
X10.468 Y-27.113 I-0.709 J-0.267
G1 X10.34 Y-27.154
X10.158 Y-27.187
X10.079 Y-27.197
X9.931 Y-27.224
X9.804 Y-27.303
X9.701 Y-27.413
X9.695 Y-27.425
X9.634 Y-27.605
X9.645 Y-27.794
X9.726 Y-27.965
X9.864 Y-28.094
X10.041 Y-28.163
X10.23 Y-28.161
X10.701 Y-28.064
G3 X10.874 Y-27.797 I-0.054 J0.225
X10.079 Y-27.197 I-0.724 J-0.134
G1 X9.607 Y-27.26
X9.459 Y-27.287
X9.33 Y-27.363
X9.227 Y-27.472
X9.149 Y-27.6
X9.145 Y-27.612
X9.117 Y-27.784
X9.151 Y-27.956
X9.241 Y-28.105
X9.377 Y-28.214
X9.543 Y-28.27
X9.718 Y-28.266
X10.23 Y-28.161
G3 X10.412 Y-27.893 I-0.056 J0.234
X9.607 Y-27.26 I-0.734 J-0.105
G1 X9.213 Y-27.312
X9.134 Y-27.321
X8.986 Y-27.346
X8.851 Y-27.41
X8.737 Y-27.508
X8.72 Y-27.531
X8.643 Y-27.696
X8.63 Y-27.877
X8.683 Y-28.051
X8.794 Y-28.194
X8.949 Y-28.289
X9.127 Y-28.322
X9.434
X9.449 Y-28.321
X9.718 Y-28.266
G3 X9.908 Y-28.018 Z-0.057 I-0.058 J0.242
G1 X9.903 Y-27.952 Z-0.028
X9.893 Y-27.886 Z0
G3 X9.583 Y-27.434 I-0.7 J-0.148
X9.134 Y-27.321 Z-0.2 I-0.39 J-0.6
G1 X8.74 Y-27.367
X8.697 Y-27.363
X8.547 Y-27.357
X8.406 Y-27.407
X8.394 Y-27.415
X8.269 Y-27.544
X8.198 Y-27.708
X8.189 Y-27.887
X8.243 Y-28.057
X8.355 Y-28.198
X8.508 Y-28.29
X8.684 Y-28.322
X9.127
G3 X9.346 Y-28.096 I-0.008 J0.226
X8.697 Y-27.363 I-0.739 J0
G1 X8.268 Y-27.326
X8.118 Y-27.313
X7.976 Y-27.36
X7.85 Y-27.441
X7.747 Y-27.551
X7.742 Y-27.558
X7.677 Y-27.722
X7.673 Y-27.898
X7.73 Y-28.065
X7.841 Y-28.201
X7.993 Y-28.291
X8.167 Y-28.322
X8.684
G3 X8.907 Y-28.096 I-0.008 J0.231
X8.268 Y-27.326 I-0.766 J0.015
G1 X7.795 Y-27.263
X7.646 Y-27.251
X7.5 Y-27.285
X7.367 Y-27.355
X7.337 Y-27.382
X7.223 Y-27.527
X7.17 Y-27.703
X7.184 Y-27.886
X7.263 Y-28.052
X7.396 Y-28.178
X7.567 Y-28.247
X7.928 Y-28.321
X7.943 Y-28.322
X8.167
G3 X8.403 Y-28.115 Z-0.056 I-0.009 J0.248
G1 X8.411 Y-28.05 Z-0.028
X8.413 Y-27.985 Z0
G3 X8.205 Y-27.479 I-0.74 J-0.009
X7.795 Y-27.263 Z-0.2 I-0.532 J-0.514
G1 X7.323 Y-27.201
X7.284 Y-27.195
X7.134 Y-27.181
X6.989 Y-27.217
X6.966 Y-27.23
X6.833 Y-27.339
X6.745 Y-27.488
X6.713 Y-27.657
X6.74 Y-27.827
X6.823 Y-27.978
X6.952 Y-28.091
X7.113 Y-28.154
X7.567 Y-28.247
G3 X7.846 Y-28.062 Z-0.043 I0.041 J0.242
G1 X7.863 Y-27.962 Z0
G3 X7.686 Y-27.423 I-0.709 J0.066
X7.284 Y-27.195 Z-0.2 I-0.533 J-0.473
G1 X7.087 Y-27.166
X6.899 Y-27.11
X6.753 Y-27.075
X6.604 Y-27.092
X6.465 Y-27.149
X6.444 Y-27.164
X6.314 Y-27.304
X6.246 Y-27.483
X6.251 Y-27.674
X6.326 Y-27.85
X6.462 Y-27.984
X6.639 Y-28.057
X7.113 Y-28.154
G3 X7.376 Y-27.982 I0.039 J0.229
X6.899 Y-27.11 I-0.71 J0.178
G1 X6.851 Y-27.096
X6.481 Y-26.943
X6.34 Y-26.893
X6.19 Y-26.899
X6.047 Y-26.943
X6.012 Y-26.963
X5.873 Y-27.082
X5.787 Y-27.244
X5.765 Y-27.426
X5.809 Y-27.603
X5.915 Y-27.753
X6.067 Y-27.855
X6.452 Y-28.019
X6.639 Y-28.057
G3 X6.91 Y-27.889 I0.04 J0.238
X6.481 Y-26.943 I-0.755 J0.228
G1 X6.009 Y-26.748
X5.868 Y-26.697
X5.718 Y-26.703
X5.575 Y-26.748
X5.554 Y-26.76
X5.413 Y-26.878
X5.324 Y-27.04
X5.299 Y-27.223
X5.343 Y-27.402
X5.449 Y-27.553
X5.602 Y-27.656
X6.067 Y-27.855
G3 X6.381 Y-27.724 Z-0.041 I0.089 J0.229
G1 X6.414 Y-27.634 Z0
G3 X6.35 Y-27.062 I-0.714 J0.21
X6.009 Y-26.748 Z-0.2 I-0.649 J-0.363
G1 X5.712 Y-26.625
X5.595 Y-26.57
X5.456 Y-26.514
X5.307 Y-26.504
X5.16 Y-26.535
X5.124 Y-26.552
X4.981 Y-26.652
X4.882 Y-26.795
X4.837 Y-26.963
X4.853 Y-27.136
X4.927 Y-27.294
X5.05 Y-27.416
X5.069 Y-27.428
X5.602 Y-27.656
G3 X5.903 Y-27.544 I0.087 J0.225
X5.595 Y-26.57 I-0.632 J0.336
G1 X5.433 Y-26.495
X5.249 Y-26.36
X5.124 Y-26.277
X4.979 Y-26.24
X4.829 Y-26.243
X4.813 Y-26.247
X4.642 Y-26.328
X4.514 Y-26.467
X4.446 Y-26.643
X4.449 Y-26.832
X4.522 Y-27.007
X4.654 Y-27.142
X5.05 Y-27.416
G3 X5.3 Y-27.282 I0.088 J0.136
G1 X5.302 Y-27.126
X5.311 Y-26.489
X5.304 Y-26.44
X5.283 Y-26.396
X5.249 Y-26.36
X4.961 Y-26.148
X4.853 Y-26.065
X4.729 Y-25.979
X4.583 Y-25.944
X4.433 Y-25.95
X4.288 Y-25.988
X4.15 Y-26.09
X4.054 Y-26.233
X4.013 Y-26.399
X4.03 Y-26.57
X4.104 Y-26.725
X4.227 Y-26.846
X4.654 Y-27.142
G3 X4.976 Y-27.083 I0.13 J0.202
X4.853 Y-26.065 I-0.597 J0.444
G1 X4.448 Y-25.754
X4.324 Y-25.669
X4.179 Y-25.633
X4.029
X3.981 Y-25.644
X3.821 Y-25.714
X3.695 Y-25.834
X3.618 Y-25.989
X3.599 Y-26.162
X3.64 Y-26.331
X3.736 Y-26.476
X3.816 Y-26.56
X3.828 Y-26.57
X4.227 Y-26.846
G3 X4.551 Y-26.794 Z-0.047 I0.133 J0.208
G1 X4.585 Y-26.75 Z-0.024
X4.615 Y-26.703 Z0
G3 X4.718 Y-26.327 I-0.639 J0.377
G1 Y-26.326
X4.712 Y-26.235
X4.695 Y-26.145
G3 X4.448 Y-25.754 Z-0.2 I-0.719 J-0.181
G1 X4.354 Y-25.682
X4.185 Y-25.55
X4.092 Y-25.458
X3.98 Y-25.358
X3.839 Y-25.306
X3.827 Y-25.305
X3.656 Y-25.321
X3.5 Y-25.393
X3.378 Y-25.514
X3.304 Y-25.669
X3.286 Y-25.84
X3.328 Y-26.006
X3.424 Y-26.149
X3.736 Y-26.476
G3 X4.07 Y-26.476 I0.167 J0.171
X4.092 Y-25.458 I-0.506 J0.52
G1 X4.016 Y-25.383
X3.853 Y-25.174
X3.755 Y-25.06
X3.625 Y-24.986
X3.479 Y-24.95
X3.444 Y-24.951
X3.255 Y-24.989
X3.095 Y-25.096
X2.987 Y-25.256
X2.947 Y-25.444
X2.982 Y-25.634
X3.086 Y-25.796
X3.424 Y-26.149
G3 X3.736 Y-26.158 I0.161 J0.165
X3.853 Y-25.174 I-0.483 J0.556
G1 X3.543 Y-24.772
X3.446 Y-24.657
X3.314 Y-24.587
X3.167 Y-24.554
X3.017 Y-24.553
X3.004 Y-24.556
X2.825 Y-24.628
X2.688 Y-24.763
X2.611 Y-24.94
X2.607 Y-25.133
X2.676 Y-25.312
X2.78 Y-25.476
X3.086 Y-25.796
G3 X3.413 Y-25.808 Z-0.047 I0.17 J0.175
G1 X3.455 Y-25.77 Z-0.024
X3.493 Y-25.73 Z0
G3 X3.687 Y-25.213 I-0.577 J0.511
X3.543 Y-24.772 Z-0.2 I-0.771 J-0.007
G1 X3.239 Y-24.375
X3.142 Y-24.26
X3.014 Y-24.182
X2.996 Y-24.177
X2.826 Y-24.157
X2.658 Y-24.197
X2.514 Y-24.291
X2.41 Y-24.428
X2.359 Y-24.592
X2.366 Y-24.764
X2.431 Y-24.923
X2.676 Y-25.312
G3 X3.003 Y-25.392 Z-0.043 I0.207 J0.141
G1 X3.089 Y-25.337 Z0
G3 X3.367 Y-24.819 I-0.418 J0.558
X3.239 Y-24.375 Z-0.2 I-0.696 J0.039
G1 X3.158 Y-24.269
X3.071 Y-24.14
X3.032 Y-24.057
X2.962 Y-23.924
X2.848 Y-23.827
X2.712 Y-23.764
X2.691 Y-23.76
X2.499 Y-23.763
X2.322 Y-23.837
X2.187 Y-23.972
X2.111 Y-24.148
X2.108 Y-24.34
X2.177 Y-24.518
X2.431 Y-24.923
G3 X2.736 Y-24.988 I0.186 J0.126
X3.032 Y-24.057 I-0.394 J0.638
G1 X2.911 Y-23.797
X2.852 Y-23.655
X2.788 Y-23.519
X2.682 Y-23.413
X2.551 Y-23.339
X2.407 Y-23.298
X2.397 Y-23.297
X2.231 Y-23.312
X2.08 Y-23.381
X1.959 Y-23.495
X1.882 Y-23.643
X1.859 Y-23.808
X1.89 Y-23.972
X1.974 Y-24.195
X2.177 Y-24.518
G3 X2.478 Y-24.598 I0.196 J0.133
X2.852 Y-23.655 I-0.334 J0.678
G1 X2.651 Y-23.17
X2.587 Y-23.034
X2.479 Y-22.93
X2.349 Y-22.855
X2.328 Y-22.849
X2.144 Y-22.829
X1.966 Y-22.876
X1.818 Y-22.985
X1.718 Y-23.141
X1.682 Y-23.321
X1.714 Y-23.503
X1.89 Y-23.972
G3 X2.196 Y-24.113 Z-0.043 I0.229 J0.095
G1 X2.29 Y-24.075 Z0
G3 X2.667 Y-23.632 I-0.317 J0.651
X2.651 Y-23.17 Z-0.2 I-0.694 J0.209
G1 X2.521 Y-22.855
X2.47 Y-22.725
X2.409 Y-22.588
X2.306 Y-22.479
X2.177 Y-22.402
X2.171 Y-22.4
X1.986 Y-22.375
X1.804 Y-22.42
X1.652 Y-22.527
X1.55 Y-22.684
X1.512 Y-22.866
X1.544 Y-23.05
X1.714 Y-23.503
G3 X2.011 Y-23.641 Z-0.047 I0.224 J0.093
G1 X2.064 Y-23.623 Z-0.024
X2.114 Y-23.6 Z0
G3 X2.474 Y-23.188 I-0.317 J0.639
X2.47 Y-22.725 Z-0.2 I-0.676 J0.226
G1 X2.429 Y-22.619
X2.374 Y-22.384
X2.368 Y-22.341
X2.341 Y-22.193
X2.257 Y-22.069
X2.144 Y-21.97
X2.117 Y-21.956
X1.942 Y-21.904
X1.76 Y-21.918
X1.596 Y-21.996
X1.47 Y-22.128
X1.4 Y-22.297
X1.395 Y-22.479
X1.443 Y-22.781
X1.544 Y-23.05
G3 X1.827 Y-23.178 I0.21 J0.087
X2.368 Y-22.341 I-0.257 J0.76
G1 X2.306 Y-21.869
X2.279 Y-21.722
X2.201 Y-21.594
X2.092 Y-21.491
X2.067 Y-21.476
X1.89 Y-21.412
X1.703 Y-21.417
X1.53 Y-21.492
X1.397 Y-21.624
X1.323 Y-21.796
X1.317 Y-21.984
X1.395 Y-22.479
G3 X1.663 Y-22.673 Z-0.046 I0.237 J0.046
G1 X1.768 Y-22.652 Z0
G3 X2.204 Y-22.321 I-0.197 J0.712
X2.309 Y-21.941 Z-0.17 I-0.633 J0.381
G1 Y-21.94
X2.306 Y-21.869 Z-0.2
X2.244 Y-21.398
X2.218 Y-21.25
X2.147 Y-21.118
X2.042 Y-21.011
X1.917 Y-20.929
X1.911 Y-20.926
X1.74 Y-20.892
X1.568 Y-20.919
X1.415 Y-21.003
X1.301 Y-21.134
X1.238 Y-21.296
X1.235 Y-21.47
X1.317 Y-21.984
G3 X1.572 Y-22.181 Z-0.05 I0.24 J0.047
G1 X1.631 Y-22.175 Z-0.025
X1.689 Y-22.164 Z0
G3 X2.135 Y-21.848 I-0.162 J0.702
X2.244 Y-21.398 Z-0.2 I-0.609 J0.385
G1 X2.191 Y-20.97
Y-20.931
X2.185 Y-20.781
X2.127 Y-20.643
X2.034 Y-20.525
X1.871 Y-20.439
X1.691 Y-20.418
X1.515 Y-20.463
X1.367 Y-20.567
X1.265 Y-20.718
X1.224 Y-20.895
X1.207 Y-21.294
X1.235 Y-21.47
G3 X1.485 Y-21.66 I0.232 J0.045
X2.191 Y-20.931 I-0.06 J0.765
G1 X2.193 Y-20.734
X2.223 Y-20.499
X2.235 Y-20.349
X2.189 Y-20.206
X2.106 Y-20.081
X2.09 Y-20.066
X1.931 Y-19.964
X1.745 Y-19.928
X1.559 Y-19.964
X1.4 Y-20.067
X1.29 Y-20.222
X1.246 Y-20.406
X1.224 Y-20.895
G3 X1.445 Y-21.128 I0.231 J-0.002
X2.223 Y-20.499 I0.033 J0.754
G1 X2.347 Y-19.556
X2.379 Y-19.321
X2.439 Y-19.085
X2.631 Y-18.614
X2.827 Y-18.143
X3.028 Y-17.671
X3.071 Y-17.596
X3.362 Y-17.2
X3.792 Y-16.641
G3 X3.724 Y-16.223 Z0 I-0.243 J0.175
G1 X3.703 Y-16.209
X3.49 Y-16.081
X1.746 Y-15.036
X1.641 Y-14.973
X1.596 Y-14.951
X1.547 Y-14.936
X1.497 Y-14.93
G3 X1.187 Y-15.22 Z-0.2 I-0.01 J-0.3
G1 Y-16.655
X1.205 Y-16.67
X1.269 Y-16.729
X1.378 Y-16.847
X1.466 Y-16.964
X1.539 Y-17.082
X1.597 Y-17.2
X1.654 Y-17.35
X1.695 Y-17.511
X1.718 Y-17.671
X1.721 Y-17.907
X1.686 Y-18.143
X1.275 Y-19.777
X1.273 Y-19.792
X1.246 Y-20.406
G3 X1.557 Y-20.708 I0.3 J-0.003
G1 X1.608 Y-20.693 Z-0.195
X1.657 Y-20.678 Z-0.181
X1.703 Y-20.664 Z-0.158
X1.737 Y-20.629 Z-0.121
X1.766 Y-20.6 Z-0.074
X1.787 Y-20.579 Z-0.02
X1.8 Y-20.566 Z0.038
X1.804 Y-20.561 Z0.1
G0 Z5
X2.541 Y2.359
Z2.3
G3 X4.869 Y2.82 Z2.204 I0.995 J1.083 F800
X3.727 Y4.897 Z2.107 I-1.331 J0.621
X2.094 Y3.183 Z2.011 I-0.189 J-1.455
X4.219 Y2.146 Z1.914 I1.442 J0.259
X4.565 Y4.482 Z1.818 I-0.682 J1.295
X2.236 Y4.107 Z1.721 I-1.027 J-1.04
X3.297 Y2.002 Z1.625 I1.301 J-0.664
X4.98 Y3.648 Z1.529 I0.239 J1.439
X2.905 Y4.754 Z1.432 I-1.442 J-0.206
X2.479 Y2.444 Z1.336 I0.632 J-1.311
X4.807 Y2.735 Z1.239 I1.057 J0.998
X3.827 Y4.864 Z1.143 I-1.269 J0.706
X2.096 Y3.288 Z1.046 I-0.289 J-1.421
X4.119 Y2.116 Z0.95 I1.44 J0.154
X4.624 Y4.396 Z0.854 I-0.582 J1.325
X2.301 Y4.189 Z0.757 I-1.086 J-0.954
X3.199 Y2.039 Z0.661 I1.236 J-0.746
X4.975 Y3.543 Z0.564 I0.337 J1.402
X3.006 Y4.78 Z0.468 I-1.437 J-0.102
X2.424 Y2.532 Z0.371 I0.531 J-1.337
X4.739 Y2.656 Z0.275 I1.113 J0.909
X3.922 Y4.823 Z0.179 I-1.202 J0.785
X2.105 Y3.391 Z0.082 I-0.384 J-1.381
X4.017 Y2.094 Z-0.014 I1.431 J0.051
X4.676 Y4.306 Z-0.111 I-0.48 J1.347
X2.371 Y4.265 Z-0.207 I-1.137 J-0.864
X3.106 Y2.083 Z-0.304 I1.166 J-0.822
X4.961 Y3.441 Z-0.4 I0.431 J1.358
X2.111 Y3.441 I-1.425 J0
X4.961 Y3.441 I1.425 J0
G1 X4.969 Y3.597
X5.163 Y4.112
X5.202 Y4.257
X5.215 Y4.406
X5.205 Y4.556
X5.175 Y4.703
X5.128 Y4.845
X5.064 Y4.981
X4.987 Y5.11
X4.892 Y5.237
X4.78 Y5.361
X4.65 Y5.477
X4.503 Y5.585
X4.435 Y5.625
X4.355 Y5.664
X4.269 Y5.687
X4.18 Y5.695
X3.071
X2.906 Y5.687
X2.724 Y5.659
X2.538 Y5.612
X2.351 Y5.544
X2.167 Y5.456
X1.987 Y5.346
X1.814 Y5.216
X1.652 Y5.067
X1.502 Y4.898
X1.367 Y4.713
X1.25 Y4.511
X1.232 Y4.473
X1.207 Y4.406
X1.192 Y4.336
X1.187 Y4.265
G3 X1.497 Y3.976 Z-0.2 I0.3 J0.01
G1 X1.555 Y3.983
X1.61 Y4.002
X1.661 Y4.031
X1.741 Y4.088
X3.234 Y5.151
G3 X3.36 Y5.385 I-0.174 J0.244
X3.071 Y5.695 Z-0.4 I-0.3 J0.01
G1 X1.654
X1.615
X1.582
X1.433 Y5.687
X1.306 Y5.622
X1.218 Y5.51
X1.187 Y5.37
G3 X1.289 Y5.101 Z-0.276 I0.449 J0.016
G1 X1.33 Y5.058 Z-0.25
X1.378 Y5.023 Z-0.225
X1.43 Y4.996 Z-0.2
G3 X1.923 Y5.418 I0.139 J0.336
X1.582 Y5.695 Z-0.4 I-0.353 J-0.086
G1 X1.202
X1.187 Y5.678
Y3.063
X1.195 Y2.907
X1.225 Y2.708
X1.276 Y2.507
X1.349 Y2.306
X1.443 Y2.109
X1.559 Y1.919
X1.696 Y1.737
X1.852 Y1.567
X2.028 Y1.411
X2.22 Y1.272
X2.427 Y1.151
X2.639 Y1.054
X2.782 Y1.013
X2.93 Y1.016
X3.071 Y1.062
X3.267 Y1.135
X3.463 Y1.178
X3.543 Y1.188
X4.016 Y1.195
X4.173 Y1.203
X4.355 Y1.23
X4.539 Y1.277
X4.725 Y1.344
X4.909 Y1.432
X5.088 Y1.541
X5.26 Y1.671
X5.422 Y1.82
X5.571 Y1.988
X5.833 Y2.349
X6.073 Y2.76
X6.226 Y3.095
X6.331 Y3.403
X6.4 Y3.697
X6.438 Y3.983
X6.447 Y4.264
X6.428 Y4.541
X6.382 Y4.815
X6.309 Y5.084
X6.208 Y5.346
X6.172 Y5.419
X6.061 Y5.565
X5.905 Y5.661
X5.725 Y5.695
X4.18
X4.113 Y5.685 Z-0.371
X4.05 Y5.66 Z-0.342
X3.994 Y5.622 Z-0.314
X3.792 Y5.447 Z-0.2
X3.586 Y5.268
X1.667 Y3.605
X1.46 Y3.426
X1.29 Y3.279 Z-0.295
X1.248 Y3.234 Z-0.321
X1.216 Y3.182 Z-0.348
X1.196 Y3.124 Z-0.374
X1.187 Y3.063 Z-0.4
Y1.649
X1.195 Y1.488
X1.217 Y1.339
X1.257 Y1.194
X1.313 Y1.046
X1.39 Y0.892
X1.483 Y0.745
X1.59 Y0.608
X1.7 Y0.492
X1.728 Y0.468
X1.872 Y0.382
X2.037 Y0.348
X2.203 Y0.37
X2.353 Y0.447
X2.469 Y0.569
G3 X2.449 Y0.914 Z-0.243 I-0.255 J0.158
G1 X2.385 Y0.994 Z-0.2
X2.214 Y1.208
X1.731 Y1.814
X1.721 Y1.826
G3 X1.497 Y1.939 I-0.235 J-0.187
X1.187 Y1.649 Z-0.4 I-0.01 J-0.3
G1 Y0.51
X1.195 Y0.36
X1.233 Y0.215
X1.297 Y0.079
X1.383 Y-0.044
X1.421 Y-0.082
X1.561 Y-0.181
X1.727 Y-0.228
X1.898 Y-0.215
X2.056 Y-0.145
X2.18 Y-0.026
X2.256 Y0.128
G3 X2.264 Y0.595 Z-0.2 I-0.968 J0.249
G1 X2.256 Y0.626
G3 X1.393 Y0.917 I-0.526 J-0.135
X1.187 Y0.51 Z-0.4 I0.337 J-0.426
G1 Y-0.14
X1.195 Y-0.29
X1.238 Y-0.433
X1.317 Y-0.561
X1.333 Y-0.578
X1.468 Y-0.677
X1.628 Y-0.727
X1.796 Y-0.72
X1.951 Y-0.658
X2.078 Y-0.547
X2.16 Y-0.401
X2.189 Y-0.236
X2.218 Y0
X2.256 Y0.128
G3 X2.102 Y0.441 Z-0.239 I-0.259 J0.067
G1 X2.016 Y0.471 Z-0.2
G3 X1.364 Y0.286 I-0.172 J-0.634
X1.187 Y-0.14 Z-0.4 I0.48 J-0.449
G1 Y-0.664
X1.195 Y-0.814
X1.245 Y-0.955
X1.331 Y-1.078
X1.356 Y-1.101
X1.52 Y-1.197
X1.707 Y-1.226
X1.892 Y-1.182
X2.048 Y-1.072
X2.151 Y-0.913
X2.187 Y-0.726
X2.189 Y-0.236
G3 X1.975 Y0.001 Z-0.253 I-0.247 J-0.008
G1 X1.913 Y0.007 Z-0.226
X1.851 Z-0.2
G3 X1.356 Y-0.234 I0.031 J-0.695
X1.187 Y-0.664 Z-0.4 I0.527 J-0.454
G1 Y-1.178
X1.195 Y-1.328
X1.249 Y-1.468
X1.34 Y-1.587
X1.362 Y-1.606
X1.526 Y-1.699
X1.713 Y-1.725
X1.896 Y-1.68
X2.05 Y-1.57
X2.151 Y-1.411
X2.187 Y-1.226
Y-0.726
G3 X1.961 Y-0.489 Z-0.248 I-0.246 J-0.009
G1 X1.905 Y-0.487 Z-0.224
X1.848 Y-0.489 Z-0.2
G3 X1.352 Y-0.746 I0.055 J-0.714
X1.187 Y-1.178 Z-0.4 I0.551 J-0.457
G1 Y-1.692
X1.195 Y-1.842
X1.253 Y-1.98
X1.347 Y-2.098
X1.369 Y-2.116
X1.534 Y-2.206
X1.719 Y-2.229
X1.901 Y-2.182
X2.052 Y-2.072
X2.152 Y-1.914
X2.187 Y-1.73
Y-1.226
G3 X1.953 Y-0.989 Z-0.245 I-0.246 J-0.009
G1 X1.848 Y-0.991 Z-0.2
G3 X1.349 Y-1.259 I0.069 J-0.727
X1.187 Y-1.692 Z-0.4 I0.568 J-0.459
G1 Y-2.199
X1.195 Y-2.349
X1.254 Y-2.487
X1.348 Y-2.604
X1.37 Y-2.622
X1.535 Y-2.712
X1.72 Y-2.734
X1.901 Y-2.687
X2.052 Y-2.577
X2.152 Y-2.419
X2.187 Y-2.235
Y-1.73
G3 X1.952 Y-1.493 Z-0.244 I-0.246 J-0.009
G1 X1.848 Y-1.496 Z-0.2
G3 X1.349 Y-1.765 I0.071 J-0.729
X1.187 Y-2.199 Z-0.4 I0.57 J-0.459
G1 Y-2.706
X1.195 Y-2.856
X1.254 Y-2.994
X1.348 Y-3.11
X1.371 Y-3.129
X1.536 Y-3.218
X1.721 Y-3.24
X1.902 Y-3.193
X2.052 Y-3.083
X2.152 Y-2.925
X2.187 Y-2.741
Y-2.235
G3 X1.951 Y-1.998 Z-0.244 I-0.246 J-0.009
G1 X1.848 Y-2.001 Z-0.2
G3 X1.348 Y-2.272 I0.073 J-0.731
X1.187 Y-2.706 Z-0.4 I0.573 J-0.46
G1 Y-3.206
X1.195 Y-3.355
X1.252 Y-3.494
X1.346 Y-3.611
X1.368 Y-3.63
X1.532 Y-3.72
X1.718 Y-3.744
X1.9 Y-3.697
X2.052 Y-3.587
X2.152 Y-3.429
X2.187 Y-3.245
Y-2.741
G3 X1.955 Y-2.504 Z-0.245 I-0.246 J-0.009
G1 X1.848 Y-2.506 Z-0.2
G3 X1.349 Y-2.772 I0.066 J-0.725
X1.187 Y-3.206 Z-0.4 I0.565 J-0.459
G1 Y-3.707
X1.195 Y-3.857
X1.252 Y-3.995
X1.345 Y-4.113
X1.367 Y-4.132
X1.531 Y-4.223
X1.717 Y-4.247
X1.899 Y-4.201
X2.051 Y-4.09
X2.152 Y-3.932
X2.187 Y-3.748
Y-3.245
G3 X1.956 Y-3.008 Z-0.246 I-0.246 J-0.009
G1 X1.848 Y-3.009 Z-0.2
G3 X1.35 Y-3.274 I0.064 J-0.723
X1.187 Y-3.707 Z-0.4 I0.562 J-0.459
G1 Y-4.203
X1.195 Y-4.353
X1.25 Y-4.492
X1.341 Y-4.611
X1.364 Y-4.63
X1.528 Y-4.722
X1.714 Y-4.748
X1.897 Y-4.702
X2.05 Y-4.592
X2.152 Y-4.433
X2.187 Y-4.248
Y-3.748
G3 X1.96 Y-3.511 Z-0.247 I-0.246 J-0.009
G1 X1.904 Y-3.509 Z-0.224
X1.848 Y-3.511 Z-0.2
G3 X1.351 Y-3.77 I0.057 J-0.717
X1.187 Y-4.203 Z-0.4 I0.554 J-0.458
G1 Y-4.72
X1.195 Y-4.869
X1.254 Y-5.007
X1.349 Y-5.124
X1.372 Y-5.142
X1.536 Y-5.231
X1.721 Y-5.253
X1.902 Y-5.206
X2.052 Y-5.096
X2.152 Y-4.938
X2.187 Y-4.754
Y-4.248
G3 X1.951 Y-4.011 Z-0.244 I-0.246 J-0.009
G1 X1.848 Y-4.014 Z-0.2
G3 X1.348 Y-4.286 I0.073 J-0.731
X1.187 Y-4.72 Z-0.4 I0.573 J-0.46
G1 Y-5.207
X1.195 Y-5.357
X1.249 Y-5.497
X1.34 Y-5.616
X1.363 Y-5.635
X1.527 Y-5.728
X1.713 Y-5.754
X1.897 Y-5.708
X2.05 Y-5.598
X2.151 Y-5.44
X2.187 Y-5.254
Y-4.754
G3 X1.961 Y-4.518 Z-0.248 I-0.246 J-0.009
G1 X1.904 Y-4.515 Z-0.224
X1.848 Y-4.517 Z-0.2
G3 X1.351 Y-4.775 I0.055 J-0.715
X1.187 Y-5.207 Z-0.4 I0.552 J-0.457
G1 Y-5.714
X1.195 Y-5.863
X1.251 Y-6.002
X1.343 Y-6.121
X1.366 Y-6.139
X1.53 Y-6.231
X1.716 Y-6.256
X1.898 Y-6.21
X2.051 Y-6.1
X2.152 Y-5.941
X2.187 Y-5.756
Y-5.254
G3 X1.957 Y-5.017 Z-0.246 I-0.246 J-0.009
G1 X1.903 Y-5.016 Z-0.223
X1.848 Y-5.018 Z-0.2
G3 X1.35 Y-5.281 I0.062 J-0.72
X1.187 Y-5.714 Z-0.4 I0.559 J-0.458
G1 Y-6.214
X1.195 Y-6.364
X1.251 Y-6.503
X1.342 Y-6.621
X1.365 Y-6.64
X1.529 Y-6.732
X1.715 Y-6.757
X1.898 Y-6.711
X2.05 Y-6.601
X2.152 Y-6.443
X2.187 Y-6.258
Y-5.756
G3 X1.958 Y-5.519 Z-0.247 I-0.246 J-0.009
G1 X1.903 Y-5.518 Z-0.223
X1.848 Y-5.52 Z-0.2
G3 X1.351 Y-5.781 I0.06 J-0.719
X1.187 Y-6.214 Z-0.4 I0.557 J-0.458
G1 Y-6.73
X1.195 Y-6.88
X1.254 Y-7.017
X1.349 Y-7.134
X1.372 Y-7.152
X1.536 Y-7.241
X1.722 Y-7.263
X1.902 Y-7.216
X2.053 Y-7.105
X2.152 Y-6.947
X2.187 Y-6.764
Y-6.258
G3 X1.951 Y-6.021 Z-0.244 I-0.246 J-0.009
G1 X1.848 Y-6.024 Z-0.2
G3 X1.348 Y-6.296 I0.074 J-0.732
X1.187 Y-6.73 Z-0.4 I0.574 J-0.46
G1 Y-7.209
X1.195 Y-7.359
X1.247 Y-7.499
X1.337 Y-7.619
X1.359 Y-7.639
X1.522 Y-7.734
X1.71 Y-7.761
X1.894 Y-7.717
X2.049 Y-7.607
X2.151 Y-7.448
X2.187 Y-7.262
Y-6.764
G3 X1.965 Y-6.528 Z-0.25 I-0.246 J-0.009
G1 X1.907 Y-6.524 Z-0.225
X1.848 Y-6.526 Z-0.2
G3 X1.353 Y-6.777 I0.048 J-0.708
X1.187 Y-7.209 Z-0.4 I0.543 J-0.456
G1 Y-7.709
X1.195 Y-7.859
X1.248 Y-7.999
X1.338 Y-8.119
X1.36 Y-8.138
X1.524 Y-8.232
X1.711 Y-8.259
X1.895 Y-8.215
X2.049 Y-8.105
X2.151 Y-7.946
X2.187 Y-7.76
Y-7.262
G3 X1.964 Y-7.025 Z-0.249 I-0.246 J-0.009
G1 X1.906 Y-7.022 Z-0.224
X1.848 Y-7.024 Z-0.2
G3 X1.352 Y-7.277 I0.05 J-0.71
X1.187 Y-7.709 Z-0.4 I0.546 J-0.457
G1 Y-8.204
X1.195 Y-8.353
X1.247 Y-8.494
X1.336 Y-8.614
X1.358 Y-8.633
X1.522 Y-8.729
X1.709 Y-8.756
X1.894 Y-8.712
X2.048 Y-8.603
X2.151 Y-8.443
X2.187 Y-8.257
Y-7.76
G3 X1.965 Y-7.523 Z-0.25 I-0.246 J-0.009
G1 X1.907 Y-7.52 Z-0.225
X1.848 Y-7.521 Z-0.2
G3 X1.353 Y-7.772 I0.047 J-0.707
X1.187 Y-8.204 Z-0.4 I0.542 J-0.456
G1 Y-8.718
X1.195 Y-8.868
X1.251 Y-9.006
X1.344 Y-9.124
X1.366 Y-9.143
X1.531 Y-9.234
X1.717 Y-9.259
X1.899 Y-9.213
X2.051 Y-9.102
X2.152 Y-8.944
X2.187 Y-8.76
Y-8.257
G3 X1.956 Y-8.02 Z-0.246 I-0.246 J-0.009
G1 X1.902 Y-8.019 Z-0.223
X1.848 Y-8.021 Z-0.2
G3 X1.35 Y-8.285 I0.063 J-0.722
X1.187 Y-8.718 Z-0.4 I0.561 J-0.458
G1 Y-9.232
X1.195 Y-9.382
X1.255 Y-9.519
X1.349 Y-9.636
X1.372 Y-9.655
X1.537 Y-9.743
X1.722 Y-9.765
X1.902 Y-9.717
X2.053 Y-9.607
X2.152 Y-9.449
X2.187 Y-9.266
Y-8.76
G3 X1.95 Y-8.522 Z-0.243 I-0.246 J-0.009
G1 X1.848 Y-8.526 Z-0.2
G3 X1.348 Y-8.798 I0.075 J-0.732
X1.187 Y-9.232 Z-0.4 I0.575 J-0.46
G1 Y-9.703
X1.195 Y-9.853
X1.245 Y-9.994
X1.333 Y-10.116
X1.355 Y-10.135
X1.519 Y-10.232
X1.707 Y-10.261
X1.892 Y-10.218
X2.048 Y-10.108
X2.151 Y-9.948
X2.187 Y-9.762
Y-9.266
G3 X1.969 Y-9.03 Z-0.251 I-0.246 J-0.009
G1 X1.909 Y-9.026 Z-0.226
X1.848 Y-9.027 Z-0.2
G3 X1.354 Y-9.273 I0.041 J-0.701
X1.187 Y-9.703 Z-0.4 I0.535 J-0.455
G1 Y-10.21
X1.195 Y-10.36
X1.248 Y-10.5
X1.338 Y-10.62
X1.361 Y-10.639
X1.525 Y-10.734
X1.713 Y-10.76
X1.897 Y-10.715
X2.051 Y-10.604
X2.153 Y-10.444
X2.188 Y-10.258
X2.187 Y-9.836
Y-9.762
G3 X1.963 Y-9.525 Z-0.249 I-0.246 J-0.009
G1 X1.906 Y-9.522 Z-0.224
X1.848 Y-9.524 Z-0.2
G3 X1.352 Y-9.778 I0.051 J-0.711
X1.187 Y-10.21 Z-0.4 I0.547 J-0.457
G1 Y-10.717
X1.195 Y-10.867
X1.25 Y-11.006
X1.342 Y-11.125
X1.457 Y-11.222
X1.589 Y-11.292
X1.607 Y-11.298
X1.784 Y-11.321
X1.959 Y-11.281
X2.108 Y-11.181
X2.212 Y-11.035
X2.258 Y-10.862
X2.24 Y-10.683
X2.195 Y-10.569 Z-0.348
X2.136 Y-10.461 Z-0.295
X2.091 Y-10.401 Z-0.264
X2.038 Y-10.347 Z-0.232
X1.979 Y-10.303 Z-0.2
G3 X1.402 Y-10.317 I-0.278 J-0.433
X1.187 Y-10.717 Z-0.4 I0.299 J-0.418
G1 Y-11.271
X1.195 Y-11.421
X1.249 Y-11.561
X1.335 Y-11.683
X1.445 Y-11.785
X1.573 Y-11.864
X1.713 Y-11.918
X1.86 Y-11.95
X2.009 Y-11.956
X2.159 Y-11.94
X2.173 Y-11.937
X2.345 Y-11.856
X2.475 Y-11.716
X2.543 Y-11.539
X2.54 Y-11.348
X2.466 Y-11.173
X2.423 Y-11.126
X2.371 Y-11.088
X2.313 Y-11.063
X2.25 Y-11.05
X1.81 Y-11.01
X1.514 Y-10.983
G3 X1.187 Y-11.271 I-0.027 J-0.299
G1 Y-11.869
X1.195 Y-12.018
X1.243 Y-12.16
X1.319 Y-12.29
X1.415 Y-12.404
X1.529 Y-12.503
X1.656 Y-12.583
X1.793 Y-12.644
X1.937 Y-12.686
X2.085 Y-12.707
X2.235 Y-12.709
X2.384 Y-12.693
X2.53 Y-12.657
X2.67 Y-12.603
X2.803 Y-12.533
X2.926 Y-12.448
X2.993 Y-12.387
X3.107 Y-12.237
X3.157 Y-12.055
X3.137 Y-11.867
X3.048 Y-11.701
X2.903 Y-11.579
X2.857 Y-11.56 Z-0.379
X2.808 Y-11.549 Z-0.357
X2.758 Y-11.546 Z-0.336
X2.438 Y-11.554 Z-0.2
X2.164 Y-11.561
X1.771 Y-11.572
X1.497 Y-11.579
X1.479 Z-0.208
G3 X1.187 Y-11.869 Z-0.4 I0.008 J-0.3
G1 Y-12.566
X1.195 Y-12.716
X1.238 Y-12.86
X1.305 Y-12.993
X1.393 Y-13.115
X1.497 Y-13.223
X1.614 Y-13.317
X1.741 Y-13.397
X1.876 Y-13.462
X2.017 Y-13.513
X2.171 Y-13.551
X2.334 Y-13.575
X2.499 Y-13.582
X2.665 Y-13.573
X2.827 Y-13.548
X2.998 Y-13.504
X3.15 Y-13.449
X3.285 Y-13.383
X3.425 Y-13.297
X3.554 Y-13.199
X3.663 Y-13.097
X3.763 Y-12.985
X3.857 Y-12.853
X3.932 Y-12.722
X3.993 Y-12.585
X4.04 Y-12.442
X4.048 Y-12.406
X4.055 Y-12.23
X4 Y-12.062
X3.891 Y-11.924
X3.74 Y-11.832
X3.567 Y-11.799
X3.506 Y-11.806 Z-0.374
X3.107 Y-11.898 Z-0.2
X2.84 Y-11.959
X1.762 Y-12.206
X1.496 Y-12.267
X1.42 Y-12.284 Z-0.233
G3 X1.187 Y-12.566 Z-0.4 I0.067 J-0.292
G1 Y-13.335
X1.195 Y-13.485
X1.231 Y-13.63
X1.29 Y-13.768
X1.367 Y-13.896
X1.46 Y-14.014
X1.565 Y-14.121
X1.684 Y-14.218
X1.822 Y-14.31
X1.973 Y-14.391
X2.142 Y-14.46
X2.329 Y-14.515
X2.527 Y-14.554
X2.733 Y-14.573
X2.948 Y-14.571
X3.17 Y-14.547
X3.394 Y-14.5
X3.618 Y-14.429
X3.838 Y-14.335
X4.052 Y-14.217
X4.255 Y-14.077
X4.444 Y-13.917
X4.608 Y-13.747
X4.743 Y-13.577
X4.864 Y-13.388
X4.952 Y-13.215
X5.021 Y-13.037
X5.074 Y-12.85
X5.104 Y-12.677
X5.116 Y-12.507
X5.112 Y-12.326
X5.101 Y-12.243
X5.047 Y-12.071
X4.936 Y-11.93
X4.782 Y-11.837
X4.605 Y-11.805
X4.016
X3.567 Y-11.799
X3.515 Y-11.804 Z-0.378
X3.466 Y-11.818 Z-0.356
X3.419 Y-11.841 Z-0.334
X3.148 Y-12.003 Z-0.2
X2.913 Y-12.143
X1.715 Y-12.859
X1.48 Y-13
X1.333 Y-13.088 Z-0.273
G3 X1.187 Y-13.335 Z-0.4 I0.154 J-0.258
G1 Y-14.225
X1.195 Y-14.375
X1.229 Y-14.521
X1.284 Y-14.66
X1.356 Y-14.792
X1.441 Y-14.915
X1.547 Y-15.037
X1.668 Y-15.152
X1.816 Y-15.267
X1.982 Y-15.371
X2.169 Y-15.464
X2.383 Y-15.545
X2.614 Y-15.607
X2.86 Y-15.648
X3.128 Y-15.665
X3.413 Y-15.655
X3.706 Y-15.616
X4.003 Y-15.545
X4.3 Y-15.442
X4.595 Y-15.307
X4.877 Y-15.141
X5.145 Y-14.945
X5.391 Y-14.726
X5.611 Y-14.486
X5.805 Y-14.226
X5.969 Y-13.954
X6.103 Y-13.672
X6.205 Y-13.39
X6.269 Y-13.135
X6.307 Y-12.876
X6.317 Y-12.658
X6.306 Y-12.442
X6.274 Y-12.236
X6.26 Y-12.181
X6.194 Y-12.031
X6.082 Y-11.91
X5.938 Y-11.832
X5.776 Y-11.805
X4.605
X4.55 Y-11.812 Z-0.376
X4.496 Y-11.83 Z-0.352
X4.447 Y-11.857 Z-0.328
X4.197 Y-12.027 Z-0.2
X3.971 Y-12.181
X1.701 Y-13.727
X1.475 Y-13.881
X1.318 Y-13.987 Z-0.28
G3 X1.187 Y-14.225 Z-0.4 I0.169 J-0.248
G1 Y-15.22
X1.195 Y-15.37
X1.23 Y-15.515
X1.283 Y-15.655
X1.352 Y-15.789
X1.441 Y-15.923
X1.551 Y-16.059
X1.682 Y-16.192
X1.844 Y-16.327
X2.024 Y-16.448
X2.24 Y-16.564
X2.482 Y-16.665
X2.745 Y-16.744
X3.043 Y-16.804
X3.368 Y-16.835
X3.398
X3.547 Y-16.812
X3.682 Y-16.745
X3.792 Y-16.641
X4.016 Y-16.352
X4.105 Y-16.258
X4.488 Y-15.951
X4.961 Y-15.588
X5.318 Y-15.315
X5.433 Y-15.241
X5.906 Y-15.031
X6.154 Y-14.928
X6.289 Y-14.864
X6.455 Y-14.759
X6.614 Y-14.635
X6.778 Y-14.478
X6.936 Y-14.294
X7.08 Y-14.088
X7.21 Y-13.856
X7.321 Y-13.6
X7.41 Y-13.327
X7.465 Y-13.071
X7.494 Y-12.82
X7.497 Y-12.594
X7.479 Y-12.389
X7.44 Y-12.18
X7.436 Y-12.165
X7.367 Y-12.021
X7.256 Y-11.905
X7.114 Y-11.831
X6.956 Y-11.805
X5.776
G3 X5.487 Y-12.115 Z-0.2 I0.01 J-0.3
G1 X5.488 Y-12.136
X5.514 Y-12.387
X5.73 Y-14.482
X5.75 Y-14.678
X5.757 Y-14.716
X5.768 Y-14.752
G3 X6.154 Y-14.928 Z-0.4 I0.281 J0.105
G1 X6.851 Y-14.64
X7.087 Y-14.57
X7.217 Y-14.55
X7.364 Y-14.521
X7.504 Y-14.468
X7.638 Y-14.4
X7.77 Y-14.313
X7.9 Y-14.208
X8.035 Y-14.074
X8.159 Y-13.923
X8.279 Y-13.745
X8.387 Y-13.544
X8.478 Y-13.325
X8.546 Y-13.098
X8.588 Y-12.888
X8.609 Y-12.67
X8.608 Y-12.478
X8.588 Y-12.284
X8.571 Y-12.205
X8.509 Y-12.046
X8.398 Y-11.918
X8.249 Y-11.834
X8.082 Y-11.805
X6.956
G3 X6.667 Y-12.115 Z-0.2 I0.01 J-0.3
G1 X6.668 Y-12.135
X6.693 Y-12.388
X6.857 Y-14.014
X6.884 Y-14.282
X6.885 Y-14.287
G3 X7.217 Y-14.55 Z-0.4 I0.298 J0.034
G1 X7.323 Y-14.534
X8.268 Y-14.41
X8.416 Y-14.384
X8.559 Y-14.339
X8.695 Y-14.277
X8.825 Y-14.201
X8.959 Y-14.103
X9.086 Y-13.988
X9.214 Y-13.847
X9.335 Y-13.684
X9.442 Y-13.505
X9.537 Y-13.305
X9.607 Y-13.108
X9.658 Y-12.901
X9.686 Y-12.703
X9.694 Y-12.523
X9.683 Y-12.332
X9.667 Y-12.228
X9.609 Y-12.061
X9.498 Y-11.925
X9.346 Y-11.836
X9.173 Y-11.805
X8.082
G3 X7.792 Y-12.115 Z-0.2 I0.01 J-0.3
G1 X7.793 Y-12.127
X7.812 Y-12.388
X7.922 Y-13.865
X7.942 Y-14.133
Y-14.138
G3 X8.268 Y-14.41 Z-0.4 I0.299 J0.027
G1 X8.566 Y-14.373
X8.74 Y-14.369
X8.808 Y-14.373
X9.086 Y-14.408
X9.235 Y-14.419
X9.384 Y-14.405
X9.53 Y-14.37
X9.671 Y-14.317
X9.805 Y-14.25
X9.942 Y-14.162
X10.076 Y-14.056
X10.212 Y-13.925
X10.34 Y-13.775
X10.456 Y-13.607
X10.562 Y-13.417
X10.647 Y-13.219
X10.71 Y-13.02
X10.753 Y-12.817
X10.773 Y-12.634
X10.775 Y-12.448
X10.758 Y-12.262
X10.749 Y-12.211
X10.688 Y-12.051
X10.576 Y-11.92
X10.427 Y-11.835
X10.258 Y-11.805
X9.173
G3 X8.883 Y-12.098 Z-0.207 I0.01 J-0.3
G1 Y-12.115 Z-0.2
X8.876 Y-12.389
X8.842 Y-13.79
X8.835 Y-14.064
X8.834 Y-14.104 Z-0.217
G3 X9.086 Y-14.408 Z-0.4 I0.3 J-0.007
G1 X9.685 Y-14.486
X10.062 Y-14.536
X10.211 Y-14.548
X10.361 Y-14.537
X10.508 Y-14.506
X10.65 Y-14.458
X10.791 Y-14.394
X10.939 Y-14.308
X11.082 Y-14.204
X11.227 Y-14.075
X11.367 Y-13.924
X11.495 Y-13.755
X11.61 Y-13.564
X11.712 Y-13.353
X11.787 Y-13.148
X11.84 Y-12.938
X11.871 Y-12.734
X11.88 Y-12.55
X11.871 Y-12.356
X11.852 Y-12.232
X11.796 Y-12.064
X11.684 Y-11.926
X11.532 Y-11.836
X11.358 Y-11.805
X10.258
G3 X9.969 Y-12.083 Z-0.214 I0.01 J-0.3
G1 X9.966 Y-12.115 Z-0.2
X9.946 Y-12.388
X9.834 Y-13.918
X9.814 Y-14.191
X9.812 Y-14.218 Z-0.212
G3 X10.062 Y-14.536 Z-0.4 I0.299 J-0.022
G1 X10.158 Y-14.548
X10.394 Y-14.596
X10.63 Y-14.683
X10.747 Y-14.732
X10.889 Y-14.782
X11.036 Y-14.81
X11.186 Y-14.815
X11.335 Y-14.801
X11.482 Y-14.77
X11.628 Y-14.723
X11.789 Y-14.653
X11.947 Y-14.565
X12.11 Y-14.452
X12.273 Y-14.313
X12.426 Y-14.153
X12.57 Y-13.97
X12.701 Y-13.764
X12.816 Y-13.536
X12.906 Y-13.3
X12.969 Y-13.074
X13.008 Y-12.842
X13.022 Y-12.64
X13.016 Y-12.438
X12.991 Y-12.241
X12.979 Y-12.192
X12.915 Y-12.038
X12.803 Y-11.914
X12.657 Y-11.833
X12.492 Y-11.805
X11.358
G3 X11.075 Y-12.043 Z-0.231 I0.01 J-0.3
G1 X11.06 Y-12.114 Z-0.2
X11.003 Y-12.382
X10.648 Y-14.065
X10.592 Y-14.333
X10.578 Y-14.397 Z-0.228
G3 X10.747 Y-14.732 Z-0.4 I0.294 J-0.062
G1 X11.646 Y-15.105
X11.788 Y-15.156
X11.935 Y-15.184
X12.085 Y-15.193
X12.234 Y-15.185
X12.39 Y-15.159
X12.553 Y-15.115
X12.725 Y-15.05
X12.908 Y-14.96
X13.086 Y-14.848
X13.271 Y-14.704
X13.452 Y-14.533
X13.62 Y-14.339
X13.776 Y-14.117
X13.914 Y-13.873
X14.03 Y-13.61
X14.121 Y-13.331
X14.177 Y-13.077
X14.207 Y-12.823
X14.211 Y-12.6
X14.194 Y-12.393
X14.156 Y-12.185
X14.148 Y-12.159
X14.077 Y-12.009
X13.96 Y-11.891
X13.811 Y-11.817
X13.646 Y-11.797
X13.465 Y-11.805
X12.492
G3 X12.213 Y-12.027 Z-0.238 I0.01 J-0.3
G1 X12.19 Y-12.113 Z-0.2
X12.119 Y-12.377
X11.566 Y-14.441
X11.495 Y-14.706
X11.482 Y-14.755 Z-0.222
G3 X11.646 Y-15.105 Z-0.4 I0.29 J-0.078
G1 X11.811 Y-15.174
X11.929 Y-15.234
X12.056 Y-15.315
X12.288 Y-15.492
X12.412 Y-15.577
X12.549 Y-15.638
X12.693 Y-15.678
X12.842 Y-15.7
X12.994 Y-15.706
X13.156 Y-15.696
X13.337 Y-15.667
X13.52 Y-15.618
X13.723 Y-15.542
X13.926 Y-15.442
X14.135 Y-15.312
X14.351 Y-15.145
X14.555 Y-14.952
X14.753 Y-14.725
X14.936 Y-14.466
X15.099 Y-14.18
X15.234 Y-13.875
X15.338 Y-13.559
X15.411 Y-13.233
X15.444 Y-12.956
X15.45 Y-12.683
X15.432 Y-12.454
X15.392 Y-12.236
X15.334 Y-12.032
X15.265 Y-11.857
X15.214 Y-11.757
X15.116 Y-11.625
X14.981 Y-11.533
X14.823 Y-11.489
X14.66 Y-11.498
X14.508 Y-11.559
X14.459 Y-11.599 Z-0.373
X14.42 Y-11.648 Z-0.347
X14.235 Y-11.94 Z-0.2
X14.088 Y-12.171
X12.392 Y-14.838
X12.245 Y-15.069
X12.225 Y-15.1 Z-0.215
G3 X12.288 Y-15.492 Z-0.4 I0.253 J-0.161
G1 X12.992 Y-16.032
X13.038 Y-16.07
X13.159 Y-16.159
X13.293 Y-16.226
X13.435 Y-16.275
X13.581 Y-16.308
X13.74 Y-16.327
X13.914 Y-16.33
X14.107 Y-16.314
X14.309 Y-16.278
X14.533 Y-16.213
X14.757 Y-16.124
X14.999 Y-15.999
X15.246 Y-15.838
X15.485 Y-15.646
X15.726 Y-15.409
X15.959 Y-15.13
X16.101 Y-14.921
X16.148 Y-14.834
X16.177 Y-14.739
X16.187 Y-14.641
Y-12.016
X16.18 Y-11.866
X16.157 Y-11.718
X16.12 Y-11.573
X16.068 Y-11.432
X16.001 Y-11.298
X15.92 Y-11.172
X15.826 Y-11.054
X15.772 Y-10.999
X15.623 Y-10.894
X15.447 Y-10.848
X15.266 Y-10.865
X15.102 Y-10.943
X14.975 Y-11.074
X14.947 Y-11.116
G3 X14.983 Y-11.48 Z-0.233 I0.254 J-0.159
G1 X15.035 Y-11.536 Z-0.2
X15.223 Y-11.736
X15.642 Y-12.183
X15.668 Y-12.211
X15.713 Y-12.25
X15.763 Y-12.279
X15.819 Y-12.298
X15.877 Y-12.306
G3 X16.187 Y-12.016 Z-0.4 I0.01 J0.3
G1 Y-10.996
X16.18 Y-10.846
X16.143 Y-10.7
X16.078 Y-10.565
X15.987 Y-10.445
X15.969 Y-10.428
X15.828 Y-10.333
X15.663 Y-10.291
X15.494 Y-10.307
X15.339 Y-10.378
X15.218 Y-10.497
X15.143 Y-10.65
G3 X15.129 Y-11.071 Z-0.22 I0.97 J-0.244
G1 X15.139 Y-11.117 Z-0.2
G3 X15.978 Y-11.401 I0.515 J0.14
X16.187 Y-10.996 Z-0.4 I-0.324 J0.424
G1 Y-10.344
X16.18 Y-10.194
X16.126 Y-10.054
X16.041 Y-9.931
X16.025 Y-9.917
X15.862 Y-9.816
X15.674 Y-9.784
X15.487 Y-9.825
X15.329 Y-9.934
X15.224 Y-10.094
X15.186 Y-10.281
X15.197 Y-10.4 Z-0.349
G3 X15.363 Y-10.702 Z-0.2 I0.492 J0.074
X15.967 Y-10.74 I0.327 J0.376
X16.187 Y-10.344 Z-0.4 I-0.277 J0.414
G1 Y-9.837
X16.18 Y-9.687
X16.127 Y-9.547
X16.037 Y-9.427
X16.015 Y-9.408
X15.851 Y-9.313
X15.664 Y-9.286
X15.48 Y-9.331
X15.325 Y-9.44
X15.223 Y-9.6
X15.187 Y-9.786
X15.186 Y-10.251
Y-10.281
G3 X15.409 Y-10.519 Z-0.249 I0.246 J0.007
G1 X15.466 Y-10.522 Z-0.224
X15.524 Y-10.521 Z-0.2
G3 X16.021 Y-10.269 I-0.046 J0.709
X16.187 Y-9.837 Z-0.4 I-0.544 J0.456
G1 Y-9.337
X16.18 Y-9.187
X16.126 Y-9.047
X16.036 Y-8.927
X16.014 Y-8.909
X15.85 Y-8.814
X15.663 Y-8.788
X15.479 Y-8.832
X15.325 Y-8.942
X15.223 Y-9.101
X15.187 Y-9.287
Y-9.786
G3 X15.411 Y-10.022 Z-0.249 I0.246 J0.009
G1 X15.469 Y-10.025 Z-0.224
X15.526 Y-10.023 Z-0.2
G3 X16.022 Y-9.769 I-0.051 J0.711
X16.187 Y-9.337 Z-0.4 I-0.547 J0.457
G1 Y-8.821
X16.18 Y-8.671
X16.121 Y-8.533
X16.028 Y-8.416
X16.005 Y-8.397
X15.841 Y-8.307
X15.655 Y-8.284
X15.474 Y-8.33
X15.322 Y-8.441
X15.222 Y-8.599
X15.187 Y-8.783
Y-9.287
G3 X15.42 Y-9.524 Z-0.245 I0.246 J0.009
G1 X15.526 Y-9.522 Z-0.2
G3 X16.025 Y-9.255 I-0.068 J0.726
X16.187 Y-8.821 Z-0.4 I-0.567 J0.459
G1 Y-8.342
X16.18 Y-8.192
X16.128 Y-8.051
X16.039 Y-7.93
X16.018 Y-7.911
X15.854 Y-7.815
X15.666 Y-7.787
X15.481 Y-7.831
X15.326 Y-7.94
X15.223 Y-8.1
X15.187 Y-8.286
Y-8.783
G3 X15.407 Y-9.019 Z-0.25 I0.246 J0.009
G1 X15.466 Y-9.023 Z-0.225
X15.526 Y-9.022 Z-0.2
G3 X16.021 Y-8.773 I-0.044 J0.704
X16.187 Y-8.342 Z-0.4 I-0.539 J0.456
G1 Y-7.818
X16.18 Y-7.668
X16.121 Y-7.531
X16.027 Y-7.413
X16.004 Y-7.395
X15.84 Y-7.305
X15.654 Y-7.282
X15.473 Y-7.329
X15.322 Y-7.44
X15.222 Y-7.598
X15.187 Y-7.781
Y-8.286
G3 X15.421 Y-8.524 Z-0.244 I0.246 J0.009
G1 X15.526 Y-8.521 Z-0.2
G3 X16.025 Y-8.252 I-0.07 J0.728
X16.187 Y-7.818 Z-0.4 I-0.57 J0.459
G1 Y-7.304
X16.18 Y-7.154
X16.118 Y-7.017
X16.023 Y-6.902
X16 Y-6.883
X15.835 Y-6.796
X15.65 Y-6.775
X15.471 Y-6.823
X15.321 Y-6.933
X15.222 Y-7.09
X15.187 Y-7.273
Y-7.781
G3 X15.426 Y-8.019 Z-0.243 I0.246 J0.009
G1 X15.526 Y-8.015 Z-0.2
G3 X16.027 Y-7.739 I-0.079 J0.736
X16.187 Y-7.304 Z-0.4 I-0.58 J0.46
G1 Y-6.833
X16.18 Y-6.683
X16.128 Y-6.542
X16.04 Y-6.421
X16.018 Y-6.402
X15.854 Y-6.306
X15.666 Y-6.277
X15.481 Y-6.321
X15.326 Y-6.431
X15.223 Y-6.59
X15.187 Y-6.777
Y-7.273
G3 X15.407 Y-7.51 Z-0.251 I0.246 J0.009
G1 X15.466 Y-7.513 Z-0.225
X15.526 Y-7.512 Z-0.2
G3 X16.02 Y-7.264 I-0.044 J0.704
X16.187 Y-6.833 Z-0.4 I-0.538 J0.456
G1 Y-6.319
X16.18 Y-6.169
X16.123 Y-6.03
X16.031 Y-5.911
X16.009 Y-5.893
X15.845 Y-5.801
X15.658 Y-5.776
X15.476 Y-5.822
X15.324 Y-5.932
X15.222 Y-6.09
X15.187 Y-6.275
Y-6.777
G3 X15.416 Y-7.014 Z-0.247 I0.246 J0.009
G1 X15.471 Y-7.016 Z-0.223
X15.526 Y-7.013 Z-0.2
G3 X16.024 Y-6.751 I-0.061 J0.72
X16.187 Y-6.319 Z-0.4 I-0.558 J0.458
G1 Y-5.812
X16.18 Y-5.662
X16.122 Y-5.524
X16.029 Y-5.406
X16.007 Y-5.387
X15.842 Y-5.297
X15.656 Y-5.273
X15.475 Y-5.319
X15.323 Y-5.429
X15.222 Y-5.588
X15.187 Y-5.772
Y-6.275
G3 X15.419 Y-6.512 Z-0.246 I0.246 J0.009
G1 X15.526 Y-6.511 Z-0.2
G3 X16.025 Y-6.245 I-0.065 J0.724
X16.187 Y-5.812 Z-0.4 I-0.564 J0.459
G1 Y-5.305
X16.18 Y-5.155
X16.121 Y-5.017
X16.027 Y-4.9
X16.005 Y-4.881
X15.84 Y-4.791
X15.655 Y-4.768
X15.474 Y-4.815
X15.322 Y-4.925
X15.222 Y-5.083
X15.187 Y-5.267
Y-5.772
G3 X15.421 Y-6.009 Z-0.245 I0.246 J0.009
G1 X15.526 Y-6.007 Z-0.2
G3 X16.025 Y-5.739 I-0.069 J0.727
X16.187 Y-5.305 Z-0.4 I-0.568 J0.459
G1 Y-4.805
X16.18 Y-4.656
X16.122 Y-4.517
X16.03 Y-4.399
X16.007 Y-4.38
X15.843 Y-4.289
X15.657 Y-4.265
X15.475 Y-4.312
X15.323 Y-4.422
X15.222 Y-4.58
X15.187 Y-4.764
Y-5.267
G3 X15.418 Y-5.504 Z-0.246 I0.246 J0.009
G1 X15.472 Y-5.506 Z-0.223
X15.526 Y-5.503 Z-0.2
G3 X16.024 Y-5.239 I-0.064 J0.723
X16.187 Y-4.805 Z-0.4 I-0.562 J0.459
G1 Y-4.304
X16.18 Y-4.154
X16.123 Y-4.015
X16.03 Y-3.897
X16.008 Y-3.879
X15.844 Y-3.787
X15.658 Y-3.763
X15.475 Y-3.809
X15.323 Y-3.919
X15.222 Y-4.078
X15.187 Y-4.262
Y-4.764
G3 X15.417 Y-5.001 Z-0.246 I0.246 J0.009
G1 X15.472 Y-5.003 Z-0.223
X15.526 Y-5 Z-0.2
G3 X16.024 Y-4.737 I-0.063 J0.721
X16.187 Y-4.304 Z-0.4 I-0.561 J0.458
G1 Y-3.808
X16.18 Y-3.658
X16.125 Y-3.519
X16.033 Y-3.4
X16.011 Y-3.381
X15.847 Y-3.288
X15.66 Y-3.263
X15.477 Y-3.308
X15.324 Y-3.418
X15.223 Y-3.577
X15.187 Y-3.762
Y-4.262
G3 X15.414 Y-4.499 Z-0.248 I0.246 J0.009
G1 X15.47 Y-4.501 Z-0.224
X15.526 Y-4.499 Z-0.2
G3 X16.023 Y-4.241 I-0.056 J0.716
X16.187 Y-3.808 Z-0.4 I-0.553 J0.458
G1 Y-3.291
X16.18 Y-3.142
X16.12 Y-3.004
X16.026 Y-2.887
X16.003 Y-2.869
X15.839 Y-2.78
X15.653 Y-2.757
X15.473 Y-2.804
X15.322 Y-2.915
X15.222 Y-3.073
X15.187 Y-3.256
Y-3.762
G3 X15.423 Y-3.999 Z-0.244 I0.246 J0.009
G1 X15.526 Y-3.996 Z-0.2
G3 X16.026 Y-3.725 I-0.072 J0.73
X16.187 Y-3.291 Z-0.4 I-0.572 J0.46
G1 Y-2.804
X16.18 Y-2.654
X16.125 Y-2.514
X16.034 Y-2.395
X16.012 Y-2.376
X15.848 Y-2.283
X15.661 Y-2.257
X15.478 Y-2.302
X15.324 Y-2.412
X15.223 Y-2.571
X15.187 Y-2.756
Y-3.256
G3 X15.413 Y-3.493 Z-0.248 I0.246 J0.009
G1 X15.47 Y-3.495 Z-0.224
X15.526 Y-3.493 Z-0.2
G3 X16.023 Y-3.236 I-0.055 J0.714
X16.187 Y-2.804 Z-0.4 I-0.551 J0.457
G1 Y-2.297
X16.18 Y-2.148
X16.123 Y-2.009
X16.031 Y-1.89
X16.009 Y-1.872
X15.845 Y-1.78
X15.658 Y-1.755
X15.476 Y-1.801
X15.323 Y-1.911
X15.222 Y-2.07
X15.187 Y-2.254
Y-2.756
G3 X15.417 Y-2.993 Z-0.246 I0.246 J0.009
G1 X15.471 Y-2.995 Z-0.223
X15.526 Y-2.992 Z-0.2
G3 X16.024 Y-2.73 I-0.061 J0.72
X16.187 Y-2.297 Z-0.4 I-0.559 J0.458
G1 Y-1.797
X16.18 Y-1.647
X16.124 Y-1.508
X16.032 Y-1.39
X16.01 Y-1.371
X15.845 Y-1.279
X15.659 Y-1.254
X15.476 Y-1.3
X15.324 Y-1.41
X15.223 Y-1.568
X15.187 Y-1.753
Y-2.254
G3 X15.416 Y-2.491 Z-0.247 I0.246 J0.009
G1 X15.471 Y-2.493 Z-0.223
X15.526 Y-2.491 Z-0.2
G3 X16.023 Y-2.23 I-0.059 J0.719
X16.187 Y-1.797 Z-0.4 I-0.557 J0.458
G1 Y-1.281
X16.18 Y-1.131
X16.12 Y-0.994
X16.025 Y-0.877
X16.002 Y-0.859
X15.838 Y-0.77
X15.653 Y-0.748
X15.472 Y-0.795
X15.322 Y-0.906
X15.222 Y-1.063
X15.187 Y-1.247
Y-1.753
G3 X15.423 Y-1.99 Z-0.244 I0.246 J0.009
G1 X15.526 Y-1.987 Z-0.2
G3 X16.026 Y-1.715 I-0.074 J0.732
X16.187 Y-1.281 Z-0.4 I-0.574 J0.46
G1 Y-0.802
X16.18 Y-0.652
X16.127 Y-0.512
X16.038 Y-0.392
X16.016 Y-0.372
X15.852 Y-0.277
X15.664 Y-0.25
X15.48 Y-0.294
X15.326 Y-0.404
X15.223 Y-0.563
X15.187 Y-0.749
Y-1.247
G3 X15.409 Y-1.483 Z-0.25 I0.246 J0.009
G1 X15.467 Y-1.487 Z-0.225
X15.526 Y-1.485 Z-0.2
G3 X16.021 Y-1.234 I-0.048 J0.708
X16.187 Y-0.802 Z-0.4 I-0.543 J0.456
G1 Y-0.302
X16.18 Y-0.152
X16.126 Y-0.012
X16.036 Y0.108
X16.013 Y0.128
X15.849 Y0.223
X15.661 Y0.25
X15.477 Y0.205
X15.323 Y0.094
X15.221 Y-0.065
X15.186 Y-0.252
X15.187 Y-0.749
G3 X15.411 Y-0.986 Z-0.249 I0.246 J0.009
G1 X15.468 Y-0.989 Z-0.225
X15.526 Y-0.987 Z-0.2
G3 X16.022 Y-0.734 I-0.05 J0.71
X16.187 Y-0.302 Z-0.4 I-0.546 J0.457
G1 Y0.193
X16.18 Y0.342
X16.128 Y0.483
X16.039 Y0.604
X15.926 Y0.703
X15.795 Y0.776
X15.743 Y0.793
X15.564 Y0.819
X15.387 Y0.78
X15.236 Y0.68
X15.131 Y0.533
X15.084 Y0.358
X15.103 Y0.178
G3 X15.246 Y-0.098 Z-0.267 I0.949 J0.316
G1 X15.298 Y-0.158 Z-0.234
X15.358 Y-0.21 Z-0.2
G3 X15.974 Y-0.21 I0.308 J0.42
X16.187 Y0.193 Z-0.4 I-0.308 J0.42
G1 Y0.75
X16.18 Y0.9
X16.13 Y1.041
X16.048 Y1.167
X15.942 Y1.273
X15.817 Y1.357
X15.68 Y1.416
X15.534 Y1.454
X15.385 Y1.467
X15.235 Y1.457
X15.088 Y1.427
X15.07 Y1.421
X14.907 Y1.322
X14.792 Y1.17
X14.743 Y0.987
X14.766 Y0.798
X14.858 Y0.631
X14.899 Y0.593 Z-0.376
X14.947 Y0.563 Z-0.352
X15 Y0.542 Z-0.328
X15.055 Y0.532 Z-0.304
X15.299 Y0.511 Z-0.2
X15.572 Y0.487
X15.604 Y0.484
X15.861 Y0.462
X15.877 Y0.461
G3 X16.187 Y0.75 Z-0.4 I0.01 J0.3
G1 Y1.375
X16.18 Y1.525
X16.131 Y1.667
X16.056 Y1.797
X15.96 Y1.912
X15.848 Y2.012
X15.724 Y2.095
X15.589 Y2.161
X15.446 Y2.207
X15.299 Y2.236
X15.149 Y2.246
X14.999 Y2.237
X14.852 Y2.21
X14.708 Y2.166
X14.572 Y2.104
X14.443 Y2.027
X14.323 Y1.937
X14.216 Y1.832
X14.188 Y1.798
X14.1 Y1.637
X14.077 Y1.456
X14.119 Y1.279
X14.223 Y1.128
X14.374 Y1.025
X14.437 Y1.008 Z-0.372
X14.503 Y1.004 Z-0.344
X14.841 Y1.024 Z-0.2
X15.115 Y1.04
X15.604 Y1.069
X15.877 Y1.085
X15.905 Y1.086 Z-0.212
G3 X16.187 Y1.375 Z-0.4 I-0.018 J0.299
G1 Y2.078
X16.18 Y2.227
X16.139 Y2.372
X16.074 Y2.507
X15.989 Y2.631
X15.888 Y2.741
X15.774 Y2.839
X15.649 Y2.922
X15.516 Y2.992
X15.376 Y3.048
X15.225 Y3.091
X15.059 Y3.121
X14.887 Y3.135
X14.711 Y3.132
X14.525 Y3.11
X14.35 Y3.072
X14.188 Y3.019
X14.019 Y2.944
X13.871 Y2.861
X13.742 Y2.77
X13.613 Y2.659
X13.499 Y2.539
X13.406 Y2.418
X13.324 Y2.288
X13.251 Y2.141
X13.197 Y1.999
X13.158 Y1.854
X13.145 Y1.768
X13.147 Y1.599
X13.204 Y1.441
X13.311 Y1.311
X13.455 Y1.224
X13.62 Y1.189
X13.708 Y1.186
X13.709
X13.749 Y1.188 Z-0.382
X13.789 Y1.197 Z-0.365
X14.164 Y1.3 Z-0.2
X14.427 Y1.373
X15.616 Y1.702
X15.879 Y1.775
X15.967 Y1.799 Z-0.239
G3 X16.187 Y2.078 Z-0.4 I-0.08 J0.289
G1 Y2.851
X16.18 Y3.001
X16.148 Y3.147
X16.093 Y3.287
X16.019 Y3.418
X15.93 Y3.538
X15.827 Y3.648
X15.711 Y3.749
X15.573 Y3.846
X15.422 Y3.933
X15.251 Y4.009
X15.062 Y4.071
X14.859 Y4.116
X14.645 Y4.142
X14.421 Y4.147
X14.191 Y4.129
X13.954 Y4.087
X13.718 Y4.019
X13.486 Y3.928
X13.262 Y3.813
X13.047 Y3.674
X12.846 Y3.513
X12.66 Y3.331
X12.497 Y3.137
X12.365 Y2.945
X12.252 Y2.737
X12.172 Y2.549
X12.112 Y2.356
X12.072 Y2.161
X12.054 Y1.985
X12.053 Y1.8
X12.07 Y1.622
X12.075 Y1.598
X12.136 Y1.438
X12.248 Y1.309
X12.397 Y1.224
X12.565 Y1.195
X13.465
X13.62 Y1.189
X13.675 Y1.194 Z-0.377
X13.727 Y1.209 Z-0.353
X13.776 Y1.232 Z-0.33
X14.038 Y1.391 Z-0.2
X14.272 Y1.533
X15.66 Y2.373
X15.894 Y2.515
X16.043 Y2.605 Z-0.274
G3 X16.187 Y2.851 Z-0.4 I-0.155 J0.257
G1 Y3.793
X16.18 Y3.943
X16.143 Y4.089
X16.087 Y4.228
X16.014 Y4.359
X15.928 Y4.482
X15.819 Y4.608
X15.694 Y4.727
X15.544 Y4.843
X15.369 Y4.953
X15.178 Y5.048
X14.958 Y5.131
X14.715 Y5.196
X14.459 Y5.238
X14.184 Y5.256
X13.89 Y5.245
X13.583 Y5.204
X13.272 Y5.13
X12.962 Y5.022
X12.656 Y4.881
X12.358 Y4.705
X12.076 Y4.499
X11.814 Y4.265
X11.58 Y4.009
X11.375 Y3.735
X11.201 Y3.447
X11.06 Y3.151
X10.952 Y2.847
X10.883 Y2.571
X10.844 Y2.308
X10.833 Y2.069
X10.844 Y1.859
X10.877 Y1.641
X10.896 Y1.57
X10.962 Y1.42
X11.073 Y1.3
X11.218 Y1.222
X11.38 Y1.195
X12.565
X12.622 Y1.202 Z-0.376
X12.676 Y1.22 Z-0.352
X12.726 Y1.248 Z-0.327
X12.972 Y1.419 Z-0.2
X13.197 Y1.575
X15.675 Y3.292
X15.9 Y3.448
X16.058 Y3.557 Z-0.282
G3 X16.187 Y3.793 Z-0.4 I-0.171 J0.247
G1 Y4.736
X16.18 Y4.886
X16.152 Y5.033
X16.106 Y5.176
X16.043 Y5.312
X15.961 Y5.449
X15.929 Y5.493
X15.818 Y5.601
X15.68 Y5.671
X15.527 Y5.695
G3 X15.238 Y5.385 Z-0.2 I0.01 J-0.3
G1 X15.248 Y5.317
X15.273 Y5.253
X15.338 Y5.133
X15.623 Y4.604
G3 X15.877 Y4.447 I0.264 J0.142
X16.187 Y4.736 Z-0.4 I0.01 J0.3
G1 Y5.626
Y5.678
X16.176 Y5.695
X12.52
X12.37 Y5.687
X12.15 Y5.652
X11.919 Y5.591
X11.673 Y5.499
X11.408 Y5.369
X11.15 Y5.209
X10.886 Y5.006
X10.624 Y4.76
X10.376 Y4.475
X10.154 Y4.163
X9.962 Y3.826
X9.805 Y3.473
X9.687 Y3.117
X9.606 Y2.758
X9.567 Y2.44
X9.561 Y2.143
X9.58 Y1.898
X9.621 Y1.666
X9.651 Y1.559
X9.72 Y1.413
X9.831 Y1.296
X9.973 Y1.221
X10.133 Y1.195
X11.38
G3 X11.657 Y1.411 Z-0.241 I-0.01 J0.3
G1 X11.684 Y1.502 Z-0.2
X11.761 Y1.765
X12.742 Y5.12
X12.797 Y5.311
X12.806 Y5.348
X12.809 Y5.385
G3 X12.52 Y5.695 Z-0.4 I-0.3 J0.01
G1 X10.843
X10.693 Y5.687
X10.543 Y5.675
X10.396 Y5.647
X10.251 Y5.607
X10.11 Y5.556
X9.973 Y5.495
X9.841 Y5.424
X9.713 Y5.346
X9.59 Y5.26
X9.472 Y5.167
X9.359 Y5.069
X9.251 Y4.965
X9.149 Y4.855
X9.051 Y4.741
X8.958 Y4.624
X8.871 Y4.502
X8.788 Y4.376
X8.711 Y4.248
X8.638 Y4.116
X8.571 Y3.982
X8.509 Y3.846
X8.452 Y3.707
X8.4 Y3.566
X8.353 Y3.424
X8.312 Y3.28
X8.276 Y3.134
X8.245 Y2.987
X8.22 Y2.839
X8.2 Y2.691
X8.186 Y2.541
X8.178 Y2.392
Y2.242
X8.184 Y2.092
X8.197 Y1.942
X8.218 Y1.794
X8.248 Y1.647
X8.27 Y1.565
X8.338 Y1.417
X8.449 Y1.298
X8.593 Y1.221
X8.753 Y1.195
X10.133
G3 X10.417 Y1.441 Z-0.227 I-0.01 J0.3
G1 X10.429 Y1.504 Z-0.2
X10.478 Y1.773
X11.086 Y5.115
X11.127 Y5.341
X11.132 Y5.385
G3 X10.843 Y5.695 Z-0.4 I-0.3 J0.01
G1 X5.725
G3 X5.461 Y5.515 Z-0.257 I0.01 J-0.3
G1 X5.407 Y5.393 Z-0.2
X5.297 Y5.142
X3.816 Y1.762
X3.752 Y1.615
X3.734 Y1.561
X3.726 Y1.505
G3 X4.016 Y1.195 Z-0.4 I0.3 J-0.01
G1 X8.753
G0 Z5
X12.491 Y-15.14
Z0.2
G1 Z-0.1 F800
X12.493 Y-15.148 Z-0.167
X12.501 Y-15.168 Z-0.23
X12.513 Y-15.202 Z-0.287
X12.53 Y-15.247 Z-0.335
X12.549 Y-15.3 Z-0.37
X12.571 Y-15.36 Z-0.392
X12.594 Y-15.422 Z-0.4
G3 X13.038 Y-16.07 I1.486 J0.544
G1 X13.269 Y-16.258
X13.465 Y-16.487
X13.567 Y-16.62
X13.664 Y-16.734
X13.779 Y-16.83
X13.907 Y-16.909
X14.043 Y-16.972
X14.187 Y-17.02
X14.351 Y-17.057
X14.534 Y-17.079
X14.734 Y-17.084
X14.958 Y-17.067
X15.189 Y-17.026
X15.45 Y-16.953
X15.71 Y-16.851
X15.915 Y-16.747
X16.059 Y-16.636
X16.154 Y-16.481
X16.187 Y-16.302
Y-14.641
G3 X15.877 Y-14.351 Z-0.2 I-0.3 J-0.01
G1 X15.81 Y-14.361
X15.747 Y-14.386
X15.691 Y-14.424
X15.638 Y-14.47
X13.843 Y-16.022
X13.636 Y-16.201
X13.615 Y-16.219 Z-0.212
G3 X13.567 Y-16.62 Z-0.4 I0.196 J-0.227
G1 X14.012 Y-17.2
X14.144 Y-17.386
X14.237 Y-17.504
X14.347 Y-17.606
X14.469 Y-17.693
X14.6 Y-17.766
X14.746 Y-17.828
X14.919 Y-17.883
X15.106 Y-17.922
X15.137 Y-17.925
X15.324 Y-17.91
X15.492 Y-17.827
X15.617 Y-17.688
X15.683 Y-17.512
X15.696 Y-17.436
X15.777 Y-17.2
X15.827 Y-17.098
X15.944 Y-16.913
X16.105 Y-16.729
X16.169 Y-16.67
X16.187 Y-16.655
Y-16.302
G3 X15.877 Y-16.012 Z-0.2 I-0.3 J-0.01
G1 X15.826 Y-16.018
X15.777 Y-16.033
X15.731 Y-16.056
X15.629 Y-16.118
X14.463 Y-16.829
X14.239 Y-16.966
X14.23 Y-16.971
G3 X14.144 Y-17.386 Z-0.4 I0.165 J-0.251
G1 X14.346 Y-17.671
X14.41 Y-17.81
X14.52 Y-18.075
X14.584 Y-18.211
X14.675 Y-18.33
X14.786 Y-18.43
X14.914 Y-18.509
X15.053 Y-18.568
X15.248 Y-18.577
X15.431 Y-18.511
X15.576 Y-18.38
X15.659 Y-18.204
X15.669 Y-18.009
G3 X15.479 Y-17.583 Z-0.2 I-0.983 J-0.181
G1 X15.431 Y-17.525
G3 X14.555 Y-17.62 I-0.404 J-0.361
X14.52 Y-18.075 Z-0.4 I0.472 J-0.265
G1 X14.785 Y-18.716
X14.849 Y-18.851
X14.952 Y-18.961
X15.076 Y-19.045
X15.103 Y-19.056
X15.281 Y-19.09
X15.46 Y-19.059
X15.615 Y-18.965
X15.728 Y-18.823
X15.782 Y-18.649
X15.77 Y-18.468
X15.688 Y-18.143
X15.669 Y-18.009
G3 X15.384 Y-17.788 Z-0.233 I-0.266 J-0.049
G1 X15.308 Y-17.797 Z-0.2
G3 X14.778 Y-18.254 I0.122 J-0.677
X14.785 Y-18.716 Z-0.4 I0.652 J-0.221
G1 X14.882 Y-18.95
X14.935 Y-19.085
X14.953 Y-19.156
X14.998 Y-19.3
X15.089 Y-19.418
X15.098 Y-19.425
X15.255 Y-19.502
X15.428 Y-19.521
X15.597 Y-19.479
X15.741 Y-19.381
X15.843 Y-19.241
X15.891 Y-19.073
X15.878 Y-18.9
X15.77 Y-18.468
G3 X15.488 Y-18.304 I-0.227 J-0.066
X14.953 Y-19.156 I0.167 J-0.699
G1 X14.995 Y-19.321
X15.027 Y-19.556
X15.054 Y-19.704
X15.137 Y-19.829
X15.25 Y-19.928
X15.282 Y-19.945
X15.464 Y-20
X15.654 Y-19.983
X15.823 Y-19.896
X15.948 Y-19.751
X16.01 Y-19.571
X15.999 Y-19.381
X15.878 Y-18.9
G3 X15.602 Y-18.741 I-0.22 J-0.064
X15.027 Y-19.556 I0.187 J-0.742
G1 X15.089 Y-20.027
X15.116 Y-20.175
X15.193 Y-20.304
X15.3 Y-20.409
X15.428 Y-20.487
X15.439 Y-20.491
X15.599 Y-20.521
X15.761 Y-20.498
X15.906 Y-20.425
X16.02 Y-20.308
X16.091 Y-20.161
X16.11 Y-19.999
X16.101 Y-19.792
X16.099 Y-19.777
X15.999 Y-19.381
G3 X15.728 Y-19.207 I-0.234 J-0.068
X15.089 Y-20.027 I0.114 J-0.748
G1 X15.156 Y-20.538
X15.183 Y-20.686
X15.257 Y-20.816
X15.27 Y-20.83
X15.408 Y-20.932
X15.573 Y-20.981
X15.745 Y-20.971
X15.904 Y-20.903
X16.03 Y-20.786
X16.108 Y-20.633
X16.131 Y-20.462
X16.11 Y-19.999
G3 X15.863 Y-19.769 Z-0.243 I-0.249 J-0.02
G1 X15.763 Y-19.776 Z-0.2
G3 X15.268 Y-20.089 I0.096 J-0.698
X15.156 Y-20.538 Z-0.4 I0.591 J-0.385
G1 X15.181 Y-20.734
X15.184 Y-20.97
X15.185 Y-21.12
X15.251 Y-21.255
X15.349 Y-21.368
X15.358 Y-21.375
X15.526 Y-21.455
X15.712 Y-21.467
X15.889 Y-21.411
X16.034 Y-21.294
X16.126 Y-21.133
X16.152 Y-20.949
X16.131 Y-20.462
G3 X15.877 Y-20.266 I-0.216 J-0.017
X15.184 Y-20.97 I0.148 J-0.84
G1 X15.135 Y-21.354
X15.124 Y-21.504
X15.162 Y-21.649
X15.235 Y-21.78
X15.339 Y-21.888
X15.344 Y-21.891
X15.496 Y-21.963
X15.663 Y-21.981
X15.826 Y-21.942
X15.967 Y-21.852
X16.071 Y-21.72
X16.125 Y-21.561
X16.167 Y-21.294
X16.152 Y-20.949
G3 X15.935 Y-20.73 I-0.237 J-0.019
X15.135 Y-21.354 I-0.064 J-0.743
G1 X15.068 Y-21.869
X15.056 Y-22.019
X15.095 Y-22.164
X15.169 Y-22.295
X15.185 Y-22.312
X15.333 Y-22.423
X15.512 Y-22.472
X15.697 Y-22.452
X15.862 Y-22.367
X15.984 Y-22.227
X16.047 Y-22.052
X16.125 Y-21.561
G3 X15.933 Y-21.288 Z-0.245 I-0.246 J0.03
G1 X15.828 Y-21.273 Z-0.2
G3 X15.288 Y-21.462 I-0.053 J-0.715
X15.068 Y-21.869 Z-0.4 I0.488 J-0.526
G1 X15 Y-22.384
X14.981 Y-22.532
X15.024 Y-22.676
X15.103 Y-22.803
X15.114 Y-22.814
X15.263 Y-22.921
X15.441 Y-22.967
X15.624 Y-22.945
X15.786 Y-22.858
X15.906 Y-22.719
X15.968 Y-22.546
X16.047 Y-22.052
G3 X15.834 Y-21.791 I-0.232 J0.029
X15 Y-22.384 I-0.065 J-0.791
G1 X14.956 Y-22.584
X14.897 Y-22.745
X14.852 Y-22.888
X14.861 Y-23.037
X14.908 Y-23.18
X14.92 Y-23.199
X15.045 Y-23.333
X15.21 Y-23.412
X15.393 Y-23.427
X15.569 Y-23.375
X15.714 Y-23.263
X15.809 Y-23.106
X15.931 Y-22.781
X15.968 Y-22.546
G3 X15.794 Y-22.291 I-0.231 J0.029
X14.897 Y-22.745 I-0.188 J-0.742
G1 X14.882 Y-22.785
X14.719 Y-23.178
X14.669 Y-23.319
X14.671 Y-23.469
X14.714 Y-23.613
X14.728 Y-23.639
X14.848 Y-23.784
X15.014 Y-23.874
X15.202 Y-23.896
X15.384 Y-23.847
X15.535 Y-23.734
X15.634 Y-23.573
X15.809 Y-23.106
G3 X15.675 Y-22.807 I-0.228 J0.077
X14.719 Y-23.178 I-0.288 J-0.676
G1 X14.536 Y-23.621
X14.486 Y-23.762
X14.481 Y-23.912
X14.519 Y-24.057
X14.586 Y-24.191
X14.592 Y-24.198
X14.724 Y-24.313
X14.886 Y-24.376
X15.061 Y-24.379
X15.226 Y-24.322
X15.361 Y-24.212
X15.45 Y-24.061
X15.634 Y-23.573
G3 X15.51 Y-23.275 Z-0.251 I-0.233 J0.078
G1 X15.456 Y-23.251 Z-0.225
X15.4 Y-23.231 Z-0.2
G3 X14.853 Y-23.284 I-0.21 J-0.687
X14.536 Y-23.621 Z-0.4 I0.337 J-0.635
G1 X14.41 Y-23.926
X14.328 Y-24.097
X14.263 Y-24.233
X14.26 Y-24.383
X14.264 Y-24.397
X14.343 Y-24.575
X14.484 Y-24.71
X14.667 Y-24.78
X14.862 Y-24.775
X15.04 Y-24.695
X15.175 Y-24.554
X15.4 Y-24.194
X15.45 Y-24.061
G3 X15.303 Y-23.77 I-0.217 J0.073
X14.328 Y-24.097 I-0.266 J-0.824
G1 X14.217 Y-24.269
X14.114 Y-24.402
X14.029 Y-24.525
X13.996 Y-24.672
X14.006 Y-24.821
X14.012 Y-24.841
X14.099 Y-25.01
X14.243 Y-25.134
X14.423 Y-25.196
X14.613 Y-25.186
X14.785 Y-25.105
X14.915 Y-24.967
X15.175 Y-24.554
G3 X15.098 Y-24.243 I-0.199 J0.116
X14.114 Y-24.402 I-0.402 J-0.639
G1 X13.825 Y-24.779
X13.74 Y-24.902
X13.703 Y-25.048
X13.707 Y-25.198
X13.743 Y-25.343
X13.758 Y-25.373
X13.872 Y-25.527
X14.036 Y-25.626
X14.226 Y-25.656
X14.413 Y-25.613
X14.569 Y-25.502
X14.588 Y-25.483
X14.599 Y-25.469
X14.915 Y-24.967
G3 X14.849 Y-24.65 I-0.209 J0.121
X13.825 Y-24.779 I-0.443 J-0.608
G1 X13.521 Y-25.175
X13.436 Y-25.298
X13.389 Y-25.441
X13.388 Y-25.466
X13.409 Y-25.637
X13.487 Y-25.792
X13.613 Y-25.91
X13.771 Y-25.978
X13.944 Y-25.989
X14.109 Y-25.94
X14.248 Y-25.838
X14.569 Y-25.502
G3 X14.574 Y-25.169 Z-0.246 I-0.19 J0.169
G1 X14.538 Y-25.129 Z-0.223
X14.499 Y-25.092 Z-0.2
G3 X13.918 Y-24.938 I-0.448 J-0.519
X13.521 Y-25.175 Z-0.4 I0.132 J-0.673
G1 X13.465 Y-25.248
X13.242 Y-25.503
X13.205 Y-25.533
X13.149 Y-25.583
X13.087 Y-25.719
X13.063 Y-25.868
X13.064 Y-25.875
X13.116 Y-26.058
X13.232 Y-26.208
X13.396 Y-26.304
X13.584 Y-26.332
X13.768 Y-26.287
X13.923 Y-26.178
X14.248 Y-25.838
G3 X14.208 Y-25.51 I-0.164 J0.146
X13.205 Y-25.533 I-0.485 J-0.715
G1 X13.02 Y-25.682
X12.921 Y-25.758
X12.807 Y-25.855
X12.734 Y-25.987
X12.699 Y-26.132
Y-26.282
X12.704 Y-26.307
X12.763 Y-26.46
X12.868 Y-26.585
X13.008 Y-26.67
X13.168 Y-26.705
X13.33 Y-26.687
X13.478 Y-26.617
X13.54 Y-26.574
X13.555 Y-26.562
X13.923 Y-26.178
G3 X13.921 Y-25.865 I-0.174 J0.156
X12.921 Y-25.758 I-0.56 J-0.511
G1 X12.52 Y-26.066
X12.406 Y-26.163
X12.329 Y-26.292
X12.285 Y-26.435
X12.284 Y-26.461
X12.308 Y-26.644
X12.396 Y-26.807
X12.538 Y-26.926
X12.714 Y-26.985
X12.899 Y-26.977
X13.068 Y-26.901
X13.478 Y-26.617
G3 X13.546 Y-26.29 Z-0.245 I-0.15 J0.201
G1 X13.486 Y-26.202 Z-0.2
G3 X12.963 Y-25.935 I-0.555 J-0.44
X12.52 Y-26.066 Z-0.4 I-0.032 J-0.708
G1 X12.12 Y-26.371
X12.005 Y-26.468
X11.928 Y-26.597
X11.921 Y-26.623
X11.906 Y-26.795
X11.95 Y-26.963
X12.049 Y-27.105
X12.191 Y-27.205
X12.358 Y-27.251
X12.531 Y-27.236
X12.689 Y-27.164
X13.068 Y-26.901
G3 X13.13 Y-26.575 Z-0.245 I-0.146 J0.197
G1 X13.1 Y-26.531 Z-0.223
X13.067 Y-26.489 Z-0.2
G3 X12.564 Y-26.242 I-0.538 J-0.459
X12.12 Y-26.371 Z-0.4 I-0.035 J-0.706
G1 X12.047 Y-26.427
X11.855 Y-26.541
X11.823 Y-26.555
X11.688 Y-26.622
X11.584 Y-26.729
X11.515 Y-26.862
X11.48 Y-27.008
Y-27.012
X11.504 Y-27.176
X11.58 Y-27.323
X11.7 Y-27.437
X11.851 Y-27.506
X12.016 Y-27.522
X12.177 Y-27.483
X12.298 Y-27.431
X12.313 Y-27.424
X12.689 Y-27.164
G3 X12.747 Y-26.867 I-0.134 J0.18
X11.823 Y-26.555 I-0.647 J-0.392
G1 X11.662 Y-26.625
X11.377 Y-26.743
X11.242 Y-26.807
X11.134 Y-26.911
X11.057 Y-27.04
X11.048 Y-27.069
X11.027 Y-27.257
X11.077 Y-27.438
X11.19 Y-27.589
X11.351 Y-27.686
X11.537 Y-27.717
X11.722 Y-27.677
X12.177 Y-27.483
G3 X12.304 Y-27.185 Z-0.249 I-0.104 J0.221
G1 X12.284 Y-27.131 Z-0.225
X12.259 Y-27.078 Z-0.2
G3 X11.84 Y-26.73 I-0.631 J-0.333
X11.377 Y-26.743 Z-0.4 I-0.212 J-0.682
G1 X10.905 Y-26.938
X10.769 Y-27.003
X10.664 Y-27.11
X10.592 Y-27.241
X10.583 Y-27.271
X10.563 Y-27.458
X10.614 Y-27.639
X10.728 Y-27.788
X10.889 Y-27.885
X11.074 Y-27.916
X11.258 Y-27.876
X11.722 Y-27.677
G3 X11.847 Y-27.371 Z-0.246 I-0.104 J0.222
G1 X11.803 Y-27.273 Z-0.2
G3 X11.367 Y-26.922 I-0.642 J-0.35
X10.905 Y-26.938 Z-0.4 I-0.206 J-0.702
G1 X10.523 Y-27.096
X10.468 Y-27.113
X10.327 Y-27.166
X10.216 Y-27.266
X10.135 Y-27.392
X10.13 Y-27.404
X10.1 Y-27.577
X10.132 Y-27.75
X10.222 Y-27.901
X10.358 Y-28.012
X10.525 Y-28.069
X10.701 Y-28.064
X10.913 Y-28.021
X10.93 Y-28.015
X11.258 Y-27.876
G3 X11.379 Y-27.576 I-0.101 J0.216
X10.468 Y-27.113 I-0.709 J-0.267
G1 X10.34 Y-27.154
X10.158 Y-27.187
X10.079 Y-27.197
X9.931 Y-27.224
X9.804 Y-27.303
X9.701 Y-27.413
X9.695 Y-27.425
X9.634 Y-27.605
X9.645 Y-27.794
X9.726 Y-27.965
X9.864 Y-28.094
X10.041 Y-28.163
X10.23 Y-28.161
X10.701 Y-28.064
G3 X10.874 Y-27.797 I-0.054 J0.225
X10.079 Y-27.197 I-0.724 J-0.134
G1 X9.607 Y-27.26
X9.459 Y-27.287
X9.33 Y-27.363
X9.227 Y-27.472
X9.149 Y-27.6
X9.145 Y-27.612
X9.117 Y-27.784
X9.151 Y-27.956
X9.241 Y-28.105
X9.377 Y-28.214
X9.543 Y-28.27
X9.718 Y-28.266
X10.23 Y-28.161
G3 X10.412 Y-27.893 I-0.056 J0.234
X9.607 Y-27.26 I-0.734 J-0.105
G1 X9.213 Y-27.312
X9.134 Y-27.321
X8.986 Y-27.346
X8.851 Y-27.41
X8.737 Y-27.508
X8.72 Y-27.531
X8.643 Y-27.696
X8.63 Y-27.877
X8.683 Y-28.051
X8.794 Y-28.194
X8.949 Y-28.289
X9.127 Y-28.322
X9.434
X9.449 Y-28.321
X9.718 Y-28.266
G3 X9.908 Y-28.018 Z-0.257 I-0.058 J0.242
G1 X9.903 Y-27.952 Z-0.228
X9.893 Y-27.886 Z-0.2
G3 X9.583 Y-27.434 I-0.7 J-0.148
X9.134 Y-27.321 Z-0.4 I-0.39 J-0.6
G1 X8.74 Y-27.367
X8.697 Y-27.363
X8.547 Y-27.357
X8.406 Y-27.407
X8.394 Y-27.415
X8.269 Y-27.544
X8.198 Y-27.708
X8.189 Y-27.887
X8.243 Y-28.057
X8.355 Y-28.198
X8.508 Y-28.29
X8.684 Y-28.322
X9.127
G3 X9.346 Y-28.096 I-0.008 J0.226
X8.697 Y-27.363 I-0.739 J0
G1 X8.268 Y-27.326
X8.118 Y-27.313
X7.976 Y-27.36
X7.85 Y-27.441
X7.747 Y-27.551
X7.742 Y-27.558
X7.677 Y-27.722
X7.673 Y-27.898
X7.73 Y-28.065
X7.841 Y-28.201
X7.993 Y-28.291
X8.167 Y-28.322
X8.684
G3 X8.907 Y-28.096 I-0.008 J0.231
X8.268 Y-27.326 I-0.766 J0.015
G1 X7.795 Y-27.263
X7.646 Y-27.251
X7.5 Y-27.285
X7.367 Y-27.355
X7.337 Y-27.382
X7.223 Y-27.527
X7.17 Y-27.703
X7.184 Y-27.886
X7.263 Y-28.052
X7.396 Y-28.178
X7.567 Y-28.247
X7.928 Y-28.321
X7.943 Y-28.322
X8.167
G3 X8.403 Y-28.115 Z-0.256 I-0.009 J0.248
G1 X8.411 Y-28.05 Z-0.228
X8.413 Y-27.985 Z-0.2
G3 X8.205 Y-27.479 I-0.74 J-0.009
X7.795 Y-27.263 Z-0.4 I-0.532 J-0.514
G1 X7.323 Y-27.201
X7.284 Y-27.195
X7.134 Y-27.181
X6.989 Y-27.217
X6.966 Y-27.23
X6.833 Y-27.339
X6.745 Y-27.488
X6.713 Y-27.657
X6.74 Y-27.827
X6.823 Y-27.978
X6.952 Y-28.091
X7.113 Y-28.154
X7.567 Y-28.247
G3 X7.846 Y-28.062 Z-0.243 I0.041 J0.242
G1 X7.863 Y-27.962 Z-0.2
G3 X7.686 Y-27.423 I-0.709 J0.066
X7.284 Y-27.195 Z-0.4 I-0.533 J-0.473
G1 X7.087 Y-27.166
X6.899 Y-27.11
X6.753 Y-27.075
X6.604 Y-27.092
X6.465 Y-27.149
X6.444 Y-27.164
X6.314 Y-27.304
X6.246 Y-27.483
X6.251 Y-27.674
X6.326 Y-27.85
X6.462 Y-27.984
X6.639 Y-28.057
X7.113 Y-28.154
G3 X7.376 Y-27.982 I0.039 J0.229
X6.899 Y-27.11 I-0.71 J0.178
G1 X6.851 Y-27.096
X6.481 Y-26.943
X6.34 Y-26.893
X6.19 Y-26.899
X6.047 Y-26.943
X6.012 Y-26.963
X5.873 Y-27.082
X5.787 Y-27.244
X5.765 Y-27.426
X5.809 Y-27.603
X5.915 Y-27.753
X6.067 Y-27.855
X6.452 Y-28.019
X6.639 Y-28.057
G3 X6.91 Y-27.889 I0.04 J0.238
X6.481 Y-26.943 I-0.755 J0.228
G1 X6.009 Y-26.748
X5.868 Y-26.697
X5.718 Y-26.703
X5.575 Y-26.748
X5.554 Y-26.76
X5.413 Y-26.878
X5.324 Y-27.04
X5.299 Y-27.223
X5.343 Y-27.402
X5.449 Y-27.553
X5.602 Y-27.656
X6.067 Y-27.855
G3 X6.381 Y-27.724 Z-0.241 I0.089 J0.229
G1 X6.414 Y-27.634 Z-0.2
G3 X6.35 Y-27.062 I-0.714 J0.21
X6.009 Y-26.748 Z-0.4 I-0.649 J-0.363
G1 X5.712 Y-26.625
X5.595 Y-26.57
X5.456 Y-26.514
X5.307 Y-26.504
X5.16 Y-26.535
X5.124 Y-26.552
X4.981 Y-26.652
X4.882 Y-26.795
X4.837 Y-26.963
X4.853 Y-27.136
X4.927 Y-27.294
X5.05 Y-27.416
X5.069 Y-27.428
X5.602 Y-27.656
G3 X5.903 Y-27.544 I0.087 J0.225
X5.595 Y-26.57 I-0.632 J0.336
G1 X5.433 Y-26.495
X5.249 Y-26.36
X5.124 Y-26.277
X4.979 Y-26.24
X4.829 Y-26.243
X4.813 Y-26.247
X4.642 Y-26.328
X4.514 Y-26.467
X4.446 Y-26.643
X4.449 Y-26.832
X4.522 Y-27.007
X4.654 Y-27.142
X5.05 Y-27.416
G3 X5.3 Y-27.282 I0.088 J0.136
G1 X5.302 Y-27.126
X5.311 Y-26.489
X5.304 Y-26.44
X5.283 Y-26.396
X5.249 Y-26.36
X4.961 Y-26.148
X4.853 Y-26.065
X4.729 Y-25.979
X4.583 Y-25.944
X4.433 Y-25.95
X4.288 Y-25.988
X4.15 Y-26.09
X4.054 Y-26.233
X4.013 Y-26.399
X4.03 Y-26.57
X4.104 Y-26.725
X4.227 Y-26.846
X4.654 Y-27.142
G3 X4.976 Y-27.083 I0.13 J0.202
X4.853 Y-26.065 I-0.597 J0.444
G1 X4.448 Y-25.754
X4.324 Y-25.669
X4.179 Y-25.633
X4.029
X3.981 Y-25.644
X3.821 Y-25.714
X3.695 Y-25.834
X3.618 Y-25.989
X3.599 Y-26.162
X3.64 Y-26.331
X3.736 Y-26.476
X3.816 Y-26.56
X3.828 Y-26.57
X4.227 Y-26.846
G3 X4.551 Y-26.794 Z-0.247 I0.133 J0.208
G1 X4.585 Y-26.75 Z-0.224
X4.615 Y-26.703 Z-0.2
G3 X4.718 Y-26.327 I-0.639 J0.377
G1 Y-26.326
X4.712 Y-26.235
X4.695 Y-26.145
G3 X4.448 Y-25.754 Z-0.4 I-0.719 J-0.181
G1 X4.354 Y-25.682
X4.185 Y-25.55
X4.092 Y-25.458
X3.98 Y-25.358
X3.839 Y-25.306
X3.827 Y-25.305
X3.656 Y-25.321
X3.5 Y-25.393
X3.378 Y-25.514
X3.304 Y-25.669
X3.286 Y-25.84
X3.328 Y-26.006
X3.424 Y-26.149
X3.736 Y-26.476
G3 X4.07 Y-26.476 I0.167 J0.171
X4.092 Y-25.458 I-0.506 J0.52
G1 X4.016 Y-25.383
X3.853 Y-25.174
X3.755 Y-25.06
X3.625 Y-24.986
X3.479 Y-24.95
X3.444 Y-24.951
X3.255 Y-24.989
X3.095 Y-25.096
X2.987 Y-25.256
X2.947 Y-25.444
X2.982 Y-25.634
X3.086 Y-25.796
X3.424 Y-26.149
G3 X3.736 Y-26.158 I0.161 J0.165
X3.853 Y-25.174 I-0.483 J0.556
G1 X3.543 Y-24.772
X3.446 Y-24.657
X3.314 Y-24.587
X3.167 Y-24.554
X3.017 Y-24.553
X3.004 Y-24.556
X2.825 Y-24.628
X2.688 Y-24.763
X2.611 Y-24.94
X2.607 Y-25.133
X2.676 Y-25.312
X2.78 Y-25.476
X3.086 Y-25.796
G3 X3.413 Y-25.808 Z-0.247 I0.17 J0.175
G1 X3.455 Y-25.77 Z-0.224
X3.493 Y-25.73 Z-0.2
G3 X3.687 Y-25.213 I-0.577 J0.511
X3.543 Y-24.772 Z-0.4 I-0.771 J-0.007
G1 X3.239 Y-24.375
X3.142 Y-24.26
X3.014 Y-24.182
X2.996 Y-24.177
X2.826 Y-24.157
X2.658 Y-24.197
X2.514 Y-24.291
X2.41 Y-24.428
X2.359 Y-24.592
X2.366 Y-24.764
X2.431 Y-24.923
X2.676 Y-25.312
G3 X3.003 Y-25.392 Z-0.243 I0.207 J0.141
G1 X3.089 Y-25.337 Z-0.2
G3 X3.367 Y-24.819 I-0.418 J0.558
X3.239 Y-24.375 Z-0.4 I-0.696 J0.039
G1 X3.158 Y-24.269
X3.071 Y-24.14
X3.032 Y-24.057
X2.962 Y-23.924
X2.848 Y-23.827
X2.712 Y-23.764
X2.691 Y-23.76
X2.499 Y-23.763
X2.322 Y-23.837
X2.187 Y-23.972
X2.111 Y-24.148
X2.108 Y-24.34
X2.177 Y-24.518
X2.431 Y-24.923
G3 X2.736 Y-24.988 I0.186 J0.126
X3.032 Y-24.057 I-0.394 J0.638
G1 X2.911 Y-23.797
X2.852 Y-23.655
X2.788 Y-23.519
X2.682 Y-23.413
X2.551 Y-23.339
X2.407 Y-23.298
X2.397 Y-23.297
X2.231 Y-23.312
X2.08 Y-23.381
X1.959 Y-23.495
X1.882 Y-23.643
X1.859 Y-23.808
X1.89 Y-23.972
X1.974 Y-24.195
X2.177 Y-24.518
G3 X2.478 Y-24.598 I0.196 J0.133
X2.852 Y-23.655 I-0.334 J0.678
G1 X2.651 Y-23.17
X2.587 Y-23.034
X2.479 Y-22.93
X2.349 Y-22.855
X2.328 Y-22.849
X2.144 Y-22.829
X1.966 Y-22.876
X1.818 Y-22.985
X1.718 Y-23.141
X1.682 Y-23.321
X1.714 Y-23.503
X1.89 Y-23.972
G3 X2.196 Y-24.113 Z-0.243 I0.229 J0.095
G1 X2.29 Y-24.075 Z-0.2
G3 X2.667 Y-23.632 I-0.317 J0.651
X2.651 Y-23.17 Z-0.4 I-0.694 J0.209
G1 X2.521 Y-22.855
X2.47 Y-22.725
X2.409 Y-22.588
X2.306 Y-22.479
X2.177 Y-22.402
X2.171 Y-22.4
X1.986 Y-22.375
X1.804 Y-22.42
X1.652 Y-22.527
X1.55 Y-22.684
X1.512 Y-22.866
X1.544 Y-23.05
X1.714 Y-23.503
G3 X2.011 Y-23.641 Z-0.247 I0.224 J0.093
G1 X2.064 Y-23.623 Z-0.224
X2.114 Y-23.6 Z-0.2
G3 X2.474 Y-23.188 I-0.317 J0.639
X2.47 Y-22.725 Z-0.4 I-0.676 J0.226
G1 X2.429 Y-22.619
X2.374 Y-22.384
X2.368 Y-22.341
X2.341 Y-22.193
X2.257 Y-22.069
X2.144 Y-21.97
X2.117 Y-21.956
X1.942 Y-21.904
X1.76 Y-21.918
X1.596 Y-21.996
X1.47 Y-22.128
X1.4 Y-22.297
X1.395 Y-22.479
X1.443 Y-22.781
X1.544 Y-23.05
G3 X1.827 Y-23.178 I0.21 J0.087
X2.368 Y-22.341 I-0.257 J0.76
G1 X2.306 Y-21.869
X2.279 Y-21.722
X2.201 Y-21.594
X2.092 Y-21.491
X2.067 Y-21.476
X1.89 Y-21.412
X1.703 Y-21.417
X1.53 Y-21.492
